!!!!SEGMENT: pl-wtm--r-1691_stefani-jozef--mazur-na-zadanie.krn
!!!cenid: 18xx:2315
!!!COM: Stefani, Józef
!!!COM-rismID: pe30024097
!!!CDT: 1800/04/16-1876/03/19
!!!CNT: Polish
!!!OTL: Mazur na żądanie
!!!PDT:
!!!AGN: Secular; Mazurka
!!!SMS-siglum: PL-Wtm
!!!SMS-shelfmark: R 1691
!!!SMS-shelfwork: W
!!!SMS-variant:
!!!SMS-altvar:
!!!NIFC-rismSourceID: 1001114715
!!!NIFC-islandoraID: pl-wtm:28067
!!!URL-pdf-islandora: https://repozytorium.nifc.pl/islandora/object/pl-wtm%3A28067/datastream/PDF/view
!!!URL-scan: https://polish.musicsources.pl/pl/lokalizacje/galeria/rekopisy/6431 @EN{Scan on Polish Music Herritage in Open Access Website} @PL{Skany w portalu Dziedzictwo Muzyki Polskiej w otwartym dostępie}
!!!ONB-nifc:
!!!AIN: 1 cbass 1 cello 1 clars 2 cor 2 empty 1 fagot 1 flt 1 oboe 1 picco 1 timpa 1 tromp 2 tromt 1 viola 2 violn
!!!key:
**kern	**dynam	**kern	**dynam	**kern	**dynam	**kern	**dynam	**kern	**dynam	**kern	**kern	**dynam	**kern	**kern	**kern	**dynam	**kern	**dynam	**kern	**dynam	**kern	**dynam	**kern	**dynam	**kern	**dynam	**kern	**dynam	**kern	**dynam	**kern	**dynam
*part18	*part18	*part17	*part17	*part16	*part16	*part15	*part15	*part14	*part14	*part13	*part12	*part12	*part11	*part10	*part9	*part9	*part8	*part8	*part7	*part7	*part6	*part6	*part5	*part5	*part4	*part4	*part3	*part3	*part2	*part2	*part1	*part1
*staff18	*	*staff17	*	*staff16	*	*staff15	*	*staff14	*	*staff13	*staff12	*	*staff11	*staff10	*staff9	*	*staff8	*	*staff7	*	*staff6	*	*staff5	*	*staff4	*	*staff3	*	*staff2	*	*staff1	*
*Icbass	*	*Icello	*	*Iviola	*	*Ivioln	*	*Ivioln	*	*Iempty	*Iempty	*	*Itimpa	*Itromt	*Itromt	*	*Itromp	*	*Ifagot	*	*Icor	*	*Icor	*	*Iclars	*	*Ioboe	*	*Ipicco	*	*Iflt	*
*I"C.bassi	*	*I"Violoncelli	*	*I"Viole	*	*I"[Violino Secondo]	*	*I"Violini	*	*I"[Banda 2]	*I"Banda	*	*I"D.A.Timpani	*I"[Trombone II]	*I"Tromboni	*	*I"in C Trombe	*	*I"Fagotti	*	*I"[Corno in C]	*	*I"Corni	*	*I"Clarinetti	*	*I"Oboe	*	*I"F. Piccolo	*	*I"Flauto	*
*I'cb	*	*I'vcl	*	*I'vla	*	*I'[vl 2]	*	*I'vl	*	*I'[bd 2]	*I'bd	*	*I'timp	*I'trb 2	*I'trb	*	*I'tr in C	*	*I'fag	*	*I'[cor in C]	*	*I'cor	*	*I'cl	*	*I'ob	*	*I'fl pic	*	*I'fl	*
*clefF4	*	*clefF4	*	*clefC3	*	*clefG2	*	*clefG2	*	*clefF4	*clefG2	*	*clefF4	*clefF4	*clefC4	*	*clefG2	*	*clefF4	*	*clefG2	*	*clefG2	*	*clefG2	*	*clefG2	*	*clefG2	*	*clefG2	*
*ITrd0c0	*	*	*	*	*	*	*	*	*	*	*	*	*	*	*	*	*	*	*	*	*ITrd0c0	*	*ITrd6c10	*	*	*	*	*	*ITrd0c0	*	*	*
*k[f#c#]	*	*k[f#c#]	*	*k[f#c#]	*	*k[f#c#]	*	*k[f#c#]	*	*k[]	*k[]	*	*k[]	*k[f#c#]	*k[f#c#]	*	*k[f#c#]	*	*k[f#c#]	*	*k[]	*	*k[f#c#]	*	*k[f#c#]	*	*k[f#c#]	*	*k[f#c#]	*	*k[f#c#]	*
*D:	*	*D:	*	*D:	*	*D:	*	*D:	*	*D:	*D:	*	*D:	*D:	*D:	*	*D:	*	*D:	*	*D:	*	*D:	*	*D:	*	*D:	*	*D:	*	*D:	*
*M3/8	*	*M3/8	*	*M3/8	*	*M3/8	*	*M3/8	*	*M3/8	*M3/8	*	*M3/8	*M3/8	*M3/8	*	*M3/8	*	*M3/8	*	*M3/8	*	*M3/8	*	*M3/8	*	*M3/8	*	*M3/8	*	*M3/8	*
*>[A,A,B,C,C,D,D,E,E,F]	*	*	*	*	*	*	*	*	*	*	*	*	*	*	*	*	*	*	*	*	*	*	*	*	*	*	*	*	*	*	*	*
=1	=1	=1	=1	=1	=1	=1	=1	=1	=1	=1	=1	=1	=1	=1	=1	=1	=1	=1	=1	=1	=1	=1	=1	=1	=1	=1	=1	=1	=1	=1	=1	=1
*>A	*	*	*	*	*	*	*	*	*	*	*	*	*	*	*	*	*	*	*	*	*	*	*	*	*	*	*	*	*	*	*	*
*	*	*	*	*	*	*	*	*	*	*	*	*	*	*	*	*	*	*	*	*	*	*	*	*	*	*	*	*	*	*	*all\right:global	*
!	!	!LO:TX:t=P:problem=w taktach 1-24 powtórka partii cb, oktawę wyżej	!	!	!	!	!	!	!	!	!	!	!	!	!	!	!	!	!	!	!	!	!	!	!	!	!	!	!	!	!	!
(8BB-X/L	sf	(yy8BB-X/Lyy	sfyy	(8G/L	sf	(8d/L	sf	(8e/L	sf sf	8C/	4.r	.	8D/	8G\ 8BB-X\	8e\ 8d\	sf	4.r	.	(8B-X\L 8BB-X\	sf	4.r	.	4.r	.	4.r	.	4.r	.	4.r	.	4.r	.
8AA/)	.	8AA/)yy	.	8A/)	.	8c#/)	.	8g/)	.	8r	.	.	8r	8r	8r	.	.	.	8A\ 8AA\)	.	.	.	.	.	.	.	.	.	.	.	.	.
8AA'/J	.	8AA'/Jyy	.	8A'/J	.	8c#/J|	.	8e/J|	.	8r	.	.	8r	8r	8r	.	.	.	8A\J 8AA'\	.	.	.	.	.	.	.	.	.	.	.	.	.
=2	=2	=2	=2	=2	=2	=2	=2	=2	=2	=2	=2	=2	=2	=2	=2	=2	=2	=2	=2	=2	=2	=2	=2	=2	=2	=2	=2	=2	=2	=2	=2	=2
*tremolo	*	*tremolo	*	*	*	*	*	*	*	*	*tremolo	*	*	*	*	*	*	*	*tremolo	*	*	*	*	*	*	*	*	*	*	*	*	*
*	*	*	*	*	*	*	*	*	*	*	*	*	*	*	*	*	*	*	*	*	*^	*	*	*	*	*	*^	*	*	*	*	*
8D\L	.	8D\Lyy	.	16.A/LL	.	16.d/LL	.	16.f#/LL|	.	4.r	8ee\L	.	4.r	4.r	4.r	.	4.r	.	8A\L 8D\	.	4.dd/	4.dd\	.	4.f#/ 4.A/	.	16.ff#\LL 16.dd\	.	16.aa\LL	4.r	.	16.dd\LL	.	16.ddd\LL	.
.	.	.	.	32d/JJk	.	32f#/JJk	.	32a/JJk|	.	.	.	.	.	.	.	.	.	.	.	.	.	.	.	.	.	32aa\JJk 32ff#\	.	32ddd\JJk	.	.	32ff#\JJk	.	32fff#\JJk	.
8D\	.	8D\yy	.	8F#/L	.	8A/L	.	8d/L|	.	.	8ee\	.	.	.	.	.	.	.	8A\ 8D\	.	.	.	.	.	.	8dd\L 8a\	.	8ff#\L	.	.	8a\L	.	8aa\L	.
8D\J	.	8D\Jyy	.	8A/J	.	8d/J	.	8f#/J|	.	.	8ee\J	.	.	.	.	.	.	.	8A\J 8D\	.	.	.	.	.	.	8ff#\J 8dd\	.	8aa\J	.	.	8dd\J	.	8ddd\J	.
*	*	*	*	*	*	*	*	*	*	*	*	*	*	*	*	*	*	*	*	*	*v	*v	*	*	*	*	*	*v	*v	*	*	*	*	*
*Xtremolo	*	*Xtremolo	*	*	*	*	*	*	*	*	*	*	*	*	*	*	*	*	*Xtremolo	*	*	*	*	*	*	*	*	*	*	*	*	*
=3	=3	=3	=3	=3	=3	=3	=3	=3	=3	=3	=3	=3	=3	=3	=3	=3	=3	=3	=3	=3	=3	=3	=3	=3	=3	=3	=3	=3	=3	=3	=3	=3
8BB-X/	sf	8BB-X/yy	sfyy	8G/	sf	8d/	.	8e/	sf	8C/	4.r	.	8D/	8G\ 8BB-X\	8e\ 8d\	sf	4.r	.	(8B-X\L 8BB-X\	sf	4.r	.	4.r	.	4.r	.	4.r	.	4.r	.	4.r	.
.	.	.	.	.	.	(32qqc#/LLL	.	(32qqe/LLL	.	.	.	.	.	.	.	.	.	.	.	.	.	.	.	.	.	.	.	.	.	.	.	.
.	.	.	.	.	.	32qqd/JJJ	.	32qqf#/JJJ	.	.	.	.	.	.	.	.	.	.	.	.	.	.	.	.	.	.	.	.	.	.	.	.
8AA/L	.	8AA/Lyy	.	8A/L	.	8e/L)	.	8g/L)	.	8r	.	.	4r	8r	8r	.	.	.	8A\ 8AA\)	.	.	.	.	.	.	.	.	.	.	.	.	.
8AA/J	.	8AA/Jyy	.	8A/J	.	8c#/J	.	8e/J	.	8r	.	.	.	8r	8r	.	.	.	8A\J 8AA'\	.	.	.	.	.	.	.	.	.	.	.	.	.
=4	=4	=4	=4	=4	=4	=4	=4	=4	=4	=4	=4	=4	=4	=4	=4	=4	=4	=4	=4	=4	=4	=4	=4	=4	=4	=4	=4	=4	=4	=4	=4	=4
*tremolo	*	*tremolo	*	*	*	*	*	*	*	*	*	*	*	*	*	*	*	*	*tremolo	*	*	*	*	*	*	*	*	*	*	*	*	*
8D\L	.	8D\Lyy	.	16.A/LL	.	16.d/LL	.	16.f#/LL	.	4.r	8ee\L	.	4.r	4.r	4.r	.	4.r	.	8A\L 8D\	.	8r	.	8r	.	16.ff#/LL 16.a/	.	16.aa\LL 16.dd\	.	16.ff#\LL	.	16.fff#\LL	.
.	.	.	.	32G/JJk	.	32A/JJk	.	32c#/JJk	.	.	.	.	.	.	.	.	.	.	.	.	.	.	.	.	32cc#/JJk 32g/	.	32gg\JJk 32a\	.	32cc#\JJk	.	32ccc#\JJk	.
8D\	.	8D\yy	.	8F#/L	.	8A/L	.	8d/L	.	.	8ee\	.	.	.	.	.	.	.	8A\ 8D\	.	8dd\L	.	8f#\L 8A\	.	8dd/L 8f#/	.	8ff#\L 8a\	.	8dd\L	.	8ddd\L	.
8D\J	.	8D\Jyy	.	8F#/J	.	8A/J	.	8A/J	.	.	8ee\J	.	.	.	.	.	.	.	8A\J 8D\	.	8dd\J	.	8f#\J 8A\	.	8a/J 8f#/	.	8ff#\J 8a\	.	8a\J	.	8aa'\J	.
*Xtremolo	*	*Xtremolo	*	*	*	*	*	*	*	*	*	*	*	*	*	*	*	*	*Xtremolo	*	*	*	*	*	*	*	*	*	*	*	*	*
=5	=5	=5	=5	=5	=5	=5	=5	=5	=5	=5	=5	=5	=5	=5	=5	=5	=5	=5	=5	=5	=5	=5	=5	=5	=5	=5	=5	=5	=5	=5	=5	=5
(>8BB-X/L	sf	(yy8BB-X/Lyy	sfyy	(8G/L	sf	(8d/L	.	(8e/L	sf	8C/	4.r	.	8D/	8G\ 8BB-X\	8e\ 8d\	.	4.r	.	(8B-X\L 8BB-X\	.	4.r	.	4.r	.	4.r	.	4.r	.	4.r	.	4.r	.
8AA/)	.	8AA/)yy	.	8A/)	.	8c#/)	.	8g/)	.	8r	.	.	8r	8r	8r	.	.	.	8A\ 8AA\)	.	.	.	.	.	.	.	.	.	.	.	.	.
8AA'/J	.	8AA'/Jyy	.	8A'/J	.	8c#'/J	.	8e'/J	.	8r	.	.	8r	8r	8r	.	.	.	8A\J 8AA'\	.	.	.	.	.	.	.	.	.	.	.	.	.
=6	=6	=6	=6	=6	=6	=6	=6	=6	=6	=6	=6	=6	=6	=6	=6	=6	=6	=6	=6	=6	=6	=6	=6	=6	=6	=6	=6	=6	=6	=6	=6	=6
*tremolo	*	*tremolo	*	*	*	*	*	*	*	*	*	*	*	*	*	*	*	*	*tremolo	*	*	*	*	*	*	*	*	*	*	*	*	*
*	*	*	*	*	*	*	*	*	*	*	*	*	*	*	*	*	*	*	*	*	*^	*	*	*	*	*	*^	*	*	*	*	*
8D\L	.	8D\Lyy	.	16.A/LL	.	16.d/LL	.	16.f#/LL|	.	4.r	8ee\L	.	4.r	4.r	4.r	.	4.r	.	8A\L 8D\	.	4.dd/	4.dd\	.	4.f#/ 4.A/	.	16.ff#\LL 16.dd\	.	16.aa\LL	4.r	.	16.dd\LL	.	16.ddd\LL	.
.	.	.	.	32d/JJk	.	32f#/JJk	.	32a/JJk|	.	.	.	.	.	.	.	.	.	.	.	.	.	.	.	.	.	32aa\JJk 32ff#\	.	32ddd\JJk	.	.	32ff#\JJk	.	32fff#\JJk	.
8D\	.	8D\yyyy	.	8F#/L	.	8A/L	.	8d/L|	.	.	8ee\	.	.	.	.	.	.	.	8A\ 8D\	.	.	.	.	.	.	8dd\L 8a\	.	8ff#\L	.	.	8a\L	.	8aa\L	.
8D\J	.	8D\Jyy	.	8A/J	.	8d/J	.	8f#/J|	.	.	8ee\J	.	.	.	.	.	.	.	8A\J 8D\	.	.	.	.	.	.	8ff#\J 8dd\	.	8aa\J	.	.	8dd\J	.	8ddd\J	.
*	*	*	*	*	*	*	*	*	*	*	*	*	*	*	*	*	*	*	*	*	*v	*v	*	*	*	*	*	*v	*v	*	*	*	*	*
*Xtremolo	*	*Xtremolo	*	*	*	*	*	*	*	*	*Xtremolo	*	*	*	*	*	*	*	*Xtremolo	*	*	*	*	*	*	*	*	*	*	*	*	*
!!LO:PB:g=original
=7	=7	=7	=7	=7	=7	=7	=7	=7	=7	=7	=7	=7	=7	=7	=7	=7	=7	=7	=7	=7	=7	=7	=7	=7	=7	=7	=7	=7	=7	=7	=7	=7
*	*	*	*	*tremolo	*	*	*	*	*	*	*	*	*	*	*	*	*	*	*	*	*	*	*tremolo	*	*	*	*	*	*	*	*	*
!LO:TX:t=P:problem=mixed beam	!	!LO:TX:t=P:problem=mixed beam	!	!	!	!	!	!	!	!	!	!	!	!	!	!	!	!	!LO:TX:t=P:problem=mixed beam	!	!	!	!	!	!	!	!	!	!	!	!	!
8AA/L	<	8AA/Lyy	<yy	8A/L	.	16.c#/LL	.	16.e/LL	<	4.r	4.r	.	8r	8r	8r	.	16.e/LL 16.c#/	.	8AA/L	.	4.r	.	8e/L 8A/	.	16.e/LL 16.c#/	.	16.ee\LL 16.cc#\	.	16.ee\LL	.	16.ccc#\LL	<
.	.	.	.	.	.	32d/K	.	32f#/K	.	.	.	.	.	.	.	.	32f#/K 32d/	.	.	.	.	.	.	.	32f#/K 32d/	<	32ff#\K 32dd\	<	32ff#\K	.	32ddd\K	.
8A\	.	8A\yy	.	8A/	.	16.e/	.	16.g/	.	.	.	.	8r	8r	8r	.	16.g/ 16.e/	.	8A\	.	.	.	8e/ 8A/	.	16.g/ 16.e/	.	16.gg\ 16.ee\	.	16.gg\	.	16.eee\	.
.	.	.	.	.	.	32f#/K	.	32a/K	.	.	.	.	.	.	.	.	32a/K 32f#/	.	.	.	.	.	.	.	32a/K 32f#/	.	32aa\K 32ff#\	.	32aa\K	.	32fff#\K	.
8AA/J	[[	8AA/Jyy	[[	8A/J	.	16.g/	.	16.b/	.	.	.	.	8AA/	8A/ 8AA/	8g\ 8e\	.	16.b/ 16.g/	.	8AA/J	.	.	.	8e/J 8A/	.	16.b/ 16.g/	.	16.bb\ 16.gg\	.	16.bb\	.	16.ggg\	.
.	.	.	.	.	.	32g/JJk	.	32cc#/JJk	[[	.	.	.	.	.	.	.	32cc#/JJk 32e/	.	.	.	.	.	.	.	32cc#/JJk 32g/	[[	32ccc#\JJk 32gg\	[	32ccc#\JJk	.	32ggg\JJk	[
*	*	*	*	*Xtremolo	*	*	*	*	*	*	*	*	*	*	*	*	*	*	*	*	*	*	*Xtremolo	*	*	*	*	*	*	*	*	*
=8	=8	=8	=8	=8	=8	=8	=8	=8	=8	=8	=8	=8	=8	=8	=8	=8	=8	=8	=8	=8	=8	=8	=8	=8	=8	=8	=8	=8	=8	=8	=8	=8
*	*	*	*	*	*	*	*	*	*	*	*	*	*	*	*	*	*	*	*	*	*^	*	*	*	*	*	*	*	*	*	*	*
!	!LO:DY:rj:a	!	!LO:DY:rj:b	!	!	!	!	!	!LO:DY:rj:b	!	!	!	!	!	!	!LO:DY:rj:b	!	!	!LO:TX:t=P:problem=w taktach 8-16 powtórka partii cb, oktawę wyżej	!LO:DY:rj:b	!	!	!LO:DY:rj:b	!	!	!LO:DY:rj:a	!	!	!LO:DY:rj:b	!	!LO:DY:rj:a	!	!
16.BB/LL	f	16.BB/LLyy	fyy	16.B/LL	.	16.f#/LL	.	16.dd\LL	f	8C/	16.ee\LL	.	16.D/LL	16.B\LL 16.BB\	16.f#\LL 16.d\	f	16.dd/LL 16.d/	.	16.BB/LLyy	f	16.dd/LL	16.dd\LL	f	16.d/LL 16.F#/	.	16.dd/LL 16.f#/	f	16.ddd\LL 16.ff#\	f	16.ddd\LL	f	16.ddd\LL	.
32AA/JJk	.	32AA/JJkyy	.	32A/JJk	.	32cc#/JJk	.	32ee\JJk 32a\	.	.	32ee\JJk	.	32AA/JJk	32A\JJk 32AA\	32c#\JJk 32A\	.	32cc#/JJk 32e/	.	32AA/JJkyy	.	32ee/JJk	32cc#X\JJk	.	32e/JJk 32A/	.	32ee/JJk 32cc#/	.	32aa\JJk 32cc#\	.	32eee\JJk	.	32ccc#\JJk	.
8D/L	.	8D/Lyy	.	8d\L	.	8dd\L	.	8ff#\L 8a\	.	8r	8ee\L	.	8D/L	8D\L	8d\L 8A\	.	8dd/L 8f#/	.	8D/Lyy	.	8dd/L	8dd\L	.	8f#\L 8d\	.	8ff#\L 8dd\	.	8aa\L 8dd\	.	8fff#\L	.	8ddd\L	.
8D/J	.	8D/Jyy	.	8c#\J	.	8ee\J	.	8aa\J 8a\	.	8r	8ee\J	.	8AA/J	8C#\J	8e\J 8A\	.	8ee/J 8e/	.	8D/Jyy	.	8ee/J	8cc#\J	.	8e\J 8A\	.	8aa\J 8ee\	.	8aa\J 8ee\	.	8aa\J	.	8eee\J	.
=9	=9	=9	=9	=9	=9	=9	=9	=9	=9	=9	=9	=9	=9	=9	=9	=9	=9	=9	=9	=9	=9	=9	=9	=9	=9	=9	=9	=9	=9	=9	=9	=9	=9
*	*	*	*	*	*	*	*	*	*	*	*	*	*	*	*	*	*	*	*	*	*	*	*	*^	*	*^	*	*	*	*	*	*	*
*	*	*	*	*	*	*	*	*	*	*rep	*rep	*	*rep	*	*	*	*	*	*	*	*rep	*rep	*	*	*	*	*	*	*	*	*	*	*	*	*
16.D\LL	.	16.D\LLyy	.	16.d\LL	.	16.dd\LL	.	16.ff#/LL 16.a/ 16.d/	.	8C/	16.ee\LL	.	16.D/LL	16.D\LL	16.f#\LL 16.A\	.	16.dd/LL 16.f#/	.	16.D\LLyy	.	16.dd/LL	16.dd\LL	.	16.f#/LL	16.d\LL	.	16.ff#/LL	16.dd\LL	.	16.aa\LL 16.ff#\	.	16.ff#\LL	.	16.ddd\LL	.
32E\JJk	.	32E\JJkyy	.	32g\JJk	.	32a\JJk	.	32cc#/JJk	.	.	32ee\JJk	.	32AA/JJk	32E\JJk	32c#\JJk 32A\	.	32cc#/JJk 32e/	.	32E\JJkyy	.	32ee/JJk	32cc#X\JJk	.	32g/JJk	32e\JJk	.	32cc#/JJk	32a\JJk	.	32aa\JJk 32cc#\	.	32cc#\JJk	.	32aa\JJk	.
8F#\L	.	8F#\Lyy	.	8f#\L	.	8a\L	.	8dd\L	.	8r	8ee\L	.	8D/L	8F#\L	8d\L 8A\	.	8dd/L 8f#/ 8d/	.	8F#\Lyy	.	8dd/L	8dd\L	.	8f#/L 8d/	4ryy	.	8dd/L	8a\L	.	8aa\L 8dd\	.	8dd\L	.	8aa\L	.
8C#\J	.	8C#\Jyy	.	8e\J	.	8ee\J 8a\	.	8aa\J 8a\	.	8r	8ee\J	.	8AA/J	8C#\J	8e\J 8A\	.	8ee/J 8e/	.	8C#\Jyy	.	8ee/J	8cc#\J	.	8e/J 8A/	.	.	8aa/J	8a\J	.	8aa\J 8ee\	.	8aa\J	.	8aa\J	.
*	*	*	*	*	*	*	*	*	*	*Xrep	*Xrep	*	*Xrep	*	*	*	*	*	*	*	*Xrep	*Xrep	*	*	*	*	*	*	*	*	*	*	*	*	*
*	*	*	*	*	*	*	*	*	*	*	*	*	*	*	*	*	*	*	*	*	*	*	*	*v	*v	*	*	*	*	*	*	*	*	*	*
=10	=10	=10	=10	=10	=10	=10	=10	=10	=10	=10	=10	=10	=10	=10	=10	=10	=10	=10	=10	=10	=10	=10	=10	=10	=10	=10	=10	=10	=10	=10	=10	=10	=10	=10
*	*	*	*	*	*	*	*	*	*	*rep	*rep	*	*	*	*	*	*	*	*	*	*	*	*	*	*	*	*	*	*	*	*	*	*	*
16.D\LL	.	16.D\LLyy	.	16.d\LL	.	16.dd\LL	.	16.ff#/LL 16.a/ 16.d/	.	8C/	16.ee\LL	.	16.D/LL	16.D\LL	16.f#\LL 16.A\	.	16.dd/LL 16.f#/	.	16.D\LLyy	.	16.dd/LL	16.dd\LL	.	16.f#\LL 16.d\	.	16.ff#/LL	16.a\LL	.	16.aa\LL 16.ff#\	.	16.ff#\LL	.	16.aa\LL	.
32E\JJk	.	32E\JJkyy	.	32g\JJk	.	32a\JJk	.	32cc#/JJk	.	.	32ee\JJk	.	32AA/JJk	32E\JJk	32c#\JJk 32A\	.	32cc#/JJk 32e/	.	32E\JJkyy	.	32ee/JJk	32cc#X\JJk	.	32g\JJk 32e\	.	32cc#/JJk	32a\JJk	.	32aa\JJk 32cc#\	.	32cc#\JJk	.	32aa\JJk	.
8F#\L	.	8F#\Lyy	.	8f#\L	.	8a/L	.	8dd/L	.	8r	8ee\L	.	8D/L	8F#\L	8d\L 8A\	.	8dd/L 8d/	.	8F#\Lyy	.	8dd/L	8dd\L	.	8f#\L 8d\	.	8dd/L	8a\L	.	8aa\L 8dd\	.	8dd\L	.	8aa\L	.
8G\J	.	8G\Jyy	.	8d\J	.	8g/J	.	8b/J	.	8r	8ee\J	.	8D/J	8G\J	8B\J 8G\	.	8b/J 8g/	.	8G\Jyy	.	8ee/J	8cc#\J	.	8g\J 8B\	.	8b/J	8g\J	.	8bb\J 8gg\	.	8b\J	.	8gg\J	.
*	*	*	*	*	*	*	*	*	*	*Xrep	*Xrep	*	*	*	*	*	*	*	*	*	*	*	*	*	*	*	*	*	*	*	*	*	*	*
*	*	*	*	*	*	*	*	*	*	*	*	*	*	*	*	*	*	*	*	*	*v	*v	*	*	*	*	*	*	*	*	*	*	*	*
=11	=11	=11	=11	=11	=11	=11	=11	=11	=11	=11	=11	=11	=11	=11	=11	=11	=11	=11	=11	=11	=11	=11	=11	=11	=11	=11	=11	=11	=11	=11	=11	=11	=11
*	*	*	*	*	*	*	*	*	*	*	*tremolo	*	*	*	*	*	*	*	*	*	*	*	*	*	*	*	*	*	*	*	*	*	*
!LO:TX:t=P:problem=mixed beam	!	!LO:TX:t=P:problem=mixed beam	!	!	!	!	!	!	!	!	!	!	!	!	!	!	!	!	!LO:TX:t=P:problem=mixed beam	!	!	!	!	!	!	!	!	!	!	!	!	!	!
8A\L	.	8A\Lyy	.	8d\L	.	16.f#\LL	.	16.a\LL	.	4.r	8ee\L	.	8D/	8A\	8A/ 8F#/	.	8a/ 8f#/	.	8A\Lyy	.	8dd\L	.	8f#\L 8A\	.	4.a/	16.f#\LL	.	16.aa\LL 16.ff#\	.	16.a\LL	.	16.ff#\LL	.
.	.	.	.	.	.	32ff#\K	.	32aa\K	.	.	.	.	.	.	.	.	.	.	.	.	.	.	.	.	.	32aa\K 32ff#\	.	32aa\K 32ff#\	.	32aa\K	.	32fff#\K	.
8A\	.	8A\yy	.	8e\	.	16.ee\	.	16.gg\	.	.	8ee\	.	8r	8r	8r	.	8r	.	8A\yy	.	8ee\ 8cc#X\	.	8g\ 8A\	.	.	16.gg\ 16.ee\	.	16.gg\ 16.ee\	.	16.gg\	.	16.eee\	.
.	.	.	.	.	.	32cc#\K	.	32ee\K	.	.	.	.	.	.	.	.	.	.	.	.	.	.	.	.	.	32ee\K 32cc#\	.	32ee\K 32cc#\	.	32ee\K	.	32ccc#\K	.
8AA/J	.	8AA/Jyy	.	8e\J	.	16.g\	.	16.b\	.	.	8ee\J	.	8r	8r	8r	.	8r	.	8AA\Jyy	.	8ee\J 8cc#\	.	8g\J 8A\	.	.	16.b\ 16.g\	.	16.b\ 16.g\	.	16.b\	.	16.gg\	.
.	.	.	.	.	.	32g\JJk	.	32cc#\JJk	.	.	.	.	.	.	.	.	.	.	.	.	.	.	.	.	.	32cc#\JJk 32g\	.	32cc#\JJk 32g\	.	32cc#\JJk	.	32gg\JJk	.
*	*	*	*	*	*	*	*	*	*	*	*Xtremolo	*	*	*	*	*	*	*	*	*	*	*	*	*	*	*	*	*	*	*	*	*	*
*	*	*	*	*	*	*	*	*	*	*	*	*	*	*	*	*	*	*	*	*	*	*	*	*	*v	*v	*	*	*	*	*	*	*
=12	=12	=12	=12	=12	=12	=12	=12	=12	=12	=12	=12	=12	=12	=12	=12	=12	=12	=12	=12	=12	=12	=12	=12	=12	=12	=12	=12	=12	=12	=12	=12	=12
16.D/LL	.	16.D/LLyy	.	16.d\LL	.	16.f#/LL	.	16.dd\LL	.	8C/	16.ee\LL	.	16.D/LL	16.D/LL	16.f#\LL 16.d\	.	16.dd/LL 16.f#/	.	16.D/LLyy	.	16.dd\LL	.	16.f#\LL 16.d\	.	16.dd/LL 16.f#/	.	16.dd\LL 16.f#\	.	16.dd\LL	.	16.ff#\LL	.
32AA/JJk	.	32AA/JJkyy	.	32A\JJk	.	32cc#/JJk 32e/	.	32ee\JJk 32a\	.	.	32ee\JJk	.	32AA/JJk	32AA/JJk	32e\JJk 32A\	.	32cc#X/JJk 32e/	.	32AA/JJkyy	.	32ee\JJk 32cc#X\	.	32e\JJk 32A\	.	32ee/JJk 32cc#/	.	32ee\JJk 32a\	.	32ee\JJk	.	32aa\JJk	.
8D/L	.	8D/Lyy	.	8d\L	.	8dd/L 8f#/	.	8ff#\ 8a\	.	8r	8ee\L	.	8D/L	8D/L	8d/L 8F#/	.	8dd/L 8f#/	.	8D/Lyyyy	.	8dd\L	.	8f#\L 8d\	.	8ff#\L 8dd\	.	8ff#\L 8a\	.	8ff#\L	.	8ddd\L	.
8BB/J	.	8BB/Jyy	.	8B\J	.	8dd/J 8f#/	.	8ddd\ 8dd\ 8d\	.	8r	8ee\J	.	8D/J	8BB/J	8d/J 8F#/	.	8dd/J 8f#/	.	8BB/Jyy	.	8dd\J	.	8f#\J 8d\	.	8ff#\J 8dd\	.	8ddd\J 8ff#\	.	8ddd\J	.	8fff#\J	.
!!LO:PB:g=original
=13	=13	=13	=13	=13	=13	=13	=13	=13	=13	=13	=13	=13	=13	=13	=13	=13	=13	=13	=13	=13	=13	=13	=13	=13	=13	=13	=13	=13	=13	=13	=13	=13
*	*	*	*	*	*	*	*	*	*	*	*tremolo	*	*	*	*	*	*	*	*	*	*	*	*	*	*	*	*	*	*	*	*	*
!LO:TX:t=P:problem=mixed beam	!	!LO:TX:t=P:problem=mixed beam	!	!	!	!	!	!	!	!	!	!	!	!	!	!	!	!	!LO:TX:t=P:problem=mixed beam	!	!	!	!	!	!	!	!	!	!	!	!	!
8G\L	.	8G\Lyy	.	8B/L	.	8b/L 8g/	.	16.ccc#\LL	.	4.r	8ee\L	.	4.r	8GG/L	8e\L 8d\ 8G\	.	4.r	.	8G\Lyy	.	8dd\L	.	8g\L 8d\	.	16.cc#/LL	.	4.r	.	16.ccc#\LL	.	4.r	.
.	.	.	.	.	.	.	.	32bb\K	.	.	.	.	.	.	.	.	.	.	.	.	.	.	.	.	32b/K	.	.	.	32bb\K	.	.	.
8A\	.	8A\yy	.	8c#/	.	8a/ 8g/	.	16.aa\	.	.	8ee\	.	.	8AA/	8c#\ 8E\	.	.	.	8A\yy	.	8ee\ 8cc#X\	.	8g\ 8A\	.	16.a/	.	.	.	16.aa\	.	.	.
.	.	.	.	.	.	.	.	32gg\K	.	.	.	.	.	.	.	.	.	.	.	.	.	.	.	.	32g/K	.	.	.	32gg\K	.	.	.
8AA/J	.	8AA/Jyy	.	8e/J 8A/	.	8a/J 8g/	.	16.b\	.	.	8ee\J	.	.	8AA/J	8e\J 8G\	.	.	.	8AA\Jyy	.	8ee\J 8cc#\	.	8g\J 8A\	.	16.B/	.	.	.	16.b\	.	.	.
.	.	.	.	.	.	.	.	32cc#\JJk	.	.	.	.	.	.	.	.	.	.	.	.	.	.	.	.	32c#/JJk	.	.	.	32cc#\JJk	.	.	.
*	*	*	*	*	*	*	*	*	*	*	*Xtremolo	*	*	*	*	*	*	*	*	*	*	*	*	*	*	*	*	*	*	*	*	*
=14	=14	=14	=14	=14	=14	=14	=14	=14	=14	=14	=14	=14	=14	=14	=14	=14	=14	=14	=14	=14	=14	=14	=14	=14	=14	=14	=14	=14	=14	=14	=14	=14
16.D/LL	.	16.D/LLyy	.	16.d/LL	.	16.a/LL 16.f#/	.	16.dd\LL	.	4C/	16.ee\LL	.	16.D/LL	16.D/LL	16.d/LL 16.F#/	.	16.dd/LL 16.f#/	.	16.D/LLyy	.	16.dd\LL	.	16.f#\LL 16.d\	.	16.d/LL	.	16.dd\LL 16.f#\	.	16.dd\LL	.	16.ddd\LL	.
32AA/JJk	.	32AA/JJkyy	.	32A/JJk	.	32cc#/JJk 32e/	.	32ee\JJk 32cc#\	.	.	32ee\JJk	.	32AA/JJk	32AA/JJk	32e/JJk 32A/	.	32cc#X/JJk 32f#/	.	32AA/JJkyy	.	32ee\JJk 32cc#X\	.	32e\JJk 32A\	.	32e/JJk	.	32ee\JJk 32a\	.	32ee\JJk	.	32ccc#\JJk	.
8D/L	.	8D/Lyy	.	8d/L	.	8dd/L 8f#/	.	8ff#\ 8cc#\	.	.	8ee\L	.	8D/L	8D/L	8f#\L 8d\	.	8dd/L 8f#/	.	8D/Lyy	.	8dd\L	.	8f#\L 8d\	.	8f#/L	.	8ff#\L 8a\	.	8ff#\L	.	8ddd\L	.
8BB/J	.	8BB/Jyy	.	8B/J	.	8dd/J 8f#/	.	8ddd\ 8dd\ 8d\	.	8r	8ee\J	.	8D/J	8BB/J	8f#\J 8d\	.	8dd/J 8f#/	.	8BB/Jyy	.	8dd\J	.	8f#\J 8d\	.	8dd/J	.	8ddd\J 8ff#\	.	8ddd\J	.	8fff#\J	.
=15	=15	=15	=15	=15	=15	=15	=15	=15	=15	=15	=15	=15	=15	=15	=15	=15	=15	=15	=15	=15	=15	=15	=15	=15	=15	=15	=15	=15	=15	=15	=15	=15
*	*	*	*	*	*	*	*	*	*	*	*tremolo	*	*	*	*	*	*	*	*	*	*	*	*	*	*	*	*	*	*	*	*	*
8GG/L	.	8GG/Lyy	.	8B/L	.	8b/L 8g/	.	16.ccc#\LL	.	4.r	8ee\L	.	4.r	8GG/L	8g\L 8d\	.	4.r	.	8GG/Lyy	.	8dd\L	.	8g\L 8d\	.	16.cc#/LL	.	4.r	.	16.ccc#\LL	.	4.r	.
.	.	.	.	.	.	.	.	32bb\K	.	.	.	.	.	.	.	.	.	.	.	.	.	.	.	.	32b/K	.	.	.	32bb\K	.	.	.
8AA/	.	8AA/yy	.	8c#/	.	8a/ 8g/	.	16.aa\	.	.	8ee\	.	.	8AA/	8e\ 8c#\	.	.	.	8AA/yy	.	8ee\ 8cc#X\	.	8g\ 8A\	.	16.a/	.	.	.	16.aa\	.	.	.
.	.	.	.	.	.	.	.	32gg\K	.	.	.	.	.	.	.	.	.	.	.	.	.	.	.	.	32g/K	.	.	.	32gg\K	.	.	.
8AA/J	.	8AA/Jyy	.	8e/J 8A/	.	8a/J 8g/	.	16.b\	.	.	8ee\J	.	.	8AA/J	8e\J 8G\	.	.	.	8AA/Jyy	.	8ee\J 8cc#\	.	8g\J 8A\	.	16.B/	.	.	.	16.b\	.	.	.
.	.	.	.	.	.	.	.	32cc#\JJk	.	.	.	.	.	.	.	.	.	.	.	.	.	.	.	.	32c#/JJk	.	.	.	32cc#\JJk	.	.	.
*	*	*	*	*	*	*	*	*	*	*	*Xtremolo	*	*	*	*	*	*	*	*	*	*	*	*	*	*	*	*	*	*	*	*	*
=16	=16	=16	=16	=16	=16	=16	=16	=16	=16	=16	=16	=16	=16	=16	=16	=16	=16	=16	=16	=16	=16	=16	=16	=16	=16	=16	=16	=16	=16	=16	=16	=16
8D\	.	8D\yy	.	8d/	.	8a/ 8f#/	.	8dd\	.	8r	8ee\	.	8r	8D\	8d/ 8F#/	.	8r	.	8D\yy	.	8dd\	.	8f#\ 8A\	.	8d/	.	8r	.	8dd\	.	8r	.
8D\	.	8D\yy	.	8A/ 8D/	.	8ff#/ 8a/ 8d/	.	8ddd\ 8dd\	.	8C/	8ee\	.	8D/	8D\	8d/ 8F#/	.	8dd/ 8f#/	.	8D\yy	.	8dd\	.	8f#\ 8A\	.	8dd/ 8f#/	.	8aa\ 8ff#\	.	8ddd\	.	8ddd\	.
8r	.	8ryy	.	8r	.	8r	.	8r	.	8r	8r	.	8r	8r	8r	.	8r	.	8ryy	.	8r	.	8r	.	8r	.	8r	.	8r	.	8r	.
=17:|!	=17:|!	=17:|!	=17:|!	=17:|!	=17:|!	=17:|!	=17:|!	=17:|!	=17:|!	=17:|!	=17:|!	=17:|!	=17:|!	=17:|!	=17:|!	=17:|!	=17:|!	=17:|!	=17:|!	=17:|!	=17:|!	=17:|!	=17:|!	=17:|!	=17:|!	=17:|!	=17:|!	=17:|!	=17:|!	=17:|!	=17:|!	=17:|!
*>B	*	*	*	*	*	*	*	*	*	*	*	*	*	*	*	*	*	*	*	*	*	*	*	*	*	*	*	*	*	*	*	*
!LO:TX:t=P:problem=mixed beam	!LO:DY:rj:b	!LO:TX:t=P:problem=mixed beam	!LO:DY:rj:b	!	!LO:DY:rj:b	!	!	!	!LO:DY:rj:b	!	!	!	!	!	!	!LO:DY:rj:b	!	!	!	!	!	!	!	!LO:DY:rj:b	!	!	!	!LO:DY:rj:b	!	!	!	!LO:DY:rj:b
16.AA/LL	ff	16.AA/LLyy	ffyy	16.A/LL	ff	16.ee\LL 16.a\	.	16.aa\LL 16.cc#\ 16.e\	ff	8C/	8r	.	16.AA/LL	16.AA/LL	16.e\LL 16.c#\	ff	16.a/LL 16.c#/	.	16.A\LL 16.AA\	.	16.ee\LL 16.cc#X\	.	16.e\LL 16.A\	ff	16.a/LL	.	16.aa\LL 16.cc#\	ff	16.aa\LL	.	16.ccc#\LL	ff
32A\JJk	.	32A\JJkyy	.	32e/JJk 32A/	.	32ee\JJk 32a\	.	32aa\JJk 32cc#\	.	.	.	.	32AA/JJk	32AA/JJk	32e\JJk 32c#\	.	32a/JJk 32c#/	.	32A\JJk 32AA\	.	32ee\JJk 32cc#\	.	32e\JJk 32A\	.	32a/JJk	.	32aa\JJk 32cc#\	.	32aa\JJk	.	32ccc#\JJk	.
8A\L	.	8A\Lyy	.	8e/L 8A/	.	8ee\L 8a\	.	8aa\L 8cc#\	.	8r	8ee\L	.	8AA/L	8AA/L	8e\L 8c#\	.	8a/L 8c#/	.	8A\L 8AA\	.	8ee\L 8cc#\	.	8e\L 8A\	.	8a/L	.	8aa\L 8cc#\	.	8aa\L	.	8ccc#\L	.
8A\J	.	8A\Jyy	.	8e/J 8A/	.	8cc#\J	.	8ee\J 8a\	.	8r	8ee\J	.	8AA/J	8AA/J	8e\J 8c#\	.	8e/J 8c#/	.	8A\J 8AA\	.	8ee\J 8cc#\	.	8e\J 8A\	.	8e/J	.	8ee\J 8cc#\	.	8ee\J	.	8ccc#\J	.
!!LO:PB:g=original
=18	=18	=18	=18	=18	=18	=18	=18	=18	=18	=18	=18	=18	=18	=18	=18	=18	=18	=18	=18	=18	=18	=18	=18	=18	=18	=18	=18	=18	=18	=18	=18	=18
*	*	*	*	*	*	*	*	*	*	*	*	*	*	*	*	*	*	*	*	*	*^	*	*	*	*	*	*	*	*	*	*	*
*tremolo	*	*tremolo	*	*tremolo	*	*	*	*	*	*	*	*	*	*	*	*	*	*	*tremolo	*	*tremolo	*tremolo	*	*tremolo	*	*	*	*	*	*	*	*	*
8D\L	.	8D\Lyy	.	8f#/L 8A/	.	16dd\LL	.	16ff#\LL 16a\	.	8C/	8ee\	.	8D/	8D/	8f#\ 8d\	.	8f#/L 8d/	.	8A\L 8D\	.	8dd/L	8dd\L	.	8f#/L 8A/	.	16f#/LL	.	16ff#\LL 16dd\	.	16ff#\LL	.	16ddd\LL	.
.	.	.	.	.	.	64aa\LL	.	(64aa\LL	.	.	.	.	.	.	.	.	.	.	.	.	.	.	.	.	.	(64a/LL	.	(64aa\LL	.	(64aa\LL	.	(64aa\LL	.
.	.	.	.	.	.	64gg\	.	64gg\	.	.	.	.	.	.	.	.	.	.	.	.	.	.	.	.	.	64g/	.	64gg\	.	64gg\	.	64gg\	.
.	.	.	.	.	.	64ff#\	.	64ff#\	.	.	.	.	.	.	.	.	.	.	.	.	.	.	.	.	.	64f#/	.	64ff#\	.	64ff#\	.	64ff#\	.
.	.	.	.	.	.	64ee\JJJJ	.	64ee\JJJJ	.	.	.	.	.	.	.	.	.	.	.	.	.	.	.	.	.	64e/JJJJ)	.	64ee\JJJJ	.	64ee\JJJJ	.	64ee\JJJJ	.
8D\	.	8D\yyyy	.	8f#/ 8A/	.	8dd\	.	8dd\)	.	8r	8r	.	8r	8r	8r	.	8a/ 8f#/	.	8A\ 8D\	.	8dd/	8dd\	.	8f#/ 8A/	.	8d/L	.	8dd\L)	.	8dd\L)	.	8dd\L)	.
8D\J	.	8D\Jyy	.	8f#/J 8A/	.	8ff#\ 8a\ 8d\	.	8ddd\ 8dd\	.	8r	8r	.	8r	8r	8r	.	8f#/J 8d/	.	8A\J 8D\	.	8dd/J	8dd\J	.	8f#/J 8A/	.	8f#/J	.	8ff#\J 8dd\	.	8ddd\J	.	8ddd'\J	.
*Xtremolo	*	*Xtremolo	*	*Xtremolo	*	*	*	*	*	*	*	*	*	*	*	*	*	*	*Xtremolo	*	*Xtremolo	*Xtremolo	*	*Xtremolo	*	*	*	*	*	*	*	*	*
*	*	*	*	*	*	*	*	*	*	*	*	*	*	*	*	*	*	*	*	*	*v	*v	*	*	*	*	*	*	*	*	*	*	*
=19	=19	=19	=19	=19	=19	=19	=19	=19	=19	=19	=19	=19	=19	=19	=19	=19	=19	=19	=19	=19	=19	=19	=19	=19	=19	=19	=19	=19	=19	=19	=19	=19
!LO:TX:t=P:problem=mixed beam	!	!LO:TX:t=P:problem=mixed beam	!	!	!	!	!	!	!	!	!	!	!	!	!	!	!	!	!	!	!	!	!	!	!	!	!	!	!	!	!	!
16.AA/LL	.	16.AA/LLyy	.	16.e/LL 16.A/	.	16.ee\LL 16.a\	.	16.aa\LL 16.cc#\	.	8C/	8r	.	16.AA/LL	16.A\LL	16.e\LL 16.c#\	.	16.a/LL 16.c#/	.	16.A/LL 16.AA/	.	16.ee\LL 16.cc#X\	.	16.e/LL 16.A/	.	16.a/LL	.	16.aa\LL 16.cc#\	.	16.aa\LL	.	16.ccc#\LL	.
32A\JJk	.	32A\JJkyy	.	32e/JJk 32A/	.	32ee\JJK 32a\	.	32aa\JJk 32cc#\	.	.	.	.	32AA/JJk	32A\JJk	32e\JJk 32c#\	.	32a/JJk 32c#/	.	32A/k 32AA/	.	32ee\JJk 32cc#\	.	32e/JJk 32A/	.	32a/JJk	.	32aa\JJk 32cc#\	.	32aa\JJk	.	32ccc#\JJk	.
*	*	*	*	*	*	*	*	*	*	*	*tremolo	*	*	*	*	*	*	*	*	*	*	*	*	*	*	*	*	*	*	*	*	*
8A\L	.	8A\Lyy	.	8e/L 8A/	.	8ee\L 8a\	.	8aa\L 8cc#\	.	8r	32ee\LLL	.	8AA/L	8A\L	8e\L 8c#\	.	8a/L 8c#/	.	8A/ 8AA/	.	8ee\L 8cc#\	.	8e/L 8A/	.	8a/L	.	8aa\L 8cc#\	.	8aa\L	.	8ccc#\L	.
.	.	.	.	.	.	.	.	.	.	.	32ee\	.	.	.	.	.	.	.	.	.	.	.	.	.	.	.	.	.	.	.	.	.
.	.	.	.	.	.	.	.	.	.	.	32ee\	.	.	.	.	.	.	.	.	.	.	.	.	.	.	.	.	.	.	.	.	.
.	.	.	.	.	.	.	.	.	.	.	32ee\JJ	.	.	.	.	.	.	.	.	.	.	.	.	.	.	.	.	.	.	.	.	.
*	*	*	*	*	*	*	*	*	*	*	*Xtremolo	*	*	*	*	*	*	*	*	*	*	*	*	*	*	*	*	*	*	*	*	*
8A\J	.	8A\Jyy	.	8e/J 8A/	.	8cc#\J	.	8ee\J 8a\	.	8r	8ee\J	.	8AA/J	8A\J	8e\J 8c#\	.	8e/J 8c#/	.	8A/JJ 8AA/	.	8ee\J 8cc#\	.	8e/J 8A/	.	8e/J	.	8ee\J 8cc#\	.	8ee\J	.	8ccc#\J	.
=20	=20	=20	=20	=20	=20	=20	=20	=20	=20	=20	=20	=20	=20	=20	=20	=20	=20	=20	=20	=20	=20	=20	=20	=20	=20	=20	=20	=20	=20	=20	=20	=20
*	*	*	*	*	*	*	*	*	*	*	*	*	*	*	*	*	*	*	*	*	*^	*	*	*	*	*	*^	*	*	*	*	*
16D/	.	16D/yy	.	16f#/ 16A/	.	16dd\LL	.	16ff#\LL 16a\	.	8C/	16ee\	.	16D/	16D\	16f#\ 16d\	.	16f#/ 16d/	.	16A\ 16D\	.	16dd/	16dd\	.	16f#/ 16A/	.	16f#/	.	16ff#\ 16dd\	8ryy	.	16ff#\LL	.	16ddd'\LL	.
16r	.	16ryy	.	16r	.	32cc#\L	.	(32cc#\L	.	.	16r	.	16r	16r	16r	.	16r	.	16r	.	16r	16ryy	.	16r	.	16r	.	16r	.	.	32cc#\L	.	(32ccc#\L	.
.	.	.	.	.	.	32dd\JJJ	.	32dd\JJJ)	.	.	.	.	.	.	.	.	.	.	.	.	.	.	.	.	.	.	.	.	.	.	32dd\JJJ	.	32ddd\JJJ)	.
!	!	!	!	!	!	!	!	!	!	!	!	!	!	!	!	!	!	!	!	!	!	!	!LO:DY:a	!	!	!	!LO:DY:a	!	!	!	!	!	!	!
8D/L	.	8D/Lyy	.	8e#X/L 8G#X/	>	8b/T<L	.	(8bT/L	.	8r	8r	.	8r	8r	8r	.	8r	.	(8B\L 8D\	.	4ryy	8dd\L	>	(8e#X/L 8B/	.	(8g#X/L 8e#X/	>	8ee#X/L	4dd\	.	(8cc#t/L	.	(8bbT\L	.
8D/J	.	8D/Jyy	.	8f#/J 8A/	]]	8a/J	.	8a/J)	.	8r	8r	.	8r	8r	8r	.	8r	.	8A\J 8D\)	.	.	8dd\J	]	8f#/J 8A/)	.	8a/J 8f#/)	]	8ff#/J	.	.	8b/J)	.	8aa\J)	.
*	*	*	*	*	*	*	*	*	*	*	*	*	*	*	*	*	*	*	*	*	*v	*v	*	*	*	*	*	*	*	*	*	*	*	*
=21	=21	=21	=21	=21	=21	=21	=21	=21	=21	=21	=21	=21	=21	=21	=21	=21	=21	=21	=21	=21	=21	=21	=21	=21	=21	=21	=21	=21	=21	=21	=21	=21	=21
*	*	*	*	*	*	*	*	*	*	*	*tremolo	*	*	*	*	*	*	*	*	*	*	*	*	*	*	*	*	*	*	*	*	*	*
16.GG/LL	.	16.GG/LLyy	.	16.d\LL	.	16.gg\LL 16.b\ 16.d\	.	16.bb\LL 16.b\ 16.d\	.	8C/L	32ee\LLL	.	16.D/LL	16.G\LL	16.g\LL 16.B\	.	16.dd/LL 16.g/	.	16.G/LL 16.GG/	.	16.dd\LL	.	16.g\LL 16.B\	.	16.b/LL 16.g/	.	4ryy	16.bb\LL 16.dd\	.	16.bb\LL	.	16.ggg\LL	.
.	.	.	.	.	.	.	.	.	.	.	32ee\	.	.	.	.	.	.	.	.	.	.	.	.	.	.	.	.	.	.	.	.	.	.
.	.	.	.	.	.	.	.	.	.	.	32ee\	.	.	.	.	.	.	.	.	.	.	.	.	.	.	.	.	.	.	.	.	.	.
32G/JJk	.	32G/JJkyy	.	32dd\JJk 32d\	.	32gg\JK 32b\	.	32bb\JJk 32b\	.	.	32ee\JJ	.	32D/JK	32G\JK	32g\JK 32B\	.	32dd/JK 32g/	.	32G/JK 32GG/	.	32dd\JK	.	32g\JK 32B\	.	32b/JJk 32g/	.	.	32bb\JK 32dd\	.	32bb\JJk	.	32ggg\JK	.
*	*	*	*	*	*	*	*	*	*	*	*Xtremolo	*	*	*	*	*	*	*	*	*	*	*	*	*	*	*	*	*	*	*	*	*	*
8G\L	.	8G\Lyy	.	8dd\L 8d\	.	8gg\ 8b\	.	8bb\ 8b\	.	8C/J	8ee\J	.	8D/J	8G\J	8g\J 8B\	.	8dd/J 8g/	.	8G/J 8GG/	.	8dd\J	.	8g\J 8B\	.	8b/ 8g/	.	.	8bb\J 8dd\	.	8bb\	.	8ggg\J	.
*	*	*	*	*	*	*	*	*	*	*	*	*	*	*	*	*	*	*	*	*	*	*	*	*	*Xtuplet	*	*Xtuplet	*	*	*Xtuplet	*	*	*
!	!	!	!	!	!	!	!	!LO:TUP:a:problem=klamra łukowa	!	!	!	!	!	!	!	!	!	!	!	!	!	!	!	!	!LO:TUP:a:problem=klamra łukowa	!	!	!	!	!LO:TUP:a:problem=klamra łukowa	!	!	!
8G\J	.	8G\Jyy	.	8dd\J 8d\	.	8gg\J 8b\	.	24gg\LL	.	8r	8r	.	8r	8r	8r	.	8r	.	8r	.	8r	.	8r	.	24g/LL	.	24gg/LL	8r	.	24gg\LL	.	8r	.
.	.	.	.	.	.	.	.	24aa\	.	.	.	.	.	.	.	.	.	.	.	.	.	.	.	.	24a/	.	24aa/	.	.	24aa\	.	.	.
.	.	.	.	.	.	.	.	24bb\JJ	.	.	.	.	.	.	.	.	.	.	.	.	.	.	.	.	24b/JJ	.	24bb/JJ	.	.	24bb\JJ	.	.	.
=22	=22	=22	=22	=22	=22	=22	=22	=22	=22	=22	=22	=22	=22	=22	=22	=22	=22	=22	=22	=22	=22	=22	=22	=22	=22	=22	=22	=22	=22	=22	=22	=22	=22
*	*	*	*	*	*	*	*	*	*	*rep	*rep	*	*	*	*	*	*	*	*	*	*	*	*	*	*	*	*	*	*	*	*	*	*
*	*	*	*	*	*	*	*	*	*	*	*tremolo	*	*	*	*	*	*	*	*	*	*	*	*	*	*	*	*	*	*	*	*	*	*
16.F#\LL	.	16.F#\LLyy	.	16.dd\LL 16.d\	.	16.aa\LL 16.a\	.	16.aa\LL 16.dd\ 16.d\	.	8C/L	32ee\LLL	.	16.D/LL	16.F#\LL	16.d\LL 16.A\	.	16.dd/LL 16.a/	.	16.F#/LL 16.FF#/	.	16.dd\LL	.	16.f#/LL 16.A/	.	16.a/LL	.	4ryy	16.aa\LL 16.dd\	.	16.aa\LL	.	16.ddd\LL	.
.	.	.	.	.	.	.	.	.	.	.	32ee\	.	.	.	.	.	.	.	.	.	.	.	.	.	.	.	.	.	.	.	.	.	.
.	.	.	.	.	.	.	.	.	.	.	32ee\	.	.	.	.	.	.	.	.	.	.	.	.	.	.	.	.	.	.	.	.	.	.
32F#\JJk	.	32F#\JJkyy	.	32dd\JJk 32d\	.	32aa\JJK 32a\	.	32aa\JJk 32dd\	.	.	32ee\JJ	.	32D/JK	32F#\JK	32d\JK 32A\	.	32dd/JK 32a/	.	32F#/JK 32FF#/	.	32dd\JK	.	32f#/JK 32A/	.	32a/JJk	.	.	32aa\JK 32dd\	.	32aa\JJk	.	32ddd\JK	.
*	*	*	*	*	*	*	*	*	*	*	*Xtremolo	*	*	*	*	*	*	*	*	*	*	*	*	*	*	*	*	*	*	*	*	*	*
8F#\L	.	8F#\Lyy	.	8dd\L 8d\	.	8aa\ 8a\	.	8aa\ 8dd\	.	8C/J	8ee\J	.	8D/J	8F#\J	8d\J 8A\	.	8dd/J 8a/	.	8F#/J 8FF#/	.	8dd\J	.	8f#/J 8A/	.	8a/	.	.	8aa\J 8dd\	.	8aa\L	.	8ddd\J	.
*	*	*	*	*	*	*Xtuplet	*	*	*	*	*	*	*	*	*	*	*	*	*	*	*	*	*	*	*	*	*	*	*	*	*	*	*
!	!	!	!	!	!	!	!	!LO:TUP:a:problem=klamra łukowa	!	!	!	!	!	!	!	!	!	!	!	!	!	!	!	!	!LO:TUP:a:problem=klamra łukowa	!	!	!	!	!LO:TUP:a:problem=klamra łukowa	!	!	!
8F#\J	.	8F#\Jyy	.	8dd\J 8d\	.	24ff#\LL	.	24ff#\LL	.	8r	8r	.	8r	8r	8r	.	8r	.	8r	.	8r	.	8r	.	24f#/LL	.	24ff#/LL	8r	.	24ff#\L	.	8r	.
.	.	.	.	.	.	24gg\	.	24gg\	.	.	.	.	.	.	.	.	.	.	.	.	.	.	.	.	24g/	.	24gg/	.	.	24gg\	.	.	.
.	.	.	.	.	.	24aa\JJ	.	24aa\JJ	.	.	.	.	.	.	.	.	.	.	.	.	.	.	.	.	24a/JJ	.	24aa/JJ	.	.	24aa\JJ	.	.	.
*	*	*	*	*	*	*	*	*	*	*Xrep	*Xrep	*	*	*	*	*	*	*	*	*	*	*	*	*	*	*	*	*	*	*	*	*	*
!!LO:LB:g=original
=23	=23	=23	=23	=23	=23	=23	=23	=23	=23	=23	=23	=23	=23	=23	=23	=23	=23	=23	=23	=23	=23	=23	=23	=23	=23	=23	=23	=23	=23	=23	=23	=23	=23
*	*	*	*	*	*	*	*	*	*	*	*	*	*	*	*	*	*	*	*	*	*	*	*	*	*^	*	*	*	*	*	*	*	*
16.E\LL	.	16.E\LLyy	.	16.b\LL 16.e\	.	16.ee\LL	.	16.gg\LL 16.b\	.	8C/	8ee\L	.	8r	16.E\LL	16.e\LL 16.G\	.	16.g/LL	.	16.E/LL 16.EE/	.	16.ee\LL 16.b\	.	16.e\LL 16.B\	.	16ryy	16.ee\LL 16.g\	.	16.gg\LL 16.b\	8ryy	.	16.gg'\LL	.	16.eee\LL	.
.	.	.	.	.	.	.	.	.	.	.	.	.	.	.	.	.	.	.	.	.	.	.	.	.	16ryy	.	.	.	.	.	.	.	.	.
32E\JJk	.	32E\JJkyy	.	32b\JK 32e\	.	32ee\JJk	.	32gg\JJk 32b\	.	.	.	.	.	32E\JJk	32e\JJk 32G\	.	32g/JJk	.	32E/JJk 32EE/	.	32ee\JJk 32b\	.	32e\JJk 32B\	.	.	32ee\JJk 32g\	.	32gg\JJk 32b\	.	.	32gg'\JJk	.	32eee\JJk	.
*	*	*	*	*	*	*	*	*	*	*	*tremolo	*	*	*	*	*	*	*	*	*	*	*	*	*	*	*	*	*	*	*	*	*	*	*
!LO:TX:t=P:problem=mixed beam	!	!LO:TX:t=P:problem=mixed beam	!	!	!	!	!	!	!	!	!	!	!	!LO:TX:t=P:problem=mixed beam	!	!	!	!	!	!	!	!	!	!	!	!	!	!	!	!	!	!	!	!
8A\L	.	8A\Lyy	.	8a\ 8e\	.	8cc#/L	.	8ee\L 8a\	.	8r	32ee\LL	.	8AA/L	8A\L	8c#/L 8E/	.	8e/L	.	8A/L 8AA/	.	8ee\L 8cc#X\	.	8e/L 8A/	.	8cc#/L	8a\L	.	8ee/L	8cc#\L	.	8ee'\L	.	8ccc#\L	.
.	.	.	.	.	.	.	.	.	.	.	32ee\	.	.	.	.	.	.	.	.	.	.	.	.	.	.	.	.	.	.	.	.	.	.	.
.	.	.	.	.	.	.	.	.	.	.	32ee\	.	.	.	.	.	.	.	.	.	.	.	.	.	.	.	.	.	.	.	.	.	.	.
.	.	.	.	.	.	.	.	.	.	.	32ee\JJ	.	.	.	.	.	.	.	.	.	.	.	.	.	.	.	.	.	.	.	.	.	.	.
.	.	.	.	.	.	.	.	.	.	.	.	.	.	.	.	.	.	.	.	.	.	.	.	.	.	.	.	8qgg#X/	.	.	(8qgg#X/	.	.	.
*	*	*	*	*	*	*	*	*	*	*	*Xtremolo	*	*	*	*	*	*	*	*	*	*	*	*	*	*	*	*	*	*	*	*	*	*	*
8AA/J	.	8AA/Jyyyy	.	8a\J 8e\	.	8cc#/J 8e/	.	8aa\J 8a\	.	8r	8ee\J	.	8AA/J	8AA/J	8c#/J 8E/	.	8cc#/J 8e/	.	8A/J 8AA/	.	8ee\J 8cc#\	.	8e/J 8A/	.	8a/J	8e\J	.	8aa/J	8cc#\J	.	8aa\J)	.	8ccc#\J	.
*	*	*	*	*	*	*	*	*	*	*	*	*	*	*	*	*	*	*	*	*	*	*	*	*	*v	*v	*	*	*	*	*	*	*	*
*	*	*	*	*	*	*	*	*	*	*	*	*	*	*	*	*	*	*	*	*	*	*	*	*	*	*	*v	*v	*	*	*	*	*
=24	=24	=24	=24	=24	=24	=24	=24	=24	=24	=24	=24	=24	=24	=24	=24	=24	=24	=24	=24	=24	=24	=24	=24	=24	=24	=24	=24	=24	=24	=24	=24	=24
8D\L	.	8D\Lyy	.	8a\L 8d\	.	8dd/L 8f#/	.	(32ff#\LLL	.	8C/L	8ee\L	.	8D/L	8D/L	8d/L 8F#/	.	8dd/L 8f#/	.	8A\L 8D\	.	8dd\L	.	8f#/L 8A/	.	32f#/LLL	.	8ff#\L 8dd\	.	(32ff#\LLL	.	32ddd\LLL	.
.	.	.	.	.	.	.	.	32dd\	.	.	.	.	.	.	.	.	.	.	.	.	.	.	.	.	32d/	.	.	.	32dd\	.	(32dd\	.
.	.	.	.	.	.	.	.	32ff#\	.	.	.	.	.	.	.	.	.	.	.	.	.	.	.	.	32f#/	.	.	.	32ff#\	.	32ff#\	.
.	.	.	.	.	.	.	.	32aa\JJ)	.	.	.	.	.	.	.	.	.	.	.	.	.	.	.	.	32a/JJ	.	.	.	32aa\JJ)	.	32aa\JJ)	.
8D\J	.	8D\Jyy	.	8a\J 8d\	.	8dd/J 8f#/	.	8ddd'\J	.	8C/J	8ee\J	.	8D/J	8D/J	8d/J 8F#/	.	8dd/J 8f#/	.	8A\J 8D\	.	8dd\J	.	8f#/J 8A/	.	8dd/J	.	8ddd\J 8ff#\	.	8ddd\J	.	8ddd'\J	.
8r	.	8ryy	.	8r	.	8r	.	8r	.	8r	8r	.	8r	8r	8r	.	8r	.	8r	.	8r	.	8r	.	8r	.	8r	.	8r	.	8r	.
*	*	*clefC4	*	*	*	*	*	*	*	*	*	*	*	*	*	*	*	*	*	*	*	*	*	*	*	*	*	*	*	*	*	*
=25!|:	=25!|:	=25!|:	=25!|:	=25!|:	=25!|:	=25!|:	=25!|:	=25!|:	=25!|:	=25!|:	=25!|:	=25!|:	=25!|:	=25!|:	=25!|:	=25!|:	=25!|:	=25!|:	=25!|:	=25!|:	=25!|:	=25!|:	=25!|:	=25!|:	=25!|:	=25!|:	=25!|:	=25!|:	=25!|:	=25!|:	=25!|:	=25!|:
*>C	*	*	*	*	*	*	*	*	*	*	*	*	*	*	*	*	*	*	*	*	*	*	*	*	*	*	*	*	*	*	*	*
*	*	*	*	*	*	*	*	*	*	*	*	*	*	*	*	*	*	*	*^	*	*	*	*	*	*^	*	*	*	*	*	*	*
*	*	*	*	*	*	*	*	*	*	*	*	*	*	*	*	*	*	*	*clefC4	*	*	*	*	*	*	*	*	*	*	*	*	*	*	*
8BB/	.	16.f#\LL	.	16r	.	16r	p	4.r	.	4.r	8ee\	p	4.r	4.r	4.r	.	4.r	.	16.f#/LL	4.r	.	4.r	.	4.r	.	16.ff#/LL	4.r	.	4.r	.	4.r	.	4.r	.
.	.	.	.	16d\	.	16f#/ 16B/|	.	.	.	.	.	.	.	.	.	.	.	.	.	.	.	.	.	.	.	.	.	.	.	.	.	.	.	.
.	.	32f#\JJk	.	.	.	.	.	.	.	.	.	.	.	.	.	.	.	.	32f#/JJk	.	.	.	.	.	.	32ff#/JJk	.	.	.	.	.	.	.	.
*	*	*	*	*tremolo	*	*tremolo	*	*	*	*	*	*	*	*	*	*	*	*	*	*	*	*	*	*	*	*	*	*	*	*	*	*	*	*
8r	.	8g\L	.	16d\LL	.	(16f#/LL 16B'/	.	.	.	.	8r	.	.	.	.	.	.	.	8g/L	.	.	.	.	.	.	8gg/L	.	.	.	.	.	.	.	.
.	.	.	.	16d\	.	16f#/ 16B'/	.	.	.	.	.	.	.	.	.	.	.	.	.	.	.	.	.	.	.	.	.	.	.	.	.	.	.	.
8r	.	8f#\J	.	16d\	.	16f#/ 16B'/	.	.	.	.	8r	.	.	.	.	.	.	.	8f#/J	.	.	.	.	.	.	8ff#/J	.	.	.	.	.	.	.	.
.	.	.	.	16d\JJ	.	16f#/JJ 16B'/)	.	.	.	.	.	.	.	.	.	.	.	.	.	.	.	.	.	.	.	.	.	.	.	.	.	.	.	.
=26	=26	=26	=26	=26	=26	=26	=26	=26	=26	=26	=26	=26	=26	=26	=26	=26	=26	=26	=26	=26	=26	=26	=26	=26	=26	=26	=26	=26	=26	=26	=26	=26	=26	=26
*	*	*	*	*rep	*	*rep	*	*	*	*	*rep	*	*	*	*	*	*	*	*	*	*	*	*	*	*	*	*	*	*	*	*	*	*	*
8BB/	.	16.e#X\LL	.	16r	.	16r	p	4.r	.	4.r	8ee\	.	4.r	4.r	4.r	.	4.r	.	16.e#X/LL	4.r	.	4.r	.	4.r	.	16.ee#X/LL	4.r	.	4.r	.	4.r	.	4.r	.
.	.	.	.	16d\	.	16f#/ 16B/|	.	.	.	.	.	.	.	.	.	.	.	.	.	.	.	.	.	.	.	.	.	.	.	.	.	.	.	.
.	.	32f#\JJk	.	.	.	.	.	.	.	.	.	.	.	.	.	.	.	.	32f#/JJk	.	.	.	.	.	.	32ff#/JJk	.	.	.	.	.	.	.	.
8r	.	8d\L	.	16d\LL	.	(16f#/LL 16B'/	.	.	.	.	8r	.	.	.	.	.	.	.	8d/L	.	.	.	.	.	.	8dd/L	.	.	.	.	.	.	.	.
.	.	.	.	16d\	.	16f#/ 16B'/	.	.	.	.	.	.	.	.	.	.	.	.	.	.	.	.	.	.	.	.	.	.	.	.	.	.	.	.
8r	.	8B\J	.	16d\	.	16f#/ 16B'/	.	.	.	.	8r	.	.	.	.	.	.	.	8B/J	.	.	.	.	.	.	8b/J	.	.	.	.	.	.	.	.
.	.	.	.	16d\JJ	.	16f#/JJ 16B'/)	.	.	.	.	.	.	.	.	.	.	.	.	.	.	.	.	.	.	.	.	.	.	.	.	.	.	.	.
*	*	*	*	*Xrep	*	*Xrep	*	*	*	*	*Xrep	*	*	*	*	*	*	*	*	*	*	*	*	*	*	*	*	*	*	*	*	*	*	*
=27	=27	=27	=27	=27	=27	=27	=27	=27	=27	=27	=27	=27	=27	=27	=27	=27	=27	=27	=27	=27	=27	=27	=27	=27	=27	=27	=27	=27	=27	=27	=27	=27	=27	=27
*	*	*	*	*	*	*	*	*	*	*	*rep	*	*	*	*	*	*	*	*Xtuplet	*	*	*	*	*	*	*tuplet	*	*	*	*	*	*	*	*
8FF#/	.	(24c#/LL	.	16r	.	16r	.	4.r	.	4.r	8ee\	.	4.r	4.r	4.r	.	4.r	.	(24c#/LL	4.r	.	4.r	.	4.r	.	(<24cc#/LL	4.r	.	4.r	.	4.r	.	4.r	.
.	.	24A#X/)	.	.	.	.	.	.	.	.	.	.	.	.	.	.	.	.	24A#X/)	.	.	.	.	.	.	24a#X/)	.	.	.	.	.	.	.	.
.	.	.	.	16c#\	.	16f#/ 16A#X/	.	.	.	.	.	.	.	.	.	.	.	.	.	.	.	.	.	.	.	.	.	.	.	.	.	.	.	.
.	.	24F#'/JJ	.	.	.	.	.	.	.	.	.	.	.	.	.	.	.	.	24F#'/JJ	.	.	.	.	.	.	24f#'</JJ	.	.	.	.	.	.	.	.
8r	.	4f#/	.	16c#\LL	.	16f#/LL 16A#/	.	.	.	.	8r	.	.	.	.	.	.	.	4f#/	.	.	.	.	.	.	4ff#/	.	.	.	.	.	.	.	.
.	.	.	.	16c#\	.	16f#/ 16A#/	.	.	.	.	.	.	.	.	.	.	.	.	.	.	.	.	.	.	.	.	.	.	.	.	.	.	.	.
8r	.	.	.	16c#\	.	16f#/ 16A#/	.	.	.	.	8r	.	.	.	.	.	.	.	.	.	.	.	.	.	.	.	.	.	.	.	.	.	.	.
.	.	.	.	16c#\JJ	.	16f#/JJ 16A#/	.	.	.	.	.	.	.	.	.	.	.	.	.	.	.	.	.	.	.	.	.	.	.	.	.	.	.	.
*	*	*	*	*	*	*	*	*	*	*	*Xrep	*	*	*	*	*	*	*	*	*	*	*	*	*	*	*	*	*	*	*	*	*	*	*
*	*	*	*	*	*	*	*	*	*	*	*	*	*	*	*	*	*	*	*v	*v	*	*	*	*	*	*v	*v	*	*	*	*	*	*	*
=28	=28	=28	=28	=28	=28	=28	=28	=28	=28	=28	=28	=28	=28	=28	=28	=28	=28	=28	=28	=28	=28	=28	=28	=28	=28	=28	=28	=28	=28	=28	=28	=28
*	*	*	*	*rep	*	*rep	*	*	*	*	*	*	*	*	*	*	*	*	*	*	*	*	*	*	*	*	*	*	*	*	*	*
!	!	!	!	!	!	!	!	!	!	!	!	!	!	!	!	!	!	!	!	!	!	!	!	!	!	!	!	!	!	!	!LO:TUP:a	!
8F#\	.	8F#/	.	16r	.	16r	.	(24cc#/LL	.	4.r	4.r	.	4.r	8F#\	8c#\ 8A#X\	.	4.r	.	4.r	.	4.r	.	8f#/ 8F#/	.	4.r	.	(24cc#/LL	.	4.r	.	(24ccc#\LL	.
.	.	.	.	.	.	.	.	24a#X/)	.	.	.	.	.	.	.	.	.	.	.	.	.	.	.	.	.	.	24a#X/)	.	.	.	24aa#X\)	.
.	.	.	.	16c#\	.	16f#/ 16A#X/	.	.	.	.	.	.	.	.	.	.	.	.	.	.	.	.	.	.	.	.	.	.	.	.	.	.
.	.	.	.	.	.	.	.	24f#'/JJ	.	.	.	.	.	.	.	.	.	.	.	.	.	.	.	.	.	.	24f#'/JJ	.	.	.	24ff#'\JJ	.
.	.	.	.	.	.	.	.	(8qee#X/	.	.	.	.	.	.	.	.	.	.	.	.	.	.	.	.	.	.	(8qee#X/	.	.	.	(8qeee#X/	.
8r	.	8r	.	16c#\LL	.	16f#/LL 16A#/	.	4ff#\)	.	.	.	.	.	4F#\	4c#\ 4A#\	.	.	.	.	.	.	.	4f#/ 4F#/	.	.	.	4ff#\)	.	.	.	4fff#\)	.
.	.	.	.	16c#\	.	16f#/ 16A#/	.	.	.	.	.	.	.	.	.	.	.	.	.	.	.	.	.	.	.	.	.	.	.	.	.	.
8r	.	8r	.	16c#\	.	16f#/ 16A#/	.	.	.	.	.	.	.	.	.	.	.	.	.	.	.	.	.	.	.	.	.	.	.	.	.	.
.	.	.	.	16c#\JJ	.	16f#/JJ 16A#/	.	.	.	.	.	.	.	.	.	.	.	.	.	.	.	.	.	.	.	.	.	.	.	.	.	.
*	*	*	*	*Xrep	*	*Xrep	*	*	*	*	*	*	*	*	*	*	*	*	*	*	*	*	*	*	*	*	*	*	*	*	*	*
!!LO:PB:g=original
=29	=29	=29	=29	=29	=29	=29	=29	=29	=29	=29	=29	=29	=29	=29	=29	=29	=29	=29	=29	=29	=29	=29	=29	=29	=29	=29	=29	=29	=29	=29	=29	=29
8BB/	.	16.f#\LL	.	16r	.	16r	.	4.r	.	4.r	8ee\	.	4.r	4.r	4.r	.	4.r	.	16.f#/LL	.	4.r	.	4.r	.	16.ff#/LL	.	4.r	.	4.r	.	4.r	.
.	.	.	.	16d\	.	16f#/ 16B/	.	.	.	.	.	.	.	.	.	.	.	.	.	.	.	.	.	.	.	.	.	.	.	.	.	.
.	.	32f#\JK	.	.	.	.	.	.	.	.	.	.	.	.	.	.	.	.	32f#/JJk	.	.	.	.	.	32ff#/JJk	.	.	.	.	.	.	.
.	.	8qa/	.	.	.	.	.	.	.	.	.	.	.	.	.	.	.	.	(8qa/	.	.	.	.	.	8qaa/	.	.	.	.	.	.	.
8r	.	8g\	.	16d\LL	.	16f#/LL 16B/	.	.	.	.	8r	.	.	.	.	.	.	.	8g/L)	.	.	.	.	.	8gg/L	.	.	.	.	.	.	.
.	.	.	.	16d\	.	16f#/ 16B/	.	.	.	.	.	.	.	.	.	.	.	.	.	.	.	.	.	.	.	.	.	.	.	.	.	.
8r	.	8f#\J	.	16d\	.	16f#/ 16B/	.	.	.	.	8r	.	.	.	.	.	.	.	8f#'/J	.	.	.	.	.	8ff#/J	.	.	.	.	.	.	.
.	.	.	.	16d\JJ	.	16f#/JJ 16B/	.	.	.	.	.	.	.	.	.	.	.	.	.	.	.	.	.	.	.	.	.	.	.	.	.	.
*	*	*	*	*	*	*Xtremolo	*	*	*	*	*	*	*	*	*	*	*	*	*	*	*	*	*	*	*	*	*	*	*	*	*	*
=30	=30	=30	=30	=30	=30	=30	=30	=30	=30	=30	=30	=30	=30	=30	=30	=30	=30	=30	=30	=30	=30	=30	=30	=30	=30	=30	=30	=30	=30	=30	=30	=30
*	*	*Xtuplet	*	*	*	*rep	*	*	*	*	*	*	*	*	*	*	*	*	*	*	*	*	*	*	*Xuplet	*	*	*	*	*	*	*
8BB/	.	24e#X'\LL	.	16r	.	16r	.	4.r	.	4.r	8ee\	.	4.r	4.r	4.r	.	4.r	.	24e#X'/LL	.	4.r	.	4.r	.	24ee#X'/LL	.	4.r	.	4.r	.	4.r	.
.	.	(24g\	.	.	.	.	.	.	.	.	.	.	.	.	.	.	.	.	(>24g/	.	.	.	.	.	(>24gg/	.	.	.	.	.	.	.
.	.	.	.	16d\	.	16f#/ 16B/	.	.	.	.	.	.	.	.	.	.	.	.	.	.	.	.	.	.	.	.	.	.	.	.	.	.
.	.	24f#\JJ)	.	.	.	.	.	.	.	.	.	.	.	.	.	.	.	.	24f#/JJ)	.	.	.	.	.	24ee#/JJ)	.	.	.	.	.	.	.
8r	.	8B\L	.	16d\LL	.	16f#/LL 16B/	.	.	.	.	8r	.	.	.	.	.	.	.	8B/L	.	.	.	.	.	8b/L	.	.	.	.	.	.	.
.	.	.	.	16d\	.	16f#/ 16B/	.	.	.	.	.	.	.	.	.	.	.	.	.	.	.	.	.	.	.	.	.	.	.	.	.	.
8r	.	8d\J	.	16d\	.	16f#/ 16B/	.	.	.	.	8r	.	.	.	.	.	.	.	8d/J	.	.	.	.	.	8dd/J	.	.	.	.	.	.	.
.	.	.	.	16d\JJ	.	16f#/JJ 16B/	.	.	.	.	.	.	.	.	.	.	.	.	.	.	.	.	.	.	.	.	.	.	.	.	.	.
*	*	*	*	*Xtremolo	*	*Xrep	*	*	*	*	*	*	*	*	*	*	*	*	*	*	*	*	*	*	*	*	*	*	*	*	*	*
=31	=31	=31	=31	=31	=31	=31	=31	=31	=31	=31	=31	=31	=31	=31	=31	=31	=31	=31	=31	=31	=31	=31	=31	=31	=31	=31	=31	=31	=31	=31	=31	=31
*	*	*	*	*	*	*	*	*	*	*	*	*	*	*	*	*	*	*	*	*	*^	*	*	*	*^	*	*	*	*	*	*	*
*	*	*clefF4	*	*	*	*	*	*	*	*	*tremolo	*	*	*	*	*	*	*	*clefF4	*	*	*	*	*	*	*	*	*	*	*	*	*	*	*
!	!	!LO:TX:t=P:problem=w taktach 31-32 powtórka partii cb, oktawę wyżej	!	!	!	!	!	!	!	!	!	!	!	!	!	!	!	!	!	!	!	!	!	!	!	!	!	!LO:DY:rj:a	!	!	!	!LO:DY:rj:a	!	!
!	!	!	!	!	!	!	!	!	!LO:DY:rj	!	!	!	!	!	!	!	!	!LO:DY:rj	!	!	!	!	!	!	!	!	!	!	!	!	!	!	!	!
16AA/	.	16AA/yy	.	16r	.	16r	.	(32a\LLL	f	8C/	8ee\L	.	8r	8r	8r	.	4.cc#/ 4.e/	f	4.A\ 4.AA\	.	4.ee/	4.cc#X\	.	4.g\ 4.A\	.	4.cc#/	4.a\	f	4.gg\ 4.ee\	.	(32a\LLL	f	(32aa\LLL	.
.	.	.	.	.	.	.	.	32cc#\	.	.	.	.	.	.	.	.	.	.	.	.	.	.	.	.	.	.	.	.	.	.	32cc#\	.	32ccc#\	.
16r	.	16ryy	.	16e\ 16c#\	.	16g/ 16A/	.	32ee\	.	.	.	.	.	.	.	.	.	.	.	.	.	.	.	.	.	.	.	.	.	.	32ee\	.	32eee\	.
.	.	.	.	.	.	.	.	32gg\JJJ)	.	.	.	.	.	.	.	.	.	.	.	.	.	.	.	.	.	.	.	.	.	.	32gg\JJJ	.	32ggg\JJJ	.
*	*	*	*	*	*	*rep	*	*	*	*	*	*	*	*	*	*	*	*	*	*	*	*	*	*	*	*	*	*	*	*	*	*	*	*
16AA/	.	16AA/yy	.	16r	.	16r	.	8aa\L	.	8r	8ee\	.	8AA/L	8AA/L	8c#/L 8E/	.	.	.	.	.	.	.	.	.	.	.	.	.	.	.	8aa\L)	.	8aaa\L)	.
16r	.	16ryy	.	16e\ 16c#\	.	16g/ 16A/	.	.	.	.	.	.	.	.	.	.	.	.	.	.	.	.	.	.	.	.	.	.	.	.	.	.	.	.
*	*	*	*	*	*	*Xrep	*	*	*	*	*	*	*	*	*	*	*	*	*	*	*	*	*	*	*	*	*	*	*	*	*	*	*	*
*	*	*	*	*	*	*rep	*	*	*	*	*	*	*	*	*	*	*	*	*	*	*	*	*	*	*	*	*	*	*	*	*	*	*	*
16AA/	.	16AA/yy	.	16r	.	16r	.	8ccc#\J	.	8r	8ee\J	.	8AA/J	8AA/J	8c#/J 8E/	.	.	.	.	.	.	.	.	.	.	.	.	.	.	.	8ccc#'\J	.	8ccc#'\J	.
16r	.	16ryy	.	16e\ 16c#\	.	16g/ 16A/	.	.	.	.	.	.	.	.	.	.	.	.	.	.	.	.	.	.	.	.	.	.	.	.	.	.	.	.
*	*	*	*	*	*	*Xrep	*	*	*	*	*Xtremolo	*	*	*	*	*	*	*	*	*	*	*	*	*	*	*	*	*	*	*	*	*	*	*
*	*	*	*	*	*	*	*	*	*	*	*	*	*	*	*	*	*	*	*	*	*v	*v	*	*	*	*	*	*	*	*	*	*	*	*
=32	=32	=32	=32	=32	=32	=32	=32	=32	=32	=32	=32	=32	=32	=32	=32	=32	=32	=32	=32	=32	=32	=32	=32	=32	=32	=32	=32	=32	=32	=32	=32	=32	=32
.	.	.	.	.	.	.	.	(8qeee/	.	.	.	.	.	.	.	.	.	.	.	.	.	.	.	.	(>8qee/	.	.	.	.	8qeee/	.	8qeee/	.
*	*	*	*	*	*	*	*	*	*	*	*	*	*	*	*	*	*	*	*	*	*	*	*	*	*	*	*	*^	*	*	*	*	*
16D/	.	16D/yy	.	16r	.	16r	.	16ddd\LL)	.	8C/L	32ee\LLL	.	8D/L	8D/L	8d/L 8F#/	.	8dd/L 8f#/	.	8A\L 8D\	.	8dd\L	.	8f#\L 8A\	.	16dd/LL	8f#\	.	8ff#\L 8dd\	4ryy	.	(16ddd\LL	.	(16ddd\LL	.
.	.	.	.	.	.	.	.	.	.	.	32ee\	.	.	.	.	.	.	.	.	.	.	.	.	.	.	.	.	.	.	.	.	.	.	.
16r	.	16ryy	.	16d\KL	.	16f#/KL 16A/	.	(32ccc#\L	.	.	32ee\	.	.	.	.	.	.	.	.	.	.	.	.	.	32cc#/L	.	.	.	.	.	32ccc#\L	.	32ccc#\L	.
.	.	.	.	.	.	.	.	32ddd\JJJ)	.	.	32ee\JJ	.	.	.	.	.	.	.	.	.	.	.	.	.	32dd/JJJ)	.	.	.	.	.	32ddd\JJJ)	.	32ddd\JJ)	.
8D/	.	8D/yy	.	8d\J	.	8f#/J 8A/	.	8dd\	.	8C/J	8ee\J	.	8D/J	8D/J	8d/J 8F#/	.	8dd/J 8f#/	.	8A\J 8D\	.	8dd\J	.	8f#\J 8A\	.	8d/	8f#\	.	8ff#\J 8dd\	.	.	8dd\	.	8dd\J	.
8r	.	8ryy	.	8r	.	8r	.	(32dd\LLL	.	8r	8r	.	8r	8r	8r	.	8r	.	8r	.	8r	.	8r	.	(32d/LLL	8ryy	.	(<32dd/LLL	8r	.	(32dd\LLL	.	8r	.
.	.	.	.	.	.	.	.	32ee\	.	.	.	.	.	.	.	.	.	.	.	.	.	.	.	.	32e/	.	.	32ee/	.	.	32ee\	.	.	.
.	.	.	.	.	.	.	.	32ff#\	.	.	.	.	.	.	.	.	.	.	.	.	.	.	.	.	32f#/	.	.	32ff#/	.	.	32ff#\	.	.	.
.	.	.	.	.	.	.	.	32gg\JJJ)	.	.	.	.	.	.	.	.	.	.	.	.	.	.	.	.	32g/JJJ)	.	.	32gg/JJJ)	.	.	32gg\JJJ)	.	.	.
*	*	*	*	*	*	*	*	*	*	*	*	*	*	*	*	*	*	*	*	*	*	*	*	*	*v	*v	*	*	*	*	*	*	*	*
=33	=33	=33	=33	=33	=33	=33	=33	=33	=33	=33	=33	=33	=33	=33	=33	=33	=33	=33	=33	=33	=33	=33	=33	=33	=33	=33	=33	=33	=33	=33	=33	=33	=33
!LO:TX:t=P:problem=powtórka taktów 17-24	!	!LO:TX:t=P:problem=powtórka taktów 17-24	!	!	!	!	!	!	!	!	!	!	!	!	!	!	!	!	!	!	!	!	!	!	!	!	!	!	!	!	!	!	!
!LO:TX:t=P:problem=mixed beam	!	!LO:TX:t=P:problem=mixed beam	!	!LO:TX:t=P:problem=powtórka taktów 17-24	!	!LO:TX:t=P:problem=powtórka taktów 17-24	!	!LO:TX:t=P:problem=powtórka taktów 17-24	!	!LO:TX:t=P:problem=powtórka taktów 17-24	!LO:TX:t=P:problem=powtórka taktów 17-24	!	!LO:TX:t=P:problem=powtórka taktów 17-24	!LO:TX:t=P:problem=powtórka taktów 17-24	!LO:TX:t=P:problem=powtórka taktów 17-24	!	!LO:TX:t=P:problem=powtórka taktów 17-24	!	!LO:TX:t=P:problem=powtórka taktów 17-24	!	!LO:TX:t=P:problem=powtórka taktów 17-24	!	!LO:TX:t=P:problem=powtórka taktów 17-24	!	!LO:TX:t=P:problem=powtórka taktów 17-24	!	!LO:TX:t=P:problem=powtórka taktów 17-24	!	!	!	!	!LO:TX:t=P:problem=powtórka taktów 17-19	!
16.AA\LLyy	ff	16.AA\LLyy	ff	16.A/LLyy	ff	16.eeyy\LL 16.a\	.	16.aayy\LL 16.cc#\ 16.e\	ff	8C/yy	8ryy	.	16.AA/LLyy	16.AA/LLyy	16.eyy\LL 16.c#\	ff	16.ayy/LL 16.c#/	.	16.Ayy\LL 16.AA\	.	16.eeyy\LL 16.cc#X\	.	16.eyy\LL 16.A\	ff	16.a/LLyy	.	16.aayy/LL 16.cc#/	4.ryy	ff	16.aa\LLyy	.	16.ccc#\LLyy	ffyy
32A\JJkyy	.	32A\JJkyy	.	32eyy/JJk 32A/	.	32eeyy\JJk 32a\	.	32aayy\JJk 32cc#\	.	.	.	.	32AA/JJkyy	32AA/JJkyy	32eyy\JJk 32c#\	.	32ayy/JJk 32c#/	.	32Ayy\JJk 32AA\	.	32eeyy\JJk 32cc#\	.	32eyy\JJk 32A\	.	32a/JJkyy	.	32aayy/JJk 32cc#/	.	.	32aa\JJkyy	.	32ccc#\JJkyy	.
8A\Lyy	.	8A\Lyy	.	8eyy/L 8A/	.	8eeyy\L 8a\	.	8aayy\L 8cc#\	.	8ryy	8ee\Lyy	.	8AA/Lyy	8AA/Lyy	8eyy\L 8c#\	.	8ayy/L 8c#/	.	8Ayy\L 8AA\	.	8eeyy\L 8cc#\	.	8eyy\L 8A\	.	8a/Lyy	.	8aayy/L 8cc#/	.	.	8aa\Lyy	.	8ccc#\Lyy	.
8A\Jyy	.	8A\Jyy	.	8eyy/J 8A/	.	8cc#\Jyy	.	8eeyy\J 8a\	.	8ryy	8ee\Jyy	.	8AA/Jyy	8AA/Jyy	8eyy\J 8c#\	.	8eyy/J 8c#/	.	8Ayy\J 8AA\	.	8eeyy\J 8cc#\	.	8eyy\J 8A\	.	8e/Jyy	.	8eeyy/J 8cc#/	.	.	8ee\Jyy	.	8ccc#\Jyy	.
*	*	*	*	*	*	*	*	*	*	*	*	*	*	*	*	*	*	*	*	*	*	*	*	*	*	*	*v	*v	*	*	*	*	*
=34	=34	=34	=34	=34	=34	=34	=34	=34	=34	=34	=34	=34	=34	=34	=34	=34	=34	=34	=34	=34	=34	=34	=34	=34	=34	=34	=34	=34	=34	=34	=34	=34
*	*	*	*	*	*	*	*	*	*	*	*	*	*	*	*	*	*	*	*	*	*^	*	*	*	*	*	*	*	*	*	*	*
8D\Lyy	.	8D\Lyy	.	8f#yy/L 8A/	.	16dd\LLyy	.	16ff#yy\LL 16a\	.	8C/yy	8ee\yy	.	8D/yy	8D/yy	8f#yy\ 8d\	.	8f#yy/L 8d/	.	8Ayy\L 8D\	.	8dd/Lyy	8dd\Lyy	.	8f#yy/L 8A/	.	16f#/LLyy	.	16ff#yy\LL 16dd\	.	(16ff#\LLyy	.	16ddd\LLyy	.
.	.	.	.	.	.	64aa\LLyy	.	(64aa\LLyy	.	.	.	.	.	.	.	.	.	.	.	.	.	.	.	.	.	(64a/LLyy	.	(64aa\LLyy	.	64aa\LLyy	.	(64aa\LLyy	.
.	.	.	.	.	.	64gg\yy	.	64gg\yy	.	.	.	.	.	.	.	.	.	.	.	.	.	.	.	.	.	64g/yy	.	64gg\yy	.	64gg\yy	.	64gg\yy	.
.	.	.	.	.	.	64ff#\yy	.	64ff#\yy	.	.	.	.	.	.	.	.	.	.	.	.	.	.	.	.	.	64f#/yy	.	64ff#\yy	.	64ff#\yy	.	64ff#\yy	.
.	.	.	.	.	.	64ee\JJJJyy	.	64ee\JJJJyy	.	.	.	.	.	.	.	.	.	.	.	.	.	.	.	.	.	64e/JJJJ)yy	.	64ee\JJJJyy	.	64ee\JJJJyy	.	64ee\JJJJyy	.
8D\yy	.	8D\yy	.	8f#yy/ 8A/	.	8dd\Lyy	.	8dd\)yy	.	8ryy	8ryy	.	8ryy	8ryy	8ryy	.	8ayy/ 8f#/	.	8Ayy\ 8D\	.	8dd/yy	8dd\yy	.	8f#yy/ 8A/	.	8d/Lyy	.	8dd\L)yy	.	8dd\L)yy	.	8dd\L)yy	.
8D\Jyy	.	8D\Jyy	.	8f#yy/J 8A/	.	8ff#yy\J 8a\ 8d\	.	8dddyy\ 8dd\	.	8ryy	8ryy	.	8ryy	8ryy	8ryy	.	8f#yy/J 8d/	.	8Ayy\J 8D\	.	8dd/Jyy	8dd\Jyy	.	8f#yy/J 8A/	.	8f#/Jyy	.	8ff#yy\J 8dd\	.	8ddd\Jyy	.	8ddd'\Jyy	.
*	*	*	*	*	*	*	*	*	*	*	*	*	*	*	*	*	*	*	*	*	*v	*v	*	*	*	*	*	*	*	*	*	*	*
=35	=35	=35	=35	=35	=35	=35	=35	=35	=35	=35	=35	=35	=35	=35	=35	=35	=35	=35	=35	=35	=35	=35	=35	=35	=35	=35	=35	=35	=35	=35	=35	=35
!LO:TX:t=P:problem=mixed beam	!	!LO:TX:t=P:problem=mixed beam	!	!	!	!	!	!	!	!	!	!	!	!	!	!	!	!	!	!	!	!	!	!	!	!	!	!	!	!	!	!
16.AA\LLyy	.	16.AA\LLyy	.	16.eyy/LL 16.A/	.	16.eeyy\LL 16.a\	.	16.aayy\LL 16.cc#\	.	8C/yy	8ryy	.	16.AA/LLyy	16.A\LLyy	16.eyy\LL 16.c#\	.	16.ayy/LL 16.c#/	.	16.Ayy/LL 16.AA/	.	16.eeyy\LL 16.cc#X\	.	16.eyy/LL 16.A/	.	16.a/LLyy	.	16.aayy\LL 16.cc#\	.	16.aa\LLyy	.	16.ccc#\LLyy	.
32A\JJkyy	.	32A\JJkyy	.	32eyy/JJk 32A/	.	32eeyy\JK 32a\	.	32aayy\JJk 32cc#\	.	.	.	.	32AA/JJkyy	32A\JJkyy	32eyy\JJk 32c#\	.	32ayy/JJk 32c#/	.	32Ayy/JJk 32AA/	.	32eeyy\JJk 32cc#\	.	32eyy/JJk 32A/	.	32a/JJkyy	.	32aayy\JJk 32cc#\	.	32aa\JJkyy	.	32ccc#\JJkyy	.
*	*	*	*	*	*	*	*	*	*	*	*tremolo	*	*	*	*	*	*	*	*	*	*	*	*	*	*	*	*	*	*	*	*	*
8A\Lyy	.	8A\Lyy	.	8eyy/L 8A/	.	8eeyy\ 8a\	.	8aayy\L 8cc#\	.	8ryy	32ee\LLLyy	.	8AA/Lyy	8A\Lyy	8eyy\L 8c#\	.	8ayy/L 8c#/	.	8Ayy/L 8AA/	.	8eeyy\L 8cc#\	.	8eyy/L 8A/	.	8a/Lyy	.	8aayy\L 8cc#\	.	8aa\Lyy	.	8ccc#\Lyy	.
.	.	.	.	.	.	.	.	.	.	.	32ee\yy	.	.	.	.	.	.	.	.	.	.	.	.	.	.	.	.	.	.	.	.	.
.	.	.	.	.	.	.	.	.	.	.	32ee\yy	.	.	.	.	.	.	.	.	.	.	.	.	.	.	.	.	.	.	.	.	.
.	.	.	.	.	.	.	.	.	.	.	32ee\JJyy	.	.	.	.	.	.	.	.	.	.	.	.	.	.	.	.	.	.	.	.	.
*	*	*	*	*	*	*	*	*	*	*	*Xtremolo	*	*	*	*	*	*	*	*	*	*	*	*	*	*	*	*	*	*	*	*	*
8A\Jyy	.	8A\Jyy	.	8eyy/J 8A/	.	8cc#\Jyy	.	8eeyy\J 8a\	.	8ryy	8ee\Jyy	.	8AA/Jyy	8A\Jyy	8eyy\J 8c#\	.	8eyy/J 8c#/	.	8Ayy/J 8AA/	.	8eeyy\J 8cc#\	.	8eyy/J 8A/	.	8e/Jyy	.	8eeyy\J 8cc#\	.	8ee\Jyy	.	8ccc#\Jyy	.
=36	=36	=36	=36	=36	=36	=36	=36	=36	=36	=36	=36	=36	=36	=36	=36	=36	=36	=36	=36	=36	=36	=36	=36	=36	=36	=36	=36	=36	=36	=36	=36	=36
*	*	*	*	*	*	*	*	*	*	*	*	*	*	*	*	*	*	*	*	*	*^	*	*	*	*	*	*^	*	*	*	*	*
16D/yy	.	16D/yy	.	16f#yy/ 16A/	.	16dd\LLyy	.	16ff#yy\LL 16aT\	.	8C/yy	16ee\yy	.	16D/yy	16D\yy	16f#yy\ 16d\	.	16f#yy/ 16d/	.	16Ayy\ 16D\	.	16dd/yy	16dd\yy	.	16f#yy/ 16A/	.	16f#/yy	.	16ff#yy\ 16dd\	8ryyyy	.	16ff#\LLyy	.	16fff#'\LLyy	.
16ryy	.	16ryy	.	16ryy	.	32cc#\Lyy	.	(32cc#\Lyy	.	.	16ryy	.	16ryy	16ryy	16ryy	.	16ryy	.	16ryy	.	16ryy	16ryyyy	.	16ryy	.	16ryy	.	16ryy	.	.	32cc#\Lyy	.	(32ccc#\Lyy	.
.	.	.	.	.	.	32dd\JJyy	.	32dd\JJJ)yy	.	.	.	.	.	.	.	.	.	.	.	.	.	.	.	.	.	.	.	.	.	.	32dd\JJJyy	.	32ddd\JJJ)yy	.
!	!	!	!	!	!	!	!	!	!	!	!	!	!	!	!	!	!	!	!	!	!	!	!LO:DY:a	!	!	!	!LO:DY:a	!	!	!	!	!	!	!
8D/Lyy	.	8D/Lyy	.	8e#Xyy/L 8G#X/	>	8b\yy	.	(8bT/Lyy	.	8ryy	8ryy	.	8ryy	8ryy	8ryy	.	8ryy	.	(8Byy\L 8D\	.	4ryyyy	8dd\Lyy	>	(8e#Xyy/L 8B/	.	(8g#Xyy/L 8e#X/	>	8ee#X/Lyy	4dd\yy	.	8bT/Lyy	.	8bbT\Lyy	.
8D/Jyy	.	8D/Jyy	.	8f#yy/J 8A/	]]	8a\Jyy	.	8a/J)yy	.	8ryy	8ryy	.	8ryy	8ryy	8ryy	.	8ryy	.	8Ayy\J 8D\)	.	.	8dd\Jyy	.	8f#yy/J 8A/)	.	8ayy/J 8f#/)	]]	8ff#/Jyy	.	.	8a/Jyy	.	8aa\Jyy	.
*	*	*	*	*	*	*	*	*	*	*	*	*	*	*	*	*	*	*	*	*	*v	*v	*	*	*	*	*	*	*	*	*	*	*	*
=37	=37	=37	=37	=37	=37	=37	=37	=37	=37	=37	=37	=37	=37	=37	=37	=37	=37	=37	=37	=37	=37	=37	=37	=37	=37	=37	=37	=37	=37	=37	=37	=37	=37
*	*	*	*	*	*	*	*	*	*	*	*tremolo	*	*	*	*	*	*	*	*	*	*	*	*	*	*	*	*	*	*	*	*	*	*
!	!	!	!	!	!	!	!	!	!	!	!	!	!	!	!	!	!	!	!	!	!	!	!	!	!	!	!	!	!	!	!	!LO:TX:t=P:problem=powtórka taktów 21-24	!
16.GG/LLyy	.	16.GG/LLyy	.	16.d\LLyy	.	16.ggyy\LL 16.b\ 16.d\	.	16.bbyy\LL 16.b\ 16.d\	.	8C/Lyy	32ee\LLLyy	.	16.D/LLyy	16.G\LLyy	16.gyy\LL 16.B\	.	16.ddyy/LL 16.g/	.	16.Gyy/LL 16.GG/	.	16.dd\LLyy	]	16.gyy\LL 16.B\	.	16.byy/LL 16.g/	.	4ryyyy	16.bbyy\LL 16.dd\	.	16.bb\LLyy	.	16.ggg\LLyy	.
.	.	.	.	.	.	.	.	.	.	.	32ee\yy	.	.	.	.	.	.	.	.	.	.	.	.	.	.	.	.	.	.	.	.	.	.
.	.	.	.	.	.	.	.	.	.	.	32ee\yy	.	.	.	.	.	.	.	.	.	.	.	.	.	.	.	.	.	.	.	.	.	.
32G/JJkyy	.	32G/JJkyy	.	32ddyy\JJk 32d\	.	32ggyy\JK 32b\	.	32bbyy\JJk 32b\	.	.	32ee\JJyy	.	32D/JKyy	32G\JKyy	32gyy\JK 32B\	.	32ddyy/JK 32g/	.	32Gyy/JK 32GG/	.	32dd\JKyy	.	32gyy\JK 32B\	.	32byy/JJk 32g/	.	.	32bbyy\JK 32dd\	.	32bb\JJkyy	.	32ggg\JKyy	.
*	*	*	*	*	*	*	*	*	*	*	*Xtremolo	*	*	*	*	*	*	*	*	*	*	*	*	*	*	*	*	*	*	*	*	*	*
8G\Lyy	.	8G\Lyy	.	8ddyy\L 8d\	.	8ggyy\ 8b\	.	8bbyy\ 8b\	.	8C/Jyy	8ee\Jyy	.	8D/Jyy	8G\Jyy	8gyy\J 8B\	.	8ddyy/J 8g/	.	8Gyy/J 8GG/	.	8dd\Jyy	.	8gyy\J 8B\	.	8byy/ 8g/	.	.	8bbyy\J 8dd\	.	8bb\Lyy	.	8ggg\Jyy	.
!	!	!	!	!	!	!	!	!LO:TUP:a:problem=klamra łukowa	!	!	!	!	!	!	!	!	!	!	!	!	!	!	!	!	!LO:TUP:a:problem=klamra łukowa	!	!	!	!	!LO:TUP:a:problem=klamra łukowa	!	!	!
8G\Jyy	.	8G\Jyy	.	8ddyy\J 8d\	.	8ggyy\J 8b\	.	24gg\LLyy	.	8ryy	8ryy	.	8ryy	8ryy	8ryy	.	8ryy	.	8ryy	.	8ryy	.	8ryy	.	24g/LLyy	.	24gg/LLyy	8ryy	.	24gg\Lyy	.	8ryy	.
.	.	.	.	.	.	.	.	24aa\yy	.	.	.	.	.	.	.	.	.	.	.	.	.	.	.	.	24a/yy	.	24aa/yy	.	.	24aa\yy	.	.	.
.	.	.	.	.	.	.	.	24bb\JJyy	.	.	.	.	.	.	.	.	.	.	.	.	.	.	.	.	24b/JJyy	.	24bb/JJyy	.	.	24bb\JJyy	.	.	.
=38	=38	=38	=38	=38	=38	=38	=38	=38	=38	=38	=38	=38	=38	=38	=38	=38	=38	=38	=38	=38	=38	=38	=38	=38	=38	=38	=38	=38	=38	=38	=38	=38	=38
*	*	*	*	*	*	*	*	*	*	*	*tremolo	*	*	*	*	*	*	*	*	*	*	*	*	*	*	*	*	*	*	*	*	*	*
16.F#\LLyy	.	16.F#\LLyy	.	16.ddyy\LL 16.d\	.	16.aayy\LL 16.a\	.	16.aayy\LL 16.dd\ 16.d\	.	8C/Lyy	32ee\LLLyy	.	16.D/LLyy	16.F#\LLyy	16.dyy\LL 16.A\	.	16.ddyy/LL 16.a/	.	16.F#yy/LL 16.FF#/	.	16.dd\LLyy	.	16.f#yy/LL 16.A/	.	16.a/LLyy	.	4ryyyy	16.aayy\LL 16.dd\	.	16.aa\LLyy	.	16.ddd\LLyy	.
.	.	.	.	.	.	.	.	.	.	.	32ee\yy	.	.	.	.	.	.	.	.	.	.	.	.	.	.	.	.	.	.	.	.	.	.
.	.	.	.	.	.	.	.	.	.	.	32ee\yy	.	.	.	.	.	.	.	.	.	.	.	.	.	.	.	.	.	.	.	.	.	.
32F#\JJkyy	.	32F#\JJkyy	.	32ddyy\JJk 32d\	.	32aayy\JJK 32a\	.	32aayy\JJk 32dd\	.	.	32ee\JJyy	.	32D/JKyy	32F#\JKyy	32dyy\JK 32A\	.	32ddyy/JK 32a/	.	32F#yy/JK 32FF#/	.	32dd\JKyy	.	32f#yy/JK 32A/	.	32a/JJkyy	.	.	32aayy\JK 32dd\	.	32aa\JJkyy	.	32ddd\JKyy	.
*	*	*	*	*	*	*	*	*	*	*	*Xtremolo	*	*	*	*	*	*	*	*	*	*	*	*	*	*	*	*	*	*	*	*	*	*
8F#\Lyy	.	8F#\Lyy	.	8ddyy\L 8d\	.	8aayy\ 8a\	.	8aayy\ 8dd\	.	8C/Jyy	8ee\Jyy	.	8D/Jyy	8F#\Jyy	8dyy\J 8A\	.	8ddyy/J 8a/	.	8F#yy/J 8FF#/	.	8dd\Jyy	.	8f#yy/J 8A/	.	8a/yy	.	.	8aayy\J 8dd\	.	8aa\Lyy	.	8ddd\Jyy	.
!	!	!	!	!	!	!	!	!LO:TUP:a:problem=klamra łukowa	!	!	!	!	!	!	!	!	!	!	!	!	!	!	!	!	!LO:TUP:a:problem=klamra łukowa	!	!	!	!	!LO:TUP:a:problem=klamra łukowa	!	!	!
8F#\Jyy	.	8F#\Jyy	.	8ddyy\J 8d\	.	24ff#\Lyy	.	24ff#\LLyy	.	8ryy	8ryy	.	8ryy	8ryy	8ryy	.	8ryy	.	8ryy	.	8ryy	.	8ryy	.	24f#/LLyy	.	24ff#/LLyy	8ryy	.	24ff#\Lyy	.	8ryy	.
.	.	.	.	.	.	24gg\yy	.	24gg\yy	.	.	.	.	.	.	.	.	.	.	.	.	.	.	.	.	24g/yy	.	24gg/yy	.	.	24gg\yy	.	.	.
.	.	.	.	.	.	24aa\Jyy	.	24aa\JJyy	.	.	.	.	.	.	.	.	.	.	.	.	.	.	.	.	24a/JJyy	.	24aa/JJyy	.	.	24aa\JJyy	.	.	.
=39	=39	=39	=39	=39	=39	=39	=39	=39	=39	=39	=39	=39	=39	=39	=39	=39	=39	=39	=39	=39	=39	=39	=39	=39	=39	=39	=39	=39	=39	=39	=39	=39	=39
*	*	*	*	*	*	*	*	*	*	*	*	*	*	*	*	*	*	*	*	*	*	*	*	*	*^	*	*	*	*	*	*	*	*
16.E\LLyy	.	16.E\LLyy	.	16.byy\LL 16.e\	.	16.ee\LLyy	.	16.ggyy\LL 16.b\	.	8C/yy	8ee\Lyy	.	8ryy	16.E\LLyy	16.eyy\LL 16.G\	.	16.g/LLyy	.	16.Eyy/LL 16.EE/	.	16.eeyy\LL 16.b\	.	16.eyy\LL 16.B\	.	16ryyyy	16.eeyy\LL 16.g\	.	16.ggyy\LL 16.b\	8ryyyy	.	16.gg\LLyy	.	16.eee\LLyy	.
.	.	.	.	.	.	.	.	.	.	.	.	.	.	.	.	.	.	.	.	.	.	.	.	.	16ryyyy	.	.	.	.	.	.	.	.	.
32E\JJkyy	.	32E\JJkyy	.	32byy\JK 32e\	.	32ee\JJkyy	.	32ggyy\JJk 32b\	.	.	.	.	.	32E\JJkyy	32eyy\JJk 32G\	.	32g/JJkyy	.	32Eyy/JJk 32EE/	.	32eeyy\JJk 32b\	.	32eyy\JJk 32B\	.	.	32eeyy\JJk 32g\	.	32ggyy\JJk 32b\	.	.	32gg\JJkyy	.	32eee\JJkyy	.
*	*	*	*	*	*	*	*	*	*	*	*tremolo	*	*	*	*	*	*	*	*	*	*	*	*	*	*	*	*	*	*	*	*	*	*	*
!LO:TX:t=P:problem=mixed beam	!	!LO:TX:t=P:problem=mixed beam	!	!	!	!	!	!	!	!	!	!	!	!LO:TX:t=P:problem=mixed beam	!	!	!	!	!	!	!	!	!	!	!	!	!	!	!	!	!	!	!	!
8A\Lyy	.	8A\Lyy	.	8ayy\ 8e\	.	8cc#/Lyy	.	8eeyy\L 8a\	.	8ryy	32ee\LLyy	.	8AA/Lyy	8A\Lyy	8c#yy/L 8E/	.	8e/Lyy	.	8Ayy/L 8AA/	.	8eeyy\L 8cc#X\	.	8eyy/L 8A/	.	8cc#/Lyy	8a\Lyy	.	8ee/Lyy	8cc#\Lyy	.	8ee\Lyy	.	8ccc#\Lyy	.
.	.	.	.	.	.	.	.	.	.	.	32ee\yy	.	.	.	.	.	.	.	.	.	.	.	.	.	.	.	.	.	.	.	.	.	.	.
.	.	.	.	.	.	.	.	.	.	.	32ee\yy	.	.	.	.	.	.	.	.	.	.	.	.	.	.	.	.	.	.	.	.	.	.	.
.	.	.	.	.	.	.	.	.	.	.	32ee\JJyy	.	.	.	.	.	.	.	.	.	.	.	.	.	.	.	.	.	.	.	.	.	.	.
.	.	.	.	.	.	.	.	.	.	.	.	.	.	.	.	.	.	.	.	.	.	.	.	.	.	.	.	8qgg#X/yy	.	.	(8qgg#X/yy	.	.	.
*	*	*	*	*	*	*	*	*	*	*	*Xtremolo	*	*	*	*	*	*	*	*	*	*	*	*	*	*	*	*	*	*	*	*	*	*	*
8AA\Jyy	.	8AA\Jyy	.	8ayy\J 8e\	.	8cc#yy/J 8e/	.	8aayy\J 8a\	.	8ryy	8ee\Jyy	.	8AA/Jyy	8AA\Jyy	8c#yy/J 8E/	.	8cc#yy/J 8e/	.	8Ayy/J 8AA/	.	8eeyy\J 8cc#\	.	8eyy/J 8A/	.	8a/Jyy	8e\Jyy	.	8aa/Jyy	8cc#\Jyy	.	8aa\J)yy	.	8ccc#\Jyy	.
*	*	*	*	*	*	*	*	*	*	*	*	*	*	*	*	*	*	*	*	*	*	*	*	*	*v	*v	*	*	*	*	*	*	*	*
*	*	*	*	*	*	*	*	*	*	*	*	*	*	*	*	*	*	*	*	*	*	*	*	*	*	*	*v	*v	*	*	*	*	*
=40	=40	=40	=40	=40	=40	=40	=40	=40	=40	=40	=40	=40	=40	=40	=40	=40	=40	=40	=40	=40	=40	=40	=40	=40	=40	=40	=40	=40	=40	=40	=40	=40
8D\Lyy	.	8D\Lyy	.	8ayy\L 8d\	.	8ddyy/L 8f#/	.	(32ff#\LLLyy	.	8C/Lyy	8ee\Lyy	.	8D/Lyy	8D/Lyy	8dyy/L 8F#/	.	8ddyy/L 8f#/	.	8Ayy\L 8D\	.	8dd\Lyy	.	8f#yy/L 8A/	.	32f#/LLLyy	.	8ff#yy\L 8dd\	.	(32ff#\LLLyy	.	32ddd\LLLyy	.
.	.	.	.	.	.	.	.	32dd\yy	.	.	.	.	.	.	.	.	.	.	.	.	.	.	.	.	32d/yy	.	.	.	32dd\yy	.	(32dd\yy	.
.	.	.	.	.	.	.	.	32ff#\yy	.	.	.	.	.	.	.	.	.	.	.	.	.	.	.	.	32f#/yy	.	.	.	32ff#\yy	.	32ff#\yy	.
.	.	.	.	.	.	.	.	32aa\JJ)yy	.	.	.	.	.	.	.	.	.	.	.	.	.	.	.	.	32a/JJyy	.	.	.	32aa\JJ)yy	.	32aa\JJ)yy	.
8D\Jyy	.	8D\Jyy	.	8ayy\J 8d\	.	8ddyy/J 8f#/	.	8ddd'\Jyy	.	8C/Jyy	8ee\Jyy	.	8D/Jyy	8D/Jyy	8dyy/J 8F#/	.	8ddyy/J 8f#/	.	8Ayy\J 8D\	.	8dd\Jyy	.	8f#yy/J 8A/	.	8dd/Jyy	.	8dddyy\J 8ff#\	.	8ddd'\Jyy	.	8ddd'\Jyy	.
8ryy	.	8ryy	.	8ryy	.	8ryy	.	8ryy	.	8ryy	8ryy	.	8ryy	8ryy	8ryy	.	8ryy	.	8ryy	.	8ryy	.	8ryy	.	8ryy	.	8ryy	.	8ryy	.	8ryy	.
=41:|!	=41:|!	=41:|!	=41:|!	=41:|!	=41:|!	=41:|!	=41:|!	=41:|!	=41:|!	=41:|!	=41:|!	=41:|!	=41:|!	=41:|!	=41:|!	=41:|!	=41:|!	=41:|!	=41:|!	=41:|!	=41:|!	=41:|!	=41:|!	=41:|!	=41:|!	=41:|!	=41:|!	=41:|!	=41:|!	=41:|!	=41:|!	=41:|!
*>D	*	*	*	*	*	*	*	*	*	*	*	*	*	*	*	*	*	*	*	*	*	*	*	*	*	*	*	*	*	*	*	*
*k[f#]	*	*k[f#]	*	*k[f#]	*	*k[f#]	*	*k[f#]	*	*k[]	*k[]	*	*k[]	*k[f#]	*k[f#]	*	*k[f#]	*	*k[f#]	*	*k[]	*	*k[f#c#]	*	*k[f#]	*	*k[f#]	*	*k[f#]	*	*k[f#]	*
!	!	!	!	!	!	!	!	!	!	!	!	!	!	!	!	!	!	!	!	!	!	!	!	!	!	!	!	!	!	!	!LO:TX:a:t=Trio	!
16.GG\LL	.	16.D/LL 16.GG/	.	16.d/LL 16.G/	.	16.B/LL	.	16.g/LL	.	4.r	4.r	.	4.r	8r	8r	.	4.r	.	4.r	.	8r	.	4.r	.	4.r	.	4.r	.	4.r	.	4.r	.
32G\JJk	.	32D/JJk 32GG/	.	32d/JJk 32G/	.	32B/JJk	.	32g/JJk	.	.	.	.	.	.	.	.	.	.	.	.	.	.	.	.	.	.	.	.	.	.	.	.
8G\L	.	8D/L 8GG/	.	8d/L 8G/	.	8B/L	.	8g/L	.	.	.	.	.	8r	8r	.	.	.	.	.	8r	.	.	.	.	.	.	.	.	.	.	.
8G\J	.	8D/J 8GG^/	.	8d/J 8G/	.	8B/J	.	8d^/J	.	.	.	.	.	8G^\	8d\ 8B\	.	.	.	.	.	8dd/ 8g^/	.	.	.	.	.	.	.	.	.	.	.
=42	=42	=42	=42	=42	=42	=42	=42	=42	=42	=42	=42	=42	=42	=42	=42	=42	=42	=42	=42	=42	=42	=42	=42	=42	=42	=42	=42	=42	=42	=42	=42	=42
*	*	*	*	*^	*	*	*	*	*	*	*	*	*	*	*	*	*	*	*	*	*	*	*	*	*	*	*	*	*	*	*	*
16.GG\LL	.	16.E/LL 16.GG/	.	16.c#X/LL	16.G\LL	.	16.A#X/LL	.	16.g/LL	.	4.r	4.r	.	4.r	8r	8r	.	4.r	.	4.r	.	8r	.	4.r	.	4.r	.	4.r	.	4.r	.	4.r	.
32G\JJk	.	32E/JJk 32GG/	.	32c#/JJk	32G\JJk	.	32A#/JJk	.	32g/JJk	.	.	.	.	.	.	.	.	.	.	.	.	.	.	.	.	.	.	.	.	.	.	.	.
8G\L	.	8E/L 8GG/	.	8c#/L	8G\L	.	8A#/L	.	8g/L	.	.	.	.	.	8r	8r	.	.	.	.	.	8r	.	.	.	.	.	.	.	.	.	.	.
8G\J	.	8E/J 8GG^/	.	8c#/J	8G\J	.	8A#/J	.	8e^/J	.	.	.	.	.	8G^\	8e\ 8A#X\	.	.	.	.	.	8cc#X\ 8g^\	.	.	.	.	.	.	.	.	.	.	.
*	*	*	*	*v	*v	*	*	*	*	*	*	*	*	*	*	*	*	*	*	*	*	*	*	*	*	*	*	*	*	*	*	*	*
=43	=43	=43	=43	=43	=43	=43	=43	=43	=43	=43	=43	=43	=43	=43	=43	=43	=43	=43	=43	=43	=43	=43	=43	=43	=43	=43	=43	=43	=43	=43	=43	=43
*rep	*	*	*	*	*	*	*	*	*	*	*	*	*	*	*	*	*	*	*	*	*	*	*	*	*	*	*	*	*	*	*	*
16.GG\LL	.	16.D/LL 16.GG/	.	16.d\LL 16.G\	.	16.B/LL	.	16.g/LL	.	4.r	4.r	.	4.r	8r	8r	.	4.r	.	4.r	.	8r	.	4.r	.	4.r	.	4.r	.	4.r	.	4.r	.
32G\JJk	.	32D/JJk 32GG/	.	32d\JJk 32G\	.	32B/JJk	.	32g/JJk	.	.	.	.	.	.	.	.	.	.	.	.	.	.	.	.	.	.	.	.	.	.	.	.
8G\L	.	8D/L 8GG/	.	8d\L 8G\	.	8B/L	.	8g/L	.	.	.	.	.	8r	8r	.	.	.	.	.	8r	.	.	.	.	.	.	.	.	.	.	.
8G\J	.	8D/J 8GG^/	.	8d\J 8G\	.	8B/J	.	8d^/J	.	.	.	.	.	8G^\	8d\ 8B\	.	.	.	.	.	8dd/ 8g^/	.	.	.	.	.	.	.	.	.	.	.
*Xrep	*	*	*	*	*	*	*	*	*	*	*	*	*	*	*	*	*	*	*	*	*	*	*	*	*	*	*	*	*	*	*	*
=44	=44	=44	=44	=44	=44	=44	=44	=44	=44	=44	=44	=44	=44	=44	=44	=44	=44	=44	=44	=44	=44	=44	=44	=44	=44	=44	=44	=44	=44	=44	=44	=44
*	*	*	*	*	*	*	*	*	*	*	*	*	*	*	*	*	*	*	*	*	*	*	*^	*	*	*	*	*	*	*	*	*
!	!	!LO:TX:t=P:problem=w taktach 44-46 powtórka partii cb, oktawę wyżej	!	!	!	!	!	!	!	!	!	!	!	!	!	!	!	!	!	!	!	!	!	!	!	!	!	!	!	!	!	!	!
8G\L	.	8G\Lyy	.	8d\L 8G\	.	8B/L	.	8g/L	.	4.r	4.r	.	4.r	4.r	4.r	.	8g/L 8B/	.	8G/L	.	4.r	.	8g/L	4.r	.	4.r	.	4.r	.	4.r	.	4.r	.
8D\	.	8D\yy	.	8f#\ 8A\	.	8d/	.	8a/	.	.	.	.	.	.	.	.	8a/ 8c/	.	8D/	.	.	.	8f#/	.	.	.	.	.	.	.	.	.	.
8GG\J	.	8GG\Jyy	.	8g\J 8B\	.	8g/J	.	8b/J	.	.	.	.	.	.	.	.	8b/J 8g/	.	8GG/J	.	.	.	8g/J	.	.	.	.	.	.	.	.	.	.
*	*	*	*	*	*	*	*	*	*	*	*	*	*	*	*	*	*	*	*	*	*	*	*v	*v	*	*	*	*	*	*	*	*	*
=45	=45	=45	=45	=45	=45	=45	=45	=45	=45	=45	=45	=45	=45	=45	=45	=45	=45	=45	=45	=45	=45	=45	=45	=45	=45	=45	=45	=45	=45	=45	=45	=45
*	*	*	*	*	*	*	*	*	*	*	*	*	*	*	*	*	*	*	*	*	*^	*	*	*	*	*	*	*	*	*	*	*
*	*	*	*	*	*	*	*	*	*	*	*tremolo	*	*	*	*	*	*	*	*	*	*	*	*	*	*	*	*	*	*	*	*	*	*
8AA/	.	8AA/yy	.	8r	.	16.f#/LL	.	16.a/LL	.	4.r	8ee\L	.	8AA/	8r	8r	.	16.a/LL 16.f#/	.	8AA/	.	4.dd/	4.dd\	.	4.f#/ 4.A/	.	4.r	.	16.aa\LL 16.ff#\	.	16.aa\LL	.	4.r	.
.	.	.	.	.	.	32g/JJk	.	32b/JJk	.	.	.	.	.	.	.	.	32b/JJk 32g/	.	.	.	.	.	.	.	.	.	.	32bb\JJk 32gg\	.	32bb\JJk	.	.	.
8r	.	8ryy	.	8d/L	.	8f#/L	.	8a/L	.	.	8ee\	.	8r	8AA/L	8f#\L 8d\	.	8a/L 8f#/	.	8r	.	.	.	.	.	.	.	.	8aa\L 8ff#\	.	8aa\L	.	.	.
8r	.	8ryy	.	8A/J	.	8d/J	.	8f#/J	.	.	8ee\J	.	8r	8AA/J	8f#\J 8d\	.	8f#/J 8d/	.	8r	.	.	.	.	.	.	.	.	8ff#\J 8dd\	.	8ff#\J	.	.	.
*	*	*	*	*	*	*	*	*	*	*	*Xtremolo	*	*	*	*	*	*	*	*	*	*	*	*	*	*	*	*	*	*	*	*	*	*
=46	=46	=46	=46	=46	=46	=46	=46	=46	=46	=46	=46	=46	=46	=46	=46	=46	=46	=46	=46	=46	=46	=46	=46	=46	=46	=46	=46	=46	=46	=46	=46	=46	=46
8AA/	.	8AA/yy	.	8r	.	16.e/LL	.	16.g/LL	.	4.r	8ee\	.	8AA/	8r	8r	.	16.g/LL 16.e/	.	8AA/	.	4.ee/	4.cc#X\	.	4.g/ 4.A/	.	4.r	.	16.gg\LL 16.ee\	.	16.gg\LL	.	4.r	.
.	.	.	.	.	.	32f#/JJk	.	32a/JJk	.	.	.	.	.	.	.	.	32a/JJk 32f#/	.	.	.	.	.	.	.	.	.	.	32aa\JJk 32ff#\	.	32aa\JJk	.	.	.
8r	.	8ryy	.	8A/L	.	8e/L	.	8g/L	.	.	8r	.	8r	8AA/L	8e\L 8c#X\	.	8g/L 8e/	.	8r	.	.	.	.	.	.	.	.	8gg\L 8ee\	.	8gg\L	.	.	.
8r	.	8ryy	.	8A/J 8G/	.	8c#X/J	.	8e/J	.	.	8r	.	8r	8AA/J	8g\J 8e\	.	8e/J 8c#X/	.	8r	.	.	.	.	.	.	.	.	8ee\J 8cc#X\	.	8ee\J	.	.	.
!!LO:PB:g=original
=47	=47	=47	=47	=47	=47	=47	=47	=47	=47	=47	=47	=47	=47	=47	=47	=47	=47	=47	=47	=47	=47	=47	=47	=47	=47	=47	=47	=47	=47	=47	=47	=47	=47
*	*	*	*	*	*	*	*	*	*	*	*	*	*	*	*	*	*^	*	*	*	*	*	*	*	*	*	*	*^	*	*	*	*	*
!	!	!	!	!	!	!LO:TX:a:t=unis	!	!	!	!	!	!	!	!	!	!	!	!	!	!	!	!	!	!	!	!	!	!	!	!	!	!	!	!	!
!	!	!	!	!	!	!LO:TX:t=P:problem=w taktach 47-48 powtórka partii vn 1	!	!	!	!	!	!	!	!	!	!	!	!	!	!	!	!	!	!	!	!	!	!	!	!	!	!	!	!	!
8D\	.	8D\	.	8A/ 8F#/	.	8d/yy	.	8d/	.	4.r	8ee\	.	8D\	8D\	8f#\ 8d\	.	8d/	8d\	.	8D/	.	8dd/	8dd\	.	8f#/ 8A/	.	4.r	.	8dd/	8dd\	.	8dd\	.	4.r	.
.	.	8qE#X/	.	8qE#X/	.	(yy8qe#X/yy	.	(8qe#X/	.	.	.	.	.	.	.	.	.	.	.	.	.	.	.	.	.	.	.	.	.	.	.	.	.	.	.
8r	.	8F#\	.	8F#/	.	8f#/)yy	.	8f#/)	.	.	8r	.	8r	8r	8r	.	8r	4ryy	.	4r	.	8r	8ryy	.	8r	.	.	.	8r	4ryy	.	8r	.	.	.
.	.	8qG#X/	.	8qG#X/	.	(yy8qg#X/yy	.	(8qg#X/	.	.	.	.	.	.	.	.	.	.	.	.	.	.	.	.	.	.	.	.	.	.	.	.	.	.	.
8r	.	8A\	.	8A/	.	8a/)yy	.	8a/)	.	.	8r	.	8r	8r	8r	.	8r	.	.	.	.	8r	8ryy	.	8r	.	.	.	8r	.	.	8r	.	.	.
*	*	*	*	*	*	*	*	*	*	*	*	*	*	*	*	*	*v	*v	*	*	*	*v	*v	*	*	*	*	*	*v	*v	*	*	*	*	*
=48	=48	=48	=48	=48	=48	=48	=48	=48	=48	=48	=48	=48	=48	=48	=48	=48	=48	=48	=48	=48	=48	=48	=48	=48	=48	=48	=48	=48	=48	=48	=48	=48
.	.	8qc#X/	.	(8qc#X/	.	(yy8qcc#X/yy	.	(8qcc#X/	.	.	.	.	.	.	.	.	.	.	.	.	.	.	.	.	.	.	.	.	.	.	.	.
4.r	.	8d\	.	8d\)	.	8dd\)yy	.	8dd\)	.	4.r	8ee\	.	4.r	4.r	4.r	.	4.r	.	4.r	.	4.r	.	4.r	.	4.r	.	4.r	.	4.r	.	4.r	.
*	*	*rep	*	*rep	*	*	*	*	*	*	*	*	*	*	*	*	*	*	*	*	*	*	*	*	*	*	*	*	*	*	*	*
.	.	8qc#/	.	(8qc#/	.	(yy8qcc#/yy	.	(8qcc#/	.	.	.	.	.	.	.	.	.	.	.	.	.	.	.	.	.	.	.	.	.	.	.	.
.	.	8d\	.	8d\)	.	8dd\)yy	.	8dd\)	.	.	8r	.	.	.	.	.	.	.	.	.	.	.	.	.	.	.	.	.	.	.	.	.
*	*	*Xrep	*	*Xrep	*	*	*	*	*	*	*	*	*	*	*	*	*	*	*	*	*	*	*	*	*	*	*	*	*	*	*	*
*	*	*rep	*	*rep	*	*	*	*	*	*	*	*	*	*	*	*	*	*	*	*	*	*	*	*	*	*	*	*	*	*	*	*
.	.	8qc#/	.	(8qc#/	.	(yy8qcc#/yy	.	(8qcc#/	.	.	.	.	.	.	.	.	.	.	.	.	.	.	.	.	.	.	.	.	.	.	.	.
.	.	8d\	.	8d\)	.	8dd\)yy	.	8dd\)	.	.	8r	.	.	.	.	.	.	.	.	.	.	.	.	.	.	.	.	.	.	.	.	.
*	*	*Xrep	*	*Xrep	*	*	*	*	*	*	*	*	*	*	*	*	*	*	*	*	*	*	*	*	*	*	*	*	*	*	*	*
=49	=49	=49	=49	=49	=49	=49	=49	=49	=49	=49	=49	=49	=49	=49	=49	=49	=49	=49	=49	=49	=49	=49	=49	=49	=49	=49	=49	=49	=49	=49	=49	=49
!	!	!LO:TX:t=P:problem=w taktach 49-64 powtórka partii cb, oktawę wyżej	!	!	!	!	!	!	!	!	!	!	!	!	!	!	!	!	!	!	!	!	!	!	!	!	!	!	!	!	!LO:TX:a:t=A	!
8GG/	p	8GG/yy	pyy	8r	.	8r	p	8r	.	4.ryy	4.ryy	.	4.ryy	4.ryy	4.ryy	.	16.dd'>/LL	.	4.r	.	4.ryy	.	4.ryy	.	4.r	.	4.r	.	4.r	.	16.ddd'\LL	.
.	.	.	.	.	.	.	.	.	.	.	.	.	.	.	.	.	32b'>/JJk	.	.	.	.	.	.	.	.	.	.	.	.	.	32bb'\JJk	.
8r	.	8ryy	.	8d\L 8G\	.	8g/L 8B/	.	(8ee\L	.	.	.	.	.	.	.	.	(>8ee/L	.	.	.	.	.	.	.	.	.	.	.	.	.	(8eee\L	.
8r	.	8ryy	.	8d\J 8G\	.	8g/J 8B/	.	8dd\J)	.	.	.	.	.	.	.	.	8dd/J)	.	.	.	.	.	.	.	.	.	.	.	.	.	8ddd\J)	.
=50	=50	=50	=50	=50	=50	=50	=50	=50	=50	=50	=50	=50	=50	=50	=50	=50	=50	=50	=50	=50	=50	=50	=50	=50	=50	=50	=50	=50	=50	=50	=50	=50
*	*	*	*	*rep	*	*rep	*	*	*	*	*	*	*	*	*	*	*	*	*	*	*	*	*	*	*	*	*	*	*	*	*	*
8G\	.	8G\yy	.	8r	.	8r	.	8r	.	4.ryy	4.ryy	.	4.ryy	4.ryy	4.ryy	.	16.b/LL	.	4.ryy	.	4.ryy	.	4.ryy	.	4.r	.	4.r	.	4.r	.	16.bb\LL	.
.	.	.	.	.	.	.	.	.	.	.	.	.	.	.	.	.	32g/JJk	.	.	.	.	.	.	.	.	.	.	.	.	.	32gg\JJk	.
.	.	.	.	.	.	.	.	(8qdd/	.	.	.	.	.	.	.	.	(8qdd/	.	.	.	.	.	.	.	.	.	.	.	.	.	(8qddd/	.
8r	.	8ryy	.	8d\L 8G\	.	8g/L 8B/	.	8cc/L)	.	.	.	.	.	.	.	.	8cc/L)	.	.	.	.	.	.	.	.	.	.	.	.	.	8ccc\L)	.
8r	.	8ryy	.	8d\J 8G\	.	8g/J 8B/	.	8b'/J	.	.	.	.	.	.	.	.	8b'/J	.	.	.	.	.	.	.	.	.	.	.	.	.	8bb'\J	.
*	*	*	*	*Xrep	*	*Xrep	*	*	*	*	*	*	*	*	*	*	*	*	*	*	*	*	*	*	*	*	*	*	*	*	*	*
=51	=51	=51	=51	=51	=51	=51	=51	=51	=51	=51	=51	=51	=51	=51	=51	=51	=51	=51	=51	=51	=51	=51	=51	=51	=51	=51	=51	=51	=51	=51	=51	=51
8D\	.	8D\yy	.	8r	.	8r	.	4.r	.	4.ryy	4.ryy	.	4.ryy	4.ryy	4.ryy	.	(>8.dd/L	.	4.ryy	.	4.ryy	.	4.ryy	.	4.r	.	4.r	.	4.r	.	8.ddd\L	.
8r	.	8ryy	.	8d\L 8A\	.	8f#/L 8c/	.	.	.	.	.	.	.	.	.	.	.	.	.	.	.	.	.	.	.	.	.	.	.	.	.	.
.	.	.	.	.	.	.	.	.	.	.	.	.	.	.	.	.	16cc/L	.	.	.	.	.	.	.	.	.	.	.	.	.	(16ccc\L	.
8r	.	8ryy	.	8d\J 8A\	.	8f#/J 8c/	.	.	.	.	.	.	.	.	.	.	16a/	.	.	.	.	.	.	.	.	.	.	.	.	.	16aa\	.
.	.	.	.	.	.	.	.	.	.	.	.	.	.	.	.	.	16f#/JJ)	.	.	.	.	.	.	.	.	.	.	.	.	.	16ff#\JJ)	.
!!LO:PB:g=original
=52	=52	=52	=52	=52	=52	=52	=52	=52	=52	=52	=52	=52	=52	=52	=52	=52	=52	=52	=52	=52	=52	=52	=52	=52	=52	=52	=52	=52	=52	=52	=52	=52
*	*	*	*	*	*	*	*	*	*	*	*	*	*	*	*	*	*^	*	*	*	*^	*	*^	*	*	*	*	*	*	*	*	*
!LO:TX:t=P:problem=mixed beam	!	!LO:TX:t=P:problem=mixed beam	!	!	!	!	!	!	!	!	!	!	!	!	!	!	!	!	!	!	!	!	!	!	!	!	!	!	!	!	!	!	!	!	!
8GG/L	.	8GG/Lyy	.	8d/ 8G/	.	8g/ 8B/	.	16.g/LL	.	4.r	4.r	.	4.r	4.r	4.r	.	16.g/LL	4.r	.	8r	.	8r	8ryy	.	8r	8ryy	.	4.r	.	4.r	.	4.r	.	16.gg\LL	.
.	.	.	.	.	.	.	.	32b/JJk	.	.	.	.	.	.	.	.	32b/JJk	.	.	.	.	.	.	.	.	.	.	.	.	.	.	.	.	32bb\JJk	.
!	!	!	!	!	!	!	!	!	!LO:HP:a	!	!	!	!	!	!	!	!	!	!LO:DY:a	!	!	!	!	!	!	!	!LO:HP:a	!	!	!	!	!	!	!	!
8G\	.	8G\yy	.	(8A#X^/L	.	(8c#X^>/L	.	(16e/LL	>	.	.	.	.	.	.	.	(<16e/LL	.	>	4G\ 4GG\	.	(8ee/L	4cc#X\ 4g\	>	(8e/L	8A#X\L	>	.	.	.	.	.	.	(16ee'\LL	.
.	.	.	.	.	.	.	.	32f#/L	.	.	.	.	.	.	.	.	32f#/L)	.	.	.	.	.	.	.	.	.	.	.	.	.	.	.	.	32ff#\L)	.
.	.	.	.	.	.	.	.	32e/JJ)	]	.	.	.	.	.	.	.	32e/JJ	.	]	.	.	.	.	.	.	.	.	.	.	.	.	.	.	32ee\JJ	.
8G\J	.	8G\Jyy	.	8B/J)	.	8d/J)	.	8d'/J	.	.	.	.	.	.	.	.	8d/J	.	.	.	.	8dd/J)	.	]	8d/J)	8B\J	]	.	.	.	.	.	.	8dd\J	.
*	*	*	*	*	*	*	*	*	*	*	*	*	*	*	*	*	*	*	*	*	*	*v	*v	*	*	*	*	*	*	*	*	*	*	*	*
*	*	*	*	*	*	*	*	*	*	*	*	*	*	*	*	*	*	*	*	*	*	*	*	*v	*v	*	*	*	*	*	*	*	*	*
=53	=53	=53	=53	=53	=53	=53	=53	=53	=53	=53	=53	=53	=53	=53	=53	=53	=53	=53	=53	=53	=53	=53	=53	=53	=53	=53	=53	=53	=53	=53	=53	=53	=53
8GG/	.	8GG/yy	.	8r	.	8r	.	4.r	.	4.ryy	4.ryy	.	4.ryy	4.ryy	4.r	.	16.dd'>/LL	4.r	.	4.r	.	4.r	.	4.r	.	4.r	.	4.r	.	4.r	.	16.ddd'\LL	.
.	.	.	.	.	.	.	.	.	.	.	.	.	.	.	.	.	32b'>/JJk	.	.	.	.	.	.	.	.	.	.	.	.	.	.	32bb'\JJk	.
8r	.	8ryy	.	8d/L 8G/	.	8g/L 8B/	.	.	.	.	.	.	.	.	.	.	(8ee/L	.	.	.	.	.	.	.	.	.	.	.	.	.	.	(8eee\L	.
8r	.	8ryy	.	8d/J 8G/	.	8g/J 8B/	.	.	.	.	.	.	.	.	.	.	8dd/J)	.	.	.	.	.	.	.	.	.	.	.	.	.	.	8ddd\J)	.
=54	=54	=54	=54	=54	=54	=54	=54	=54	=54	=54	=54	=54	=54	=54	=54	=54	=54	=54	=54	=54	=54	=54	=54	=54	=54	=54	=54	=54	=54	=54	=54	=54	=54
*	*	*	*	*	*	*	*	*	*	*	*	*	*	*	*	*	*	*	*	*	*	*	*	*	*	*	*	*^	*	*	*	*	*
!	!	!	!	!	!	!	!	!	!	!	!	!	!	!	!	!	!	!	!	!	!	!	!	!	!	!	!	!	!	!	!	!	!LO:TX:a:t=B	!
8G\	.	8G\yy	.	8r	.	8r	.	8r	.	4.ryy	4.ryy	.	4.ryy	4.ryy	4.r	.	16.dd#X/LL	4.r	.	4.r	.	4.r	.	4.r	.	4.r	.	8r	4.r	.	8r	.	16.ccc#X\LL	.
.	.	.	.	.	.	.	.	.	.	.	.	.	.	.	.	.	32ee/JJk	.	.	.	.	.	.	.	.	.	.	.	.	.	.	.	32ddd\JJk	.
8r	.	8ryy	.	8d/L 8G/	.	8g/L 8B/	.	8r	.	.	.	.	.	.	.	.	8b/	.	.	.	.	.	.	.	.	.	.	8r	.	.	8r	.	8bb\	.
!	!	!	!	!	!	!	!	!LO:TUP:a:problem=klamra łukowa	!	!	!	!	!	!	!	!	!	!	!	!	!	!	!	!	!	!	!	!LO:TUP:a:problem=klamra łukowa	!	!	!LO:TUP:a:problem=klamra łukowa	!	!	!
8r	.	8ryy	.	8d/J 8G/	.	8g/J 8B/	.	24dd\LL	.	.	.	.	.	.	.	.	8r	.	.	.	.	.	.	.	.	.	.	24dd/LL	.	.	24dd\LL	.	8r	.
.	.	.	.	.	.	.	.	24ee\	.	.	.	.	.	.	.	.	.	.	.	.	.	.	.	.	.	.	.	24ee/	.	.	24ee\	.	.	.
.	.	.	.	.	.	.	.	24ee#X\JJ	.	.	.	.	.	.	.	.	.	.	.	.	.	.	.	.	.	.	.	24ee#X/JJ	.	.	24ee#X\JJ	.	.	.
*	*	*	*	*	*	*	*	*	*	*	*	*	*	*	*	*	*v	*v	*	*	*	*	*	*	*	*	*	*	*	*	*	*	*	*
=55	=55	=55	=55	=55	=55	=55	=55	=55	=55	=55	=55	=55	=55	=55	=55	=55	=55	=55	=55	=55	=55	=55	=55	=55	=55	=55	=55	=55	=55	=55	=55	=55	=55
*	*	*	*	*	*	*	*	*	*	*	*	*	*	*	*	*	*	*	*	*	*^	*	*	*	*	*	*	*	*	*	*	*	*
8F#\	.	8F#\yy	.	8r	.	8r	.	(8.ff#\L	.	4.ryy	4.ryy	.	4.ryy	4.ryy	4.r	.	4.r	.	4F#\	.	4dd/	4dd\	.	4.f#/ 4.F#/	.	4b/ 4d/	.	(<8.ff#/L	4.r	.	(8.ff#\L	.	4.ryy	.
8r	.	8ryy	.	8d\L	.	8f#/L 8B/	.	.	.	.	.	.	.	.	.	.	.	.	.	.	.	.	.	.	.	.	.	.	.	.	.	.	.	.
.	.	.	.	.	.	.	.	16ee\L	.	.	.	.	.	.	.	.	.	.	.	.	.	.	.	.	.	.	.	16ee/L	.	.	16ee\L	.	.	.
8FF#/	.	8FF#/yy	.	8e\J 8c#X\	.	8f#/J 8A#X/	.	16cc#X\	.	.	.	.	.	.	.	.	.	.	8FF#/	.	8ee/	8cc#X\	.	.	.	8a#X/ 8c#X/	.	16cc#X/	.	.	16cc#X\	.	.	.
.	.	.	.	.	.	.	.	16dd\JJ)	.	.	.	.	.	.	.	.	.	.	.	.	.	.	.	.	.	.	.	16dd/JJ)	.	.	16dd\JJ	.	.	.
=56	=56	=56	=56	=56	=56	=56	=56	=56	=56	=56	=56	=56	=56	=56	=56	=56	=56	=56	=56	=56	=56	=56	=56	=56	=56	=56	=56	=56	=56	=56	=56	=56	=56	=56
*tremolo	*	*tremolo	*	*	*	*	*	*	*	*	*	*	*	*	*	*	*	*	*	*	*	*	*	*	*	*	*	*	*	*	*	*	*	*
8BB/L	.	8BB/Lyy	.	8d\L	.	8f#/L 8B/	.	(4b\	.	4.ryy	4.ryy	.	4.ryy	4.ryy	4.r	.	4.r	.	4.BB/	.	4.dd/	4.dd\	.	4.f#/ 4.F#/	.	4.b/ 4.d/	.	(4b/	4.r	.	(4b\)	.	4.ryy	.
8BB/	.	8BB/yy	.	8d\	.	8f#/ 8B/	.	.	.	.	.	.	.	.	.	.	.	.	.	.	.	.	.	.	.	.	.	.	.	.	.	.	.	.
8BB/J	.	8BB/Jyy	.	8d\J	.	8f#/J 8B/	.	8bb\)	.	.	.	.	.	.	.	.	.	.	.	.	.	.	.	.	.	.	.	8bb/)	.	.	8bb\)	.	.	.
*	*	*	*	*	*	*	*	*	*	*	*	*	*	*	*	*	*	*	*	*	*v	*v	*	*	*	*	*	*v	*v	*	*	*	*	*
*Xtremolo	*	*Xtremolo	*	*	*	*	*	*	*	*	*	*	*	*	*	*	*	*	*	*	*	*	*	*	*	*	*	*	*	*	*	*
!!LO:PB:g=original
=57:|!	=57:|!	=57:|!	=57:|!	=57:|!	=57:|!	=57:|!	=57:|!	=57:|!	=57:|!	=57:|!	=57:|!	=57:|!	=57:|!	=57:|!	=57:|!	=57:|!	=57:|!	=57:|!	=57:|!	=57:|!	=57:|!	=57:|!	=57:|!	=57:|!	=57:|!	=57:|!	=57:|!	=57:|!	=57:|!	=57:|!	=57:|!	=57:|!
*>E	*	*	*	*	*	*	*	*	*	*	*	*	*	*	*	*	*	*	*	*	*	*	*	*	*	*	*	*	*	*	*	*
!	!	!	!	!	!	!	!	!	!	!	!	!LO:DY:rj	!	!	!	!	!	!	!	!	!	!	!	!	!	!	!	!	!	!LO:DY:rj	!	!
8D\	.	8D\yy	.	8r	.	8r	.	16.ddd\LL 16.dd\	.	4C/	8r	f	8r	8r	8r	f	8d/L	.	8D/ 8DD/	.	8r	.	8r	.	16.dd\LL	.	8r	.	16.ddd\LL	f	4.r	.
.	.	.	.	.	.	.	.	32ccc\JJk 32cc\	.	.	.	.	.	.	.	.	.	.	.	.	.	.	.	.	32cc\JJk	.	.	.	32ccc\JJk	.	.	.
8r	.	8ryy	.	8d\L 8A\	.	8f#/L 8c/	.	8aa\L 8a\	.	.	8ee\L	.	8D/L	8D\L	8f#\L 8A\	.	16f#/L	.	8r	.	8dd\L 8cc\	.	8f#\L 8A\	.	8a/L	.	8ff#\L 8cc\	.	8aa\L	.	.	.
.	.	.	.	.	.	.	.	.	.	.	.	.	.	.	.	.	16a/JJ	.	.	.	.	.	.	.	.	.	.	.	.	.	.	.
8r	.	8ryy	.	8d\J 8A\	.	8f#/J 8c/	.	8dd\J 8d\	.	8r	8ee\J	.	8D/J	8D\J	8f#\J 8A\	.	8dd\	.	8r	.	8dd\J 8cc\	.	8f#\J 8A\	.	8d/J	.	8ff#\J 8cc\	.	8dd\J	.	.	.
=58	=58	=58	=58	=58	=58	=58	=58	=58	=58	=58	=58	=58	=58	=58	=58	=58	=58	=58	=58	=58	=58	=58	=58	=58	=58	=58	=58	=58	=58	=58	=58	=58
8GG/	.	8GG/yy	.	8r	.	8r	.	16.eee\LL 16.ee\	.	4C/	8r	.	8r	8r	8r	.	8d/L	.	8G\ 8GG\	.	8r	.	8r	.	16.ee\LL	.	8r	.	16.eee\LL	.	4.r	.
.	.	.	.	.	.	.	.	32ddd\JJk 32dd\	.	.	.	.	.	.	.	.	.	.	.	.	.	.	.	.	32dd\JJk	.	.	.	32ddd\JJk	.	.	.
8r	.	8ryy	.	8d/L 8G/	.	8g/L 8B/	.	8bb\L 8b\	.	.	8ee\L	.	8D/L	8G\L	8g\L 8B\	.	16g/L	.	8r	.	8dd\L 8g\	.	8g\L 8B\	.	8b/L	.	8gg\L 8b\	.	8bb\L	.	.	.
.	.	.	.	.	.	.	.	.	.	.	.	.	.	.	.	.	16b/JJ	.	.	.	.	.	.	.	.	.	.	.	.	.	.	.
8r	.	8ryy	.	8d/J 8G/	.	8g/J 8B/	.	8gg\J 8g\	.	8r	8ee\J	.	8D/J	8G\J	8g\J 8B\	.	8dd\	.	8r	.	8dd\J 8g\	.	8g\J 8B\	.	8g/J	.	8gg\J 8b\	.	8gg\J	.	.	.
=59	=59	=59	=59	=59	=59	=59	=59	=59	=59	=59	=59	=59	=59	=59	=59	=59	=59	=59	=59	=59	=59	=59	=59	=59	=59	=59	=59	=59	=59	=59	=59	=59
*	*	*	*	*	*	*	*	*	*	*	*	*	*	*	*^	*	*	*	*	*	*	*	*	*	*	*	*	*	*	*	*	*
!	!	!	!	!	!	!	!	!LO:TUP:a:problem=klamra łukowa	!	!	!	!	!	!	!	!	!	!	!	!	!	!	!	!	!	!	!	!	!	!LO:TX:t=P:problem=w taktach 59-62 powtórka partii fl, oktawę wyżej	!	!	!
!	!	!	!	!	!	!	!	!LO:TUP:b	!	!	!	!	!	!	!	!	!	!	!	!	!	!	!	!	!	!	!	!	!	!LO:TUP:a:problem=klamra łukowa	!	!LO:TUP:a:problem=klamra łukowa	!
8C/	.	8C/yy	.	8r	.	8r	.	24a/LL	.	4.r	8ee\	.	4.r	4C\	4.c/	4.A\	p	4.r	.	8C/ 8CC/	.	8r	.	8r	.	4.r	.	24a/LL	.	24aa\LLyy	.	24aa\LL	.
.	.	.	.	.	.	.	.	24b/	.	.	.	.	.	.	.	.	.	.	.	.	.	.	.	.	.	.	.	24b/	.	24bb\yy	.	24bb\	.
.	.	.	.	.	.	.	.	24cc/JJ	.	.	.	.	.	.	.	.	.	.	.	.	.	.	.	.	.	.	.	24cc/JJ	.	24ccc\JJyy	.	24ccc\JJ	.
8r	.	8ryy	.	8A/L	.	8c/L	.	8e/L	.	.	8r	.	.	.	.	.	.	.	.	8r	.	8ee\L 8cc\	.	8A/L	.	.	.	8e/L	.	8ee\Lyy	.	8ee\L	.
8D\	.	8D\yy	.	8A/J	.	8d/J 8c/	.	8f#/J	.	.	8r	.	.	8D\	.	.	.	.	.	8D/ 8DD/	.	8dd\J 8cc\	.	8A/J	.	.	.	8f#/J	.	8ff#\Jyy	.	8ff#\J	.
=60	=60	=60	=60	=60	=60	=60	=60	=60	=60	=60	=60	=60	=60	=60	=60	=60	=60	=60	=60	=60	=60	=60	=60	=60	=60	=60	=60	=60	=60	=60	=60	=60	=60
*	*	*	*	*	*	*	*	*	*	*	*	*	*	*	*	*	*	*	*	*^	*	*	*	*	*	*	*	*	*	*	*	*	*
8GG/	.	8GG/yy	.	8r	.	8r	.	8g/	.	4.r	8ee\	.	4.r	4.G\	4.B/	4.G\	.	4.r	.	8G/	8GG/	.	8r	.	8r	.	4.r	.	8g/	.	8gg\yy	.	8gg\	.
8r	.	8ryy	.	8G/L	.	8d/L 8B/	.	(32g/LLL	.	.	8r	.	.	.	.	.	.	.	.	8r	8ryy	.	8dd/L 8g/	.	8B/L	.	.	.	(32g/LLL	.	(yy32gg\LLLyy	.	(32gg\LLL	.
.	.	.	.	.	.	.	.	32a/	.	.	.	.	.	.	.	.	.	.	.	.	.	.	.	.	.	.	.	.	32a/	.	32aa\yy	.	32aa\	.
.	.	.	.	.	.	.	.	32b/	.	.	.	.	.	.	.	.	.	.	.	.	.	.	.	.	.	.	.	.	32b/	.	32bb\yy	.	32bb\	.
.	.	.	.	.	.	.	.	32cc/JJ)	.	.	.	.	.	.	.	.	.	.	.	.	.	.	.	.	.	.	.	.	32cc/JJ)	.	32ccc\JJ)yy	.	32ccc\JJ)	.
8r	.	8ryy	.	8d/J 8G/	.	8g/J 8B/	.	8dd/J	.	.	8r	.	.	.	.	.	.	.	.	8r	8ryy	.	8dd/J 8g/	.	8B/J	.	.	.	8dd/J	.	8ddd\Jyy	.	8ddd\J	.
*	*	*	*	*	*	*	*	*	*	*	*	*	*	*	*v	*v	*	*	*	*v	*v	*	*	*	*	*	*	*	*	*	*	*	*	*
=61	=61	=61	=61	=61	=61	=61	=61	=61	=61	=61	=61	=61	=61	=61	=61	=61	=61	=61	=61	=61	=61	=61	=61	=61	=61	=61	=61	=61	=61	=61	=61	=61
8D\	.	8D\yy	.	8r	.	8r	.	(32dd\LLL	.	4C/	8r	.	8r	8r	8r	f	8d/	.	8D/ 8DD/	.	8r	.	8r	.	(32dd/LLL	.	8r	.	(yy32ddd\LLLyy	.	(32ddd\LLL	.
.	.	.	.	.	.	.	.	32ee\	.	.	.	.	.	.	.	.	.	.	.	.	.	.	.	.	32ee/	.	.	.	32eee\yy	.	32eee\	.
.	.	.	.	.	.	.	.	32dd\	.	.	.	.	.	.	.	.	.	.	.	.	.	.	.	.	32dd/	.	.	.	32ddd\yy	.	32ddd\	.
.	.	.	.	.	.	.	.	32cc\JJJ)	.	.	.	.	.	.	.	.	.	.	.	.	.	.	.	.	32cc/JJJ	.	.	.	32ccc\JJJyy	.	32ccc\JJJ	.
8r	.	8ryyyy	.	8d/L 8A/	.	8f#/L 8c/	.	8b/L	.	.	8ee\L	.	8D/L	8D\L	8f#\L 8A\	.	16f#/LL	.	8r	.	8dd\L 8cc\	.	8f#\L 8A\	.	8a/L)	.	8ff#\L 8cc\	.	8aa\L)yy	.	8aa\L)	.
.	.	.	.	.	.	.	.	.	.	.	.	.	.	.	.	.	16a/J	.	.	.	.	.	.	.	.	.	.	.	.	.	.	.
8r	.	8ryy	.	8d/J 8A/	.	8f#/J 8c/	.	8d'/J	.	8r	8ee\J	.	8D/J	8D\J	8f#\J 8A\	.	8dd/J	.	8r	.	8dd\J 8cc\	.	8f#\J 8A\	.	8d/J	.	8ff#\J 8cc\	.	8dd'\Jyy	.	8dd'\J	.
=62	=62	=62	=62	=62	=62	=62	=62	=62	=62	=62	=62	=62	=62	=62	=62	=62	=62	=62	=62	=62	=62	=62	=62	=62	=62	=62	=62	=62	=62	=62	=62	=62
*	*	*	*	*	*	*	*	*	*	*	*rep	*	*	*	*	*	*	*	*	*	*	*	*	*	*	*	*	*	*	*	*	*
8GG/	.	8GG/yy	.	8r	.	8r	.	(32ee\LLL	.	4C/	8r	.	8r	8r	8r	.	8d/L	.	8G/ 8GG/	.	8r	.	8r	.	(32ee\LLL	.	8r	.	4.r	.	(32eee\LLL	.
.	.	.	.	.	.	.	.	32ff#\	.	.	.	.	.	.	.	.	.	.	.	.	.	.	.	.	32ff#\	.	.	.	.	.	32fff#\	.
.	.	.	.	.	.	.	.	32ee\	.	.	.	.	.	.	.	.	.	.	.	.	.	.	.	.	32ee\	.	.	.	.	.	32eee\	.
.	.	.	.	.	.	.	.	32dd\JJJ	.	.	.	.	.	.	.	.	.	.	.	.	.	.	.	.	32dd\JJJ	.	.	.	.	.	32ddd\JJJ	.
!	!	!	!	!	!	!	!	!	!	!	!	!	!	!	!	!	!	!	!	!	!	!	!	!	!LO:TX:a:t=h	!	!	!	!	!	!	!
4r	.	4ryy	.	8d/L 8G/	.	8g/L 8B/	.	8b/L)	.	.	8ee\L	.	8D/L	8G\L	8g\L 8B\	.	16g/L	.	8r	.	8dd\L 8g\	.	8g\L 8B\	.	8b\L)	.	8gg\L 8b\	.	.	.	8bb\L)	.
.	.	.	.	.	.	.	.	.	.	.	.	.	.	.	.	.	16b/JJ	.	.	.	.	.	.	.	.	.	.	.	.	.	.	.
!	!	!	!	!	!	!	!	!	!	!	!	!	!	!	!	!	!	!	!	!	!	!	!	!	!LO:TX:a:t=g	!	!	!	!	!	!	!
.	.	.	.	8d/J 8G/	.	8g/J 8B/	.	8g'/J	.	8r	8ee\J	.	8D/J	8G\J	8g\J 8B\	.	8dd\	.	8r	.	8dd\J 8g\	.	8g\J 8B\	.	8g\J	.	8gg\J 8b\	.	.	.	8gg'\J	.
*	*	*	*	*	*	*	*	*	*	*	*Xrep	*	*	*	*	*	*	*	*	*	*	*	*	*	*	*	*	*	*	*	*	*
!!LO:PB:g=original
=63	=63	=63	=63	=63	=63	=63	=63	=63	=63	=63	=63	=63	=63	=63	=63	=63	=63	=63	=63	=63	=63	=63	=63	=63	=63	=63	=63	=63	=63	=63	=63	=63
!LO:TX:t=P:problem=mixed beam	!	!LO:TX:t=P:problem=mixed beam	!	!	!	!	!	!	!	!	!	!	!	!	!	!	!	!	!	!	!	!	!	!	!	!	!	!	!LO:TX:t=P:problem=w taktach 63-64 powtórka partii fl	!	!	!
8AA/L	.	8AA\Lyy	.	8r	.	8r	.	(32cc#X/LLL	.	4C/	8r	.	8r	4A\	4.g\ 4.e\	.	4.r	.	8A\ 8AA\	.	8r	.	8r	.	(32cc#X/LLL	.	8r	.	(yy32ccc#X\LLLyy	.	(32ccc#X\LLL	.
.	.	.	.	.	.	.	.	32dd/	.	.	.	.	.	.	.	.	.	.	.	.	.	.	.	.	32dd/	.	.	.	32ddd\yy	.	32ddd\	.
.	.	.	.	.	.	.	.	32cc#/	.	.	.	.	.	.	.	.	.	.	.	.	.	.	.	.	32cc#/	.	.	.	32ccc#\yy	.	32ccc#\	.
.	.	.	.	.	.	.	.	32b/JJJ)	.	.	.	.	.	.	.	.	.	.	.	.	.	.	.	.	32b/JJJ	.	.	.	32bb\JJJ)yy	.	32bb\JJJ)	.
8A\	.	8A\yy	.	8e\L 8c#X\	.	8g/L 8A/	.	(8a/L	.	.	8ee\L	.	8AA/L	.	.	.	.	.	8r	.	8ee\L 8cc#X\	.	8g\L 8A\	.	(8a/L)	.	8cc#X/L 8g/	.	(yy8aa\Lyy	.	(8aa\L	.
8AA/J	.	8AA/Jyy	.	8e\J 8c#\	.	8g/J 8A/	.	16.g/L)	.	8r	8ee\J	.	8AA/J	8AA/	.	.	.	.	8r	.	8ee\J 8cc#\	.	8g\J 8A\	.	16.g/L)	.	8cc#/J 8g/	.	16.gg\L)yy	.	16.gg\L)	.
.	.	.	.	.	.	.	.	32c#X'/JJk	.	.	.	.	.	.	.	.	.	.	.	.	.	.	.	.	32c#X/JJk|	.	.	.	32cc#X'\JJkyy	.	32cc#X'\JJk	.
=64	=64	=64	=64	=64	=64	=64	=64	=64	=64	=64	=64	=64	=64	=64	=64	=64	=64	=64	=64	=64	=64	=64	=64	=64	=64	=64	=64	=64	=64	=64	=64	=64
*	*	*	*	*	*	*	*	*	*	*	*	*	*	*	*	*	*^	*	*	*	*	*	*	*	*	*	*	*	*	*	*	*
8D/L	.	8D/Lyy	.	8d\L	.	8f#/L 8A/	.	8d/L	.	8C/L	8ee\L	.	8D/L	8D/L	8f#\L 8d\	.	8r	4ryy	.	8A\L 8D\	.	8dd\L	.	8f#/L 8A/	.	8d/L	.	8dd/L 8f#/	.	8dd\Lyy	.	8dd\L	.
8D/J	.	8D/Jyy	.	8d\J	.	8f#/J 8A/	.	8dd/J 8f#/	.	8C/J	8ee\J	.	8D/J	8D/J	8f#\J 8d\	.	8dd/ 8f#/	.	.	8A\J 8D\	.	8dd\J	.	8f#/J 8A/	.	8dd/J 8f#/	.	8dd/J 8f#/	.	8ddd\Jyy	.	8ddd\J	.
8r	.	8ryy	.	8r	.	8r	.	8r	.	8r	8r	.	8r	8r	8r	.	[8dd/	8r	.	8r	.	8r	.	8r	.	8r	.	8r	.	8ddd\yy	.	[8ddd\	.
*	*	*	*	*	*	*	*	*	*	*	*	*	*	*	*	*	*v	*v	*	*	*	*	*	*	*	*	*	*	*	*	*	*	*
=65	=65	=65	=65	=65	=65	=65	=65	=65	=65	=65	=65	=65	=65	=65	=65	=65	=65	=65	=65	=65	=65	=65	=65	=65	=65	=65	=65	=65	=65	=65	=65	=65
!LO:TX:t=P:problem=powtórka taktów 49-53	!	!LO:TX:t=P:problem=powtórka taktów 49-53	!	!LO:TX:t=P:problem=powtórka taktów 49-53	!	!LO:TX:t=P:problem=powtórka taktów 49-53	!	!LO:TX:t=P:problem=powtórka taktów 49-53	!	!LO:TX:t=P:problem=powtórka taktów 49-53	!LO:TX:t=P:problem=powtórka taktów 49-53	!	!LO:TX:t=P:problem=powtórka taktów 49-53	!LO:TX:t=P:problem=powtórka taktów 49-53	!LO:TX:t=P:problem=powtórka taktów 49-53	!	!	!	!LO:TX:t=P:problem=powtórka taktów 49-53	!	!LO:TX:t=P:problem=powtórka taktów 49-53	!	!LO:TX:t=P:problem=powtórka taktów 49-53	!	!LO:TX:t=P:problem=powtórka taktów 49-53	!	!LO:TX:t=P:problem=powtórka taktów 49-53	!	!LO:TX:t=P:problem=powtórka taktów 49-53	!	!LO:TX:t=P:problem=powtórka taktów 49-52	!
8GG/yy	p	8GG/yyyy	pyy	8ryy	.	8ryy	p	8ryy	.	4.ryyyy	4.ryyyy	.	4.ryyyy	4.ryyyy	4.ryyyy	.	16.dd/LL]yy|	.	4.ryy	.	4.ryyyy	.	4.ryyyy	.	4.ryy	.	4.ryy	.	4.ryy	.	16.ddd'\LL]yy	.
.	.	.	.	.	.	.	.	.	.	.	.	.	.	.	.	.	32b/JJkyy|	.	.	.	.	.	.	.	.	.	.	.	.	.	32bb'\JJkyy	.
8ryy	.	8ryyyy	.	8dyy\L 8G\	.	8gyy/L 8B/	.	(8ee\Lyy	.	.	.	.	.	.	.	.	(>8ee/Lyy	.	.	.	.	.	.	.	.	.	.	.	.	.	(8eee\Lyy	.
8ryy	.	8ryyyy	.	8dyy\J 8G\	.	8gyy/J 8B/	.	8dd\J)yy	.	.	.	.	.	.	.	.	8dd/J)yy	.	.	.	.	.	.	.	.	.	.	.	.	.	8ddd\J)yy	.
=66	=66	=66	=66	=66	=66	=66	=66	=66	=66	=66	=66	=66	=66	=66	=66	=66	=66	=66	=66	=66	=66	=66	=66	=66	=66	=66	=66	=66	=66	=66	=66	=66
8G\yy	.	8G\yyyy	.	8ryy	.	8ryy	.	8ryy	.	4.ryyyy	4.ryyyy	.	4.ryyyy	4.ryyyy	4.ryyyy	.	16.b/LLyy	.	4.ryyyy	.	4.ryyyy	.	4.ryyyy	.	4.ryy	.	4.ryy	.	4.ryy	.	16.bb\LLyy	.
.	.	.	.	.	.	.	.	.	.	.	.	.	.	.	.	.	32g/JJkyy	.	.	.	.	.	.	.	.	.	.	.	.	.	32gg\JJkyy	.
.	.	.	.	.	.	.	.	(8qdd/yy	.	.	.	.	.	.	.	.	(>8qqdd/yy	.	.	.	.	.	.	.	.	.	.	.	.	.	(8qddd/yy	.
8ryy	.	8ryyyy	.	8dyy\L 8G\	.	8gyy/L 8B/	.	8cc/L)yy	.	.	.	.	.	.	.	.	8cc/L)yy	.	.	.	.	.	.	.	.	.	.	.	.	.	8ccc\L)yy	.
8ryy	.	8ryyyy	.	8dyy\J 8G\	.	8gyy/J 8B/	.	8b'/Jyy	.	.	.	.	.	.	.	.	8b'/Jyy	.	.	.	.	.	.	.	.	.	.	.	.	.	8bb'\Jyy	.
=67	=67	=67	=67	=67	=67	=67	=67	=67	=67	=67	=67	=67	=67	=67	=67	=67	=67	=67	=67	=67	=67	=67	=67	=67	=67	=67	=67	=67	=67	=67	=67	=67
8D\yy	.	8D\yyyy	.	8ryy	.	8ryy	.	4.ryy	.	4.ryyyy	4.ryyyy	.	4.ryyyy	4.ryyyy	4.ryyyy	.	(8.dd/Lyy	.	4.ryyyy	.	4.ryyyy	.	4.ryyyy	.	4.ryy	.	4.ryy	.	4.ryy	.	8.ddd\Lyy	.
8ryy	.	8ryyyy	.	8dyy\L 8A\	.	8f#yy/L 8c/	.	.	.	.	.	.	.	.	.	.	.	.	.	.	.	.	.	.	.	.	.	.	.	.	.	.
.	.	.	.	.	.	.	.	.	.	.	.	.	.	.	.	.	16cc/Lyy	.	.	.	.	.	.	.	.	.	.	.	.	.	(16ccc\Lyy	.
8ryy	.	8ryyyy	.	8dyy\J 8A\	.	8f#yy/J 8c/	.	.	.	.	.	.	.	.	.	.	16a/yy	.	.	.	.	.	.	.	.	.	.	.	.	.	16aa\yy	.
.	.	.	.	.	.	.	.	.	.	.	.	.	.	.	.	.	16f#/JJ)yy	.	.	.	.	.	.	.	.	.	.	.	.	.	16ff#\JJ)yy	.
=68	=68	=68	=68	=68	=68	=68	=68	=68	=68	=68	=68	=68	=68	=68	=68	=68	=68	=68	=68	=68	=68	=68	=68	=68	=68	=68	=68	=68	=68	=68	=68	=68
*	*	*	*	*	*	*	*	*	*	*	*	*	*	*	*	*	*	*	*	*	*^	*	*^	*	*	*	*	*	*	*	*	*
!LO:TX:t=P:problem=mixed beam	!	!LO:TX:t=P:problem=mixed beam	!	!	!	!	!	!	!	!	!	!	!	!	!	!	!	!	!	!	!	!	!	!	!	!	!	!	!	!	!	!	!	!
8GG/Lyy	.	8GG/Lyyyy	.	8dyy/ 8G/	.	8gyy/ 8B/	.	16.g/LLyy	.	4.ryy	4.ryy	.	4.ryy	4.ryy	4.ryy	.	16.g/LLyy	.	8ryy	.	8ryy	8ryyyy	.	8ryy	8ryyyy	.	4.ryy	.	4.ryy	.	4.ryy	.	16.gg\LLyy	.
.	.	.	.	.	.	.	.	32b/JJkyy	.	.	.	.	.	.	.	.	32b/JJkyy	.	.	.	.	.	.	.	.	.	.	.	.	.	.	.	32bb\JJkyy	.
!	!	!	!	!	!	!	!	!	!LO:DY:a	!	!	!	!	!	!	!	!	!LO:DY:a	!	!	!	!	!	!	!	!LO:DY:a	!	!	!	!	!	!	!	!
8G/yy	.	8G/yyyy	.	(8A#X^/Lyy	.	(8c#X^/Lyy	.	(16e/LLyy	>	.	.	.	.	.	.	.	(16e/LLyy	>	4Gyy\ 4GG\	.	(8ee/Lyy	4cc#Xyy\ 4g\	>	(8e/Lyy	8A#X\Lyy	>	.	.	.	.	.	.	(16ee'\LLyy	.
.	.	.	.	.	.	.	.	32f#/Lyy	.	.	.	.	.	.	.	.	32f#/Lyy	.	.	.	.	.	.	.	.	.	.	.	.	.	.	.	32ff#\L)yy	.
.	.	.	.	.	.	.	.	32e/JJ)yy	]	.	.	.	.	.	.	.	32e/JJ)yy	]	.	.	.	.	.	.	.	.	.	.	.	.	.	.	32ee\JJyy	.
8G/Jyy	.	8G/Jyyyy	.	8B/J)yy	.	8d/J)yy	.	8d'/Jyy	.	.	.	.	.	.	.	.	8d'/Jyy	.	.	.	8dd/J)yy	.	]	8d/J)yy	8B\Jyy	]	.	.	.	.	.	.	8dd\Jyy	.
*	*	*	*	*	*	*	*	*	*	*	*	*	*	*	*	*	*	*	*	*	*v	*v	*	*	*	*	*	*	*	*	*	*	*	*
*	*	*	*	*	*	*	*	*	*	*	*	*	*	*	*	*	*	*	*	*	*	*	*v	*v	*	*	*	*	*	*	*	*	*
=69	=69	=69	=69	=69	=69	=69	=69	=69	=69	=69	=69	=69	=69	=69	=69	=69	=69	=69	=69	=69	=69	=69	=69	=69	=69	=69	=69	=69	=69	=69	=69	=69
8GG/yy	.	8GG/yyyy	.	8ryy	.	8ryy	.	4.ryy	.	4.ryyyy	4.ryyyy	.	4.ryyyy	4.ryyyy	4.ryy	.	4.ryyyy	.	4.ryy	.	4.ryy	.	4.ryy	.	4.ryy	.	4.ryy	.	4.ryy	.	16.ddd'\LLyy	.
.	.	.	.	.	.	.	.	.	.	.	.	.	.	.	.	.	.	.	.	.	.	.	.	.	.	.	.	.	.	.	32bb\JJkyy|	.
8ryy	.	8ryyyy	.	8dyy/L 8G/	.	8gyy/L 8B/	.	.	.	.	.	.	.	.	.	.	.	.	.	.	.	.	.	.	.	.	.	.	.	.	(8eee\Lyy	.
8ryy	.	8ryyyy	.	8dyy/J 8G/	.	8gyy/J 8B/	.	.	.	.	.	.	.	.	.	.	.	.	.	.	.	.	.	.	.	.	.	.	.	.	8ddd\J)yy	.
=70	=70	=70	=70	=70	=70	=70	=70	=70	=70	=70	=70	=70	=70	=70	=70	=70	=70	=70	=70	=70	=70	=70	=70	=70	=70	=70	=70	=70	=70	=70	=70	=70
*	*	*	*	*	*	*	*	*	*	*	*	*	*	*	*	*	*^	*	*	*	*	*	*	*	*	*	*	*	*	*	*	*
!	!	!LO:TX:t=P:problem=w taktach 70-72 powtórka partii cb, oktawę wyżej	!	!	!	!	!	!	!	!	!	!	!	!	!	!	!	!	!	!	!	!	!	!	!	!	!	!	!	!	!	!	!
8G\	.	8G\yy	.	8r	.	8r	.	4.r	.	4.r	4.r	.	4.r	4.r	4.r	.	16.b/LL	4.r	.	4.r	.	4.r	.	4.r	.	4.r	.	4.r	.	4.r	.	16.bb'\LL	.
.	.	.	.	.	.	.	.	.	.	.	.	.	.	.	.	.	32g/JJk	.	.	.	.	.	.	.	.	.	.	.	.	.	.	32gg'\JJk	.
.	.	.	.	.	.	.	.	.	.	.	.	.	.	.	.	.	(8qdd/	.	.	.	.	.	.	.	.	.	.	.	.	.	.	(8qddd/	.
8r	.	8ryy	.	8d\L 8G\	.	8g/L 8B/	.	.	.	.	.	.	.	.	.	.	8cc/L)	.	.	.	.	.	.	.	.	.	.	.	.	.	.	8ccc\L)	.
8r	.	8ryy	.	8d\J 8G\	.	8g/J 8B/	.	.	.	.	.	.	.	.	.	.	8b'/J	.	.	.	.	.	.	.	.	.	.	.	.	.	.	8bb'\J	.
=71	=71	=71	=71	=71	=71	=71	=71	=71	=71	=71	=71	=71	=71	=71	=71	=71	=71	=71	=71	=71	=71	=71	=71	=71	=71	=71	=71	=71	=71	=71	=71	=71	=71
*	*	*	*	*	*	*	*	*	*	*	*	*	*	*	*	*	*	*	*	*	*	*^	*	*	*	*	*	*	*	*	*	*	*
!	!	!	!	!	!	!	!	!LO:TUP:a:problem=klamra łukowa	!	!	!	!	!	!	!	!	!LO:TUP:a:problem=klamra łukowa	!	!	!	!	!	!	!	!	!	!	!	!	!	!	!	!LO:TUP:a:problem=klamra łukowa	!
!	!	!	!	!	!	!	!	!LO:TUP:b	!	!	!	!	!	!	!	!	!LO:TUP:b	!	!	!	!	!	!	!	!	!	!	!	!	!	!	!	!	!
8C/L	.	8C/Lyy	.	8A/L	.	8e-X/L 8c/	.	24a/LL	.	4.r	4.r	.	4.r	4.r	4.r	.	24a/LL	4.r	.	4A\ 4C\	.	(4ee-X/	4.cc\	.	4.r	.	4.r	.	4.r	.	4.r	.	24aa\LL	.
.	.	.	.	.	.	.	.	24b/	.	.	.	.	.	.	.	.	24b/	.	.	.	.	.	.	.	.	.	.	.	.	.	.	.	24bb\	.
.	.	.	.	.	.	.	.	24cc/JJ	.	.	.	.	.	.	.	.	24cc/JJ	.	.	.	.	.	.	.	.	.	.	.	.	.	.	.	24ccc\JJ	.
8C/	.	8C/yy	.	8A/	.	8e-/ 8c/	.	(8e-X/L	.	.	.	.	.	.	.	.	(8e-X/L	.	.	.	.	.	.	.	.	.	.	.	.	.	.	.	(8ee-X\L	.
8D/J	.	8D/Jyy	.	8A/J	.	8d/J 8c/	.	16d/L)	.	.	.	.	.	.	.	.	16d/L)	.	.	8A\ 8D\	.	8dd/)	.	.	.	.	.	.	.	.	.	.	16dd\L)	.
.	.	.	.	.	.	.	.	16f#'/JJ	.	.	.	.	.	.	.	.	16f#'/JJ	.	.	.	.	.	.	.	.	.	.	.	.	.	.	.	16ff#'\JJ	.
*	*	*	*	*	*	*	*	*	*	*	*	*	*	*	*	*	*	*	*	*	*	*v	*v	*	*	*	*	*	*	*	*	*	*	*
=72	=72	=72	=72	=72	=72	=72	=72	=72	=72	=72	=72	=72	=72	=72	=72	=72	=72	=72	=72	=72	=72	=72	=72	=72	=72	=72	=72	=72	=72	=72	=72	=72	=72
8G\	.	8G\yy	.	8G/	.	8d/ 8B/	.	8g/	.	4.r	4.r	.	4.r	8r	8r	.	8g/	8ryy	.	8B\L 8GG\	.	8dd/L 8g/	.	4.r	.	8r	.	8r	.	4.r	.	8gg\	.
8GG/	.	8GG/yy	.	8g\ 8B\	.	8b/ 8d/	.	8gg\ 8g\	.	.	.	.	.	8D/ 8GG/	8g\ 8B\	.	8gg\	8g\	.	8B\J 8GG\	.	8dd/J 8g/	.	.	.	8dd\ 8b\	.	8gg\ 8b\	.	.	.	8ggg\	.
!	!	!	!	!	!	!	!	!LO:TX:a:t=Mazur da capo al fine\ne poi la Coda.	!	!	!	!	!	!	!	!	!	!	!	!	!	!	!	!	!	!	!	!	!	!	!	!	!
8r	.	8ryy	.	8r	.	8r	.	8r	.	.	.	.	.	8r	8r	.	8r	8ryy	.	8r	.	8r	.	.	.	8r	.	8r	.	.	.	8r	.
*	*	*	*	*	*	*	*	*	*	*	*	*	*	*	*	*	*v	*v	*	*	*	*	*	*	*	*	*	*	*	*	*	*	*
!!LO:PB:g=original
=73:|!	=73:|!	=73:|!	=73:|!	=73:|!	=73:|!	=73:|!	=73:|!	=73:|!	=73:|!	=73:|!	=73:|!	=73:|!	=73:|!	=73:|!	=73:|!	=73:|!	=73:|!	=73:|!	=73:|!	=73:|!	=73:|!	=73:|!	=73:|!	=73:|!	=73:|!	=73:|!	=73:|!	=73:|!	=73:|!	=73:|!	=73:|!	=73:|!
*>F	*	*	*	*	*	*	*	*	*	*	*	*	*	*	*	*	*	*	*	*	*	*	*	*	*	*	*	*	*	*	*	*
*k[f#c#]	*	*k[f#c#]	*	*k[f#c#]	*	*k[f#c#]	*	*k[f#c#]	*	*k[]	*k[]	*	*k[]	*k[f#c#]	*k[f#c#]	*	*k[f#c#]	*	*k[f#c#]	*	*k[]	*	*k[f#c#]	*	*k[f#c#]	*	*k[f#c#]	*	*k[f#c#]	*	*k[f#c#]	*
!	!	!LO:TX:t=P:problem=w taktach 73-87 powtórka partii cb, oktawę wyżej	!	!	!	!	!	!	!	!	!	!	!	!	!	!	!	!	!	!	!	!	!	!	!	!	!	!	!	!	!	!
!LO:TX:t=P:problem=mixed beam	!	!LO:TX:t=P:problem=mixed beam	!	!	!	!	!	!	!	!	!	!	!	!	!	!	!	!	!	!	!	!	!	!	!	!	!	!	!	!	!LO:TX:a:t=Coda.	!
8BB/L	.	8BB/Lyy	.	8f#\L 8B\	.	8dd/L 8f#/	.	(32ff#\LLL	.	8C/L	8ee\L	.	8D/L	8BB/L	8d\L 8B\ 8F#\	.	8dd/L 8f#/	.	8B\L 8BB\	.	8dd\L	.	8f#/L 8B/	.	(32f#/LLL	.	8ff#\L 8dd\	.	(32ff#\LLL	.	(32ff#\LLL	.
.	.	.	.	.	.	.	.	32dd\	.	.	.	.	.	.	.	.	.	.	.	.	.	.	.	.	32d/	.	.	.	32dd\	.	32dd\	.
.	.	.	.	.	.	.	.	32ff#\	.	.	.	.	.	.	.	.	.	.	.	.	.	.	.	.	32f#/	.	.	.	32ff#\	.	32ff#\	.
.	.	.	.	.	.	.	.	32bb\JJ)	.	.	.	.	.	.	.	.	.	.	.	.	.	.	.	.	32b/JJ)	.	.	.	32bb\JJ)	.	32bb\JJ)	.
8B\J	.	8B\Jyy	.	8f#\J 8B\	.	8dd/J 8f#/	.	8ddd'\J	.	8C/J	8ee\J	.	8D/J	8BB/J	8d\J 8B\ 8F#\	.	8dd/J 8f#/	.	8B\J 8BB\	.	8dd\J	.	8f#/J 8B/	.	8dd'/J	.	8ddd\J 8ff#\	.	8ddd'\J	.	8ddd'\J	.
8r	.	8ryy	.	8r	.	8r	.	8r	.	8r	8r	.	8r	8r	8r	.	8r	.	8r	.	8r	.	8r	.	8r	.	8r	.	8r	.	8r	.
=74	=74	=74	=74	=74	=74	=74	=74	=74	=74	=74	=74	=74	=74	=74	=74	=74	=74	=74	=74	=74	=74	=74	=74	=74	=74	=74	=74	=74	=74	=74	=74	=74
!	!	!	!	!	!	!	!	!	!	!	!	!	!	!	!	!	!	!	!	!	!	!	!	!	!	!	!	!	!	!	!LO:TX:a:t=col Vo. 1o	!
!	!	!	!	!	!	!	!	!	!	!	!	!	!	!	!	!	!	!	!	!	!	!	!	!	!	!	!	!	!	!	!LO:TX:t=P:problem=w taktach 74-81 powtórka partii vl 1	!
.	.	.	.	.	.	(>8qe/	.	(8qee/	.	.	.	.	.	.	.	.	.	.	.	.	.	.	.	.	(>8qe/	.	.	.	(8qee/	.	(8qee/yy	.
*	*	*	*	*	*	*	*	*	*	*	*	*	*	*	*	*	*	*	*	*	*^	*	*	*	*	*	*	*	*	*	*	*
*tremolo	*	*tremolo	*	*tremolo	*	*	*	*	*	*	*	*	*	*	*	*	*	*	*	*	*	*	*	*	*	*	*	*	*	*	*	*	*
8G\L	.	8G\Lyy	.	8g\L 8B\	.	8.ee\L)	.	8.eee\L)	.	4.r	4.r	.	4.r	4.GG/	4.e\ 4.B\	.	4.r	.	4.G/ 4.GG/	.	4.ee/	4.ee\	.	4.g\ 4.B\	.	8.ee\L)	.	4.ee\ 4.b\	.	8.eee\L)	.	8.eee\L)yy	.
8G\	.	8G\yy	.	8g\ 8B\	.	.	.	.	.	.	.	.	.	.	.	.	.	.	.	.	.	.	.	.	.	.	.	.	.	.	.	.	.
.	.	.	.	.	.	(16dd\L	.	(16ddd\L	.	.	.	.	.	.	.	.	.	.	.	.	.	.	.	.	.	(16dd\L	.	.	.	(16ddd\L	.	(16ddd\Lyy	.
8G\J	.	8G\Jyy	.	8g\J 8B\	.	16cc#\	.	16ccc#\	.	.	.	.	.	.	.	.	.	.	.	.	.	.	.	.	.	16cc#\	.	.	.	16ccc#\	.	16ccc#\yy	.
.	.	.	.	.	.	16b\JJ)	.	16bb\JJ)	.	.	.	.	.	.	.	.	.	.	.	.	.	.	.	.	.	16b\JJ)	.	.	.	16bb\JJ)	.	16bb\JJ)yy	.
=75	=75	=75	=75	=75	=75	=75	=75	=75	=75	=75	=75	=75	=75	=75	=75	=75	=75	=75	=75	=75	=75	=75	=75	=75	=75	=75	=75	=75	=75	=75	=75	=75	=75
*Xtremolo	*	*Xtremolo	*	*	*	*	*	*	*	*	*	*	*	*	*	*	*	*	*	*	*	*	*	*	*	*	*	*	*	*	*	*	*
8A\L	.	8A\Lyy	.	8f#\L 8A\	.	16a'\LL	.	16aa'\LL	.	4.r	8r	.	8AA/	8r	8r	.	16A'/LL	.	4.A/ 4.AA/	.	4.dd/	4.dd\	.	4.f#\ 4.A\	.	16a'\LL	.	4.ff#\ 4.dd\	.	16aa'\LL	.	16aa'\LLyy	.
.	.	.	.	.	.	(32ff#\L	.	(32fff#\L	.	.	.	.	.	.	.	.	(32d/L	.	.	.	.	.	.	.	.	(32ff#\L	.	.	.	(32ff#\L	.	(32fff#\Lyy	.
.	.	.	.	.	.	32dd\JJJ)	.	32ddd\JJJ)	.	.	.	.	.	.	.	.	32f#/JJJ)	.	.	.	.	.	.	.	.	32dd\JJJ)	.	.	.	32dd\JJJ)	.	32ddd\JJJ)yy	.
8A\	.	8A\yy	.	8f#\ 8A\	.	8a/L	.	8aa\L	.	.	8ee\L	.	8r	8AA/L	8f#\L 8d\	.	8a'/L	.	.	.	.	.	.	.	.	8a'/L	.	.	.	8cc#\L	.	8aa\Lyy	.
8A\J	.	8A\Jyy	.	8f#\J 8A\	.	8f#/J	.	8ff#\J	.	.	8ee\J	.	8r	8AA/J	8f#\J 8d\	.	8dd'/J	.	.	.	.	.	.	.	.	8f#'/J	.	.	.	8ff#\J	.	8ff#\Jyy	.
=76	=76	=76	=76	=76	=76	=76	=76	=76	=76	=76	=76	=76	=76	=76	=76	=76	=76	=76	=76	=76	=76	=76	=76	=76	=76	=76	=76	=76	=76	=76	=76	=76	=76
*tremolo	*	*tremolo	*	*	*	*tremolo	*	*	*	*	*rep	*	*	*	*	*	*	*	*	*	*	*	*	*	*	*	*	*	*	*	*	*	*
8AA/L	.	8AA/Lyy	.	8e/L 8A/	.	8cc#/L 8g/	.	8.bb\L	.	4.r	8r	.	8AA/	8r	8r	.	8.b/L	.	4.A/ 4.AA/	.	4.ee/	4.cc#X\	.	4.g\ 4.A\	.	8.b/L	.	4.gg\ 4.ee\	.	8.bb\L	.	8.bb\Lyy	.
8AA/	.	8AA/yy	.	8e/ 8A/	.	8cc#/ 8g/	.	.	.	.	8ee\L	.	8r	8AA/L	8g\L 8c#\	.	.	.	.	.	.	.	.	.	.	.	.	.	.	.	.	.	.
.	.	.	.	.	.	.	.	(16aa\L	.	.	.	.	.	.	.	.	(16a/L	.	.	.	.	.	.	.	.	(16a/L	.	.	.	16aa\L	.	(16aa\Lyy	.
8AA/J	.	8AA/Jyy	.	8e/J 8A/	.	8cc#/J 8g/	.	16gg\	.	.	8ee\J	.	8r	8AA/J	8g\J 8c#\	.	16g/	.	.	.	.	.	.	.	.	16g/	.	.	.	16gg\	.	16gg\yy	.
.	.	.	.	.	.	.	.	16ee\JJ)	.	.	.	.	.	.	.	.	16ee/JJ 16e/)	.	.	.	.	.	.	.	.	16e/JJ)	.	.	.	16ee\JJ	.	16ee\JJ)yy	.
*Xtremolo	*	*Xtremolo	*	*Xtremolo	*	*Xtremolo	*	*	*	*	*Xrep	*	*	*	*	*	*	*	*	*	*	*	*	*	*	*	*	*	*	*	*	*	*
*	*	*	*	*	*	*	*	*	*	*	*	*	*	*	*	*	*	*	*	*	*v	*v	*	*	*	*	*	*	*	*	*	*	*
=77	=77	=77	=77	=77	=77	=77	=77	=77	=77	=77	=77	=77	=77	=77	=77	=77	=77	=77	=77	=77	=77	=77	=77	=77	=77	=77	=77	=77	=77	=77	=77	=77
*	*	*	*	*	*	*	*	*	*	*	*tremolo	*	*	*	*	*	*	*	*	*	*	*	*	*	*	*	*	*	*	*	*	*
8D\L	.	8D\Lyy	.	8f#/L 8A/	.	8dd/L 8f#/	.	(32ff#\LLL	.	8C/L	32ee\LLL	.	8D/L	8D/L	8f#\L 8d\	.	8dd/L 8f#/	.	8A\L 8D\	.	8dd\L	.	8f#\L 8A\	.	(32f#/LLL	.	8ff#\L 8dd\	.	(32ff#\LLL	.	(32ff#\LLLyy	.
.	.	.	.	.	.	.	.	32dd\	.	.	32ee\	.	.	.	.	.	.	.	.	.	.	.	.	.	32d/	.	.	.	32dd\	.	32dd\yy	.
.	.	.	.	.	.	.	.	32ff#\	.	.	32ee\	.	.	.	.	.	.	.	.	.	.	.	.	.	32f#/	.	.	.	32ff#\	.	32ff#\yy	.
.	.	.	.	.	.	.	.	32aa\JJ)	.	.	32ee\JJ	.	.	.	.	.	.	.	.	.	.	.	.	.	32a/JJ)	.	.	.	32aa\JJ)	.	32aa\JJ)yy	.
*	*	*	*	*	*	*	*	*	*	*	*Xtremolo	*	*	*	*	*	*	*	*	*	*	*	*	*	*	*	*	*	*	*	*	*
8D\J	.	8D\Jyy	.	8f#/J 8A/	.	8dd/J 8f#/	.	8ddd\J	.	8C/J	8ee\J	.	8D/J	8D/J	8f#\J 8d\	.	8dd/J 8f#/	.	8A\J 8D\	.	8dd\J	.	8f#\J 8A\	.	8dd'/J	.	8ddd\J 8gg\	.	8ddd'\J	.	8ddd\Jyy	.
8r	.	8ryy	.	8r	.	8r	.	8r	.	8r	8r	.	8r	8r	8r	.	8r	.	8r	.	8r	.	8r	.	8r	.	8r	.	8r	.	8ryy	.
!!LO:PB:g=original
=78	=78	=78	=78	=78	=78	=78	=78	=78	=78	=78	=78	=78	=78	=78	=78	=78	=78	=78	=78	=78	=78	=78	=78	=78	=78	=78	=78	=78	=78	=78	=78	=78
*	*	*	*	*	*	*	*	*	*	*	*tremolo	*	*	*	*	*	*	*	*	*	*	*	*	*	*	*	*	*	*	*	*	*
!LO:TX:t=P:problem=mixed beam	!	!LO:TX:t=P:problem=mixed beam	!	!	!	!	!	!	!	!	!	!	!	!	!	!	!	!	!	!	!	!	!	!	!	!	!	!	!	!	!	!
8BB/L	.	8BB\Lyy	.	8f#\L 8B\	.	8dd/L 8f#/	.	(32ff#\LLL	.	8C/L	32ee\LLL	.	8D/L	8BB/L	8d\L 8F#\	.	8dd/L 8f#/	.	8B\L 8BB\	.	8dd\L	.	8f#\L 8B\	.	(32f#/LLL	.	8ff#\L 8dd\	.	(32ff#\LLL	.	(32ff#\LLLyy	.
.	.	.	.	.	.	.	.	32dd\	.	.	32ee\	.	.	.	.	.	.	.	.	.	.	.	.	.	32d/	.	.	.	32dd\	.	32dd\yy	.
.	.	.	.	.	.	.	.	32ff#\	.	.	32ee\	.	.	.	.	.	.	.	.	.	.	.	.	.	32f#/	.	.	.	32ff#\	.	32ff#\yy	.
.	.	.	.	.	.	.	.	32bb\JJ)	.	.	32ee\JJ	.	.	.	.	.	.	.	.	.	.	.	.	.	32a/JJ)	.	.	.	32bb\JJ)	.	32bb\JJ)yy	.
*	*	*	*	*	*	*	*	*	*	*	*Xtremolo	*	*	*	*	*	*	*	*	*	*	*	*	*	*	*	*	*	*	*	*	*
8B\J	.	8B\Jyy	.	8f#\J 8B\	.	8dd/J 8f#/	.	8ddd\J	.	8C/J	8ee\J	.	8D/J	8BB/J	8d\J 8F#\	.	8dd/J 8f#/	.	8B\J 8BB\	.	8dd\J	.	8f#\J 8B\	.	8dd/J	.	8ddd\J 8ff#\	.	8ddd\J	.	8ddd\Jyy	.
8r	.	8ryy	.	8r	.	8r	.	8r	.	8r	8r	.	8r	8r	8r	.	8r	.	8r	.	8r	.	8r	.	8r	.	8r	.	8r	.	8ryy	.
=79	=79	=79	=79	=79	=79	=79	=79	=79	=79	=79	=79	=79	=79	=79	=79	=79	=79	=79	=79	=79	=79	=79	=79	=79	=79	=79	=79	=79	=79	=79	=79	=79
!	!	!	!	!	!	!	!	!	!	!	!	!	!	!	!	!	!	!	!	!	!	!	!	!	!	!	!	!	!LO:TX:a:t=Col Vo. 1o.	!	!	!
!	!	!	!	!	!	!	!	!	!	!	!	!	!	!	!	!	!	!	!	!	!	!	!	!	!	!	!	!	!LO:TX:t=P:problem=w taktach 79-81 powtórka partii vl 1, oktawę wyżej	!	!	!
.	.	.	.	.	.	(>8qe/	.	(>8qee/	.	.	.	.	.	.	.	.	.	.	.	.	.	.	.	.	(8qe/	.	.	.	(yy8qee/yy	.	(yy8qee/yy	.
*	*	*	*	*	*	*	*	*	*	*	*	*	*	*	*^	*	*^	*	*	*	*^	*	*^	*	*	*	*^	*	*	*	*	*
8G\L	.	8G\Lyy	.	8e\L 8B\	.	8.ee\L)	.	8.eee\L)	.	8r	8r	.	8r	8r	8r	8ryy	.	8r	8ryy	.	4G/ 4GG/	.	4ee/	4b\	.	4e/	4B\	.	8.ee\L)	.	4ee/	4a\	.	8.eee\L)yy	.	8.eee\L)yy	.
8G\	.	8G\yy	.	8e\ 8B\	.	.	.	.	.	8r	8r	.	8r	8r	8r	8ryy	.	8r	8ryy	.	.	.	.	.	.	.	.	.	.	.	.	.	.	.	.	.	.
.	.	.	.	.	.	16dd'\Jk	.	16ddd\Jk	.	.	.	.	.	.	.	.	.	.	.	.	.	.	.	.	.	.	.	.	16dd\Jk|	.	.	.	.	16ddd\Jkyy	.	16ddd\Jkyy	.
.	.	.	.	.	.	(8qdd/	.	(8qddd/	.	.	.	.	.	.	.	.	.	.	.	.	.	.	.	.	.	.	.	.	(8qdd/	.	.	.	.	(yy8qddd/yy	.	(yy8qddd/yy	.
8G#X\J	.	8G#X\Jyy	.	8e#X\J 8B\	.	16cc#\LL)	.	16ccc#\LL)	.	8C/	8ee\	.	8D/	8G#X\	8e#X/	8d\	.	8b/	8e#X\	.	8G#X/ 8GG#X/	.	8dd^/	8b^\	.	8e#X/	8B\	.	16cc#\LL)	.	8ee#X/	8b\	.	16ccc#\LL)yy	.	16ccc#\LL)yy	.
.	.	.	.	.	.	16b'\JJ	.	16bb\JJ|	.	.	.	.	.	.	.	.	.	.	.	.	.	.	.	.	.	.	.	.	16b'\JJ	.	.	.	.	16bb\JJyy|	.	16bb\JJyy|	.
*	*	*	*	*	*	*	*	*	*	*	*	*	*	*	*v	*v	*	*	*	*	*	*	*	*	*	*v	*v	*	*	*	*v	*v	*	*	*	*	*
*	*	*	*	*	*	*	*	*	*	*	*	*	*	*	*	*	*v	*v	*	*	*	*	*	*	*	*	*	*	*	*	*	*	*	*
=80	=80	=80	=80	=80	=80	=80	=80	=80	=80	=80	=80	=80	=80	=80	=80	=80	=80	=80	=80	=80	=80	=80	=80	=80	=80	=80	=80	=80	=80	=80	=80	=80	=80
*tremolo	*	*tremolo	*	*tremolo	*	*	*	*	*	*	*tremolo	*	*tremolo	*tremolo	*tremolo	*	*	*	*	*	*	*	*	*	*	*	*	*	*	*	*	*	*
8A\L	.	8A\Lyy	.	8f#\L 8A\	.	16a'\LL	.	16aa'\LL	.	4C/	8ee\L	.	8AA/L	8A\L	8f#\L 8d\	.	16a/LL 16f#'/	.	4.A/ 4.AA/	.	4.dd/	4.dd\	.	4.f#/ 4.A/	.	16a\LL|	.	4.ff#\ 4.a\	.	16aa'\LLyy	.	16aa'\LLyy	.
.	.	.	.	.	.	(32dd\L	.	(32ddd\L	.	.	.	.	.	.	.	.	(32dd/L 32d/	.	.	.	.	.	.	.	.	(32dd\L	.	.	.	(yy32ddd\Lyy	.	(yy32ddd\Lyy	.
.	.	.	.	.	.	32ff#\JJJ)	.	32fff#\JJJ)	.	.	.	.	.	.	.	.	32ff#/JJJ 32f#/)	.	.	.	.	.	.	.	.	32ff#\JJJ)	.	.	.	32fff#\JJJ)yy	.	32fff#\JJJ)yy	.
8A\	.	8A\yy	.	8f#\ 8A\	.	8dd'\L	.	8ddd'\L	.	.	8ee\	.	8AA/	8A\	8f#\ 8d\	.	8dd/L 8d'/	.	.	.	.	.	.	.	.	8dd'\L	.	.	.	8ddd'\Lyy	.	8ddd'\Lyy	.
8A\J	.	8A\Jyy	.	8f#\J 8A\	.	8a'\J	.	8aa'\J	.	8r	8ee\J	.	8AA/J	8A\J	8f#\J 8d\	.	8a/J 8A'/	.	.	.	.	.	.	.	.	8a'\J	.	.	.	8aa'\Jyy	.	8aa'\Jyy	.
*	*	*	*	*	*	*	*	*	*	*	*	*	*Xtremolo	*Xtremolo	*Xtremolo	*	*	*	*	*	*	*	*	*	*	*	*	*	*	*	*	*	*
=81	=81	=81	=81	=81	=81	=81	=81	=81	=81	=81	=81	=81	=81	=81	=81	=81	=81	=81	=81	=81	=81	=81	=81	=81	=81	=81	=81	=81	=81	=81	=81	=81	=81
8AA/L	.	8AA/Lyy	.	8g\L 8A\	.	16g#X/LL	.	(16gg#X\LL	.	4C/	32ee\LLL	.	8r	4AA/	4g\ 4c#X\	.	4cc#X/ 4e/	.	4.A/ 4.AA/	.	4.ee/	4.cc#X\	.	4.g/ 4.A/	.	(16g#X/LL	.	4.gg\ 4.a\	.	(yy16gg#X\LLyy	.	(yy16gg#X\LLyy	.
.	.	.	.	.	.	.	.	.	.	.	32ee\	.	.	.	.	.	.	.	.	.	.	.	.	.	.	.	.	.	.	.	.	.	.
.	.	.	.	.	.	16a/JJ	.	16aa\JJ)	.	.	32ee\	.	.	.	.	.	.	.	.	.	.	.	.	.	.	16a/JJ)	.	.	.	16aa\JJ)yy	.	16aa\JJ)yy	.
.	.	.	.	.	.	.	.	.	.	.	32ee\	.	.	.	.	.	.	.	.	.	.	.	.	.	.	.	.	.	.	.	.	.	.
8AA/	.	8AA/yy	.	8g\ 8A\	.	16a#X/LL	.	(16aa#X\LL	.	.	32ee\	.	8AA/L	.	.	.	.	.	.	.	.	.	.	.	.	(16a#X/LL	.	.	.	(yy16aa#X\LLyy	.	(yy16aa#X\LLyy	.
.	.	.	.	.	.	.	.	.	.	.	32ee\	.	.	.	.	.	.	.	.	.	.	.	.	.	.	.	.	.	.	.	.	.	.
.	.	.	.	.	.	16b/JJ	.	16bb\JJ)	.	.	32ee\	.	.	.	.	.	.	.	.	.	.	.	.	.	.	16b/JJ)	.	.	.	16bb\JJ)yy	.	16bb\JJ)yy	.
.	.	.	.	.	.	.	.	.	.	.	32ee\	.	.	.	.	.	.	.	.	.	.	.	.	.	.	.	.	.	.	.	.	.	.
8AA/J	.	8AA/Jyy	.	8g\J 8A\	.	16b#X/LL	.	(16bb#X\LL	.	8r	32ee\	.	8AA/J	8AA/	8g\ 8e\	.	8ee/ 8g/	.	.	.	.	.	.	.	.	(16b#X/LL	.	.	.	(yy16bb#X\LLyy	.	(yy16bb#X\LLyy	.
.	.	.	.	.	.	.	.	.	.	.	32ee\	.	.	.	.	.	.	.	.	.	.	.	.	.	.	.	.	.	.	.	.	.	.
.	.	.	.	.	.	16cc#/JJ	.	16ccc#\JJ)	.	.	32ee\	.	.	.	.	.	.	.	.	.	.	.	.	.	.	16cc#/JJ)	.	.	.	16ccc#\JJ)yy	.	16ccc#\JJ)yy	.
.	.	.	.	.	.	.	.	.	.	.	32ee\JJJ	.	.	.	.	.	.	.	.	.	.	.	.	.	.	.	.	.	.	.	.	.	.
*Xtremolo	*	*Xtremolo	*	*Xtremolo	*	*	*	*	*	*	*	*	*	*	*	*	*	*	*	*	*	*	*	*	*	*	*	*	*	*	*	*	*
=82||	=82||	=82||	=82||	=82||	=82||	=82||	=82||	=82||	=82||	=82||	=82||	=82||	=82||	=82||	=82||	=82||	=82||	=82||	=82||	=82||	=82||	=82||	=82||	=82||	=82||	=82||	=82||	=82||	=82||	=82||	=82||	=82||	=82||
16.D\LL	.	16.D\LLyy	.	8f#\ 8A\	.	8dd\	.	8ddd\	.	8C/	8ee\	.	8D/	16.D\LL	8f#\ 8d\	.	16.dd/LL 16.f#/	.	16.A\LL 16.D\	.	8dd/	8dd\	.	8f#/ 8A/	.	8dd\	.	8ff#\ 8a\	.	8ddd\	.	8ddd\	.
32F#\JJk	.	32F#\JJkyy	.	.	.	.	.	.	.	.	.	.	.	32F#\JJk	.	.	32f#/JJk	.	32F#\JJk	.	.	.	.	.	.	.	.	.	.	.	.	.	.
!LO:TX:t=P:problem=mixed beam	!	!LO:TX:t=P:problem=mixed beam	!	!	!	!	!	!	!	!	!	!	!	!LO:TX:t=P:problem=mixed beam	!	!	!	!	!LO:TX:t=P:problem=mixed beam	!	!	!	!	!	!	!	!	!	!	!	!	!	!
8A\L	.	8A\Lyy	.	8r	.	8r	.	8r	.	8r	8r	.	8r	8A\L	8r	.	8a/L	.	8A\L	.	8r	8ryy	.	8r	.	8r	.	8r	.	8r	.	8r	.
8AA/J	.	8AA\Jyy	.	8e/ 8A/	.	8gg\ 8a\	.	8ccc#\ 8ee\	.	8C/	8ee\	.	8AA/	8AA/J	8e\ 8c#\	.	8cc#/J 8e/	.	8AA/J	.	8ee\	8cc#X\	.	8g/ 8A/	.	8ee\ 8cc#\	.	8aa\ 8cc#\	.	8ccc#\	.	8eee\	.
=83	=83	=83	=83	=83	=83	=83	=83	=83	=83	=83	=83	=83	=83	=83	=83	=83	=83	=83	=83	=83	=83	=83	=83	=83	=83	=83	=83	=83	=83	=83	=83	=83	=83
16.D\LL	.	16.D\LLyy	.	8f#/ 8A/ 8D/	.	8ff#\ 8a\ 8d\	.	8ddd\ 8ff#\	.	8C/	8ee\	.	8D/	16.D\LL	8f#\ 8d\	.	16.dd/LL 16.f#/	.	16.D\LL	.	8dd/	8dd\	.	8f#/ 8A/	.	8ff#\ 8dd\	.	8aa\ 8dd\	.	8ddd\	.	8fff#\	.
32B\JJK	.	32B\JJKyy	.	.	.	.	.	.	.	.	.	.	.	32B\JJk	.	.	32b/JJk	.	32B\JJk	.	.	.	.	.	.	.	.	.	.	.	.	.	.
!LO:TX:t=P:problem=mixed beam	!	!LO:TX:t=P:problem=mixed beam	!	!	!	!	!	!	!	!	!	!	!	!LO:TX:t=P:problem=mixed beam	!	!	!	!	!LO:TX:t=P:problem=mixed beam	!	!	!	!	!	!	!	!	!	!	!	!	!	!
8A\L	.	8A\Lyy	.	8r	.	8r	.	8r	.	8r	8r	.	8r	8A\L	8r	.	8a/L	.	8A\L	.	8r	8ryy	.	8r	.	8r	.	8r	.	8r	.	8r	.
8AA/J	.	8AA/Jyy	.	8d/ 8G/	.	8gg\ 8a\	.	8ccc#\ 8ee\	.	8C/	8ee\	.	8AA/	8AA/J	8e\ 8c#\	.	8cc#/J 8e/	.	8AA/J	.	8ee\ 8cc#X\	8ryy	.	8g/ 8A/	.	8ee\ 8cc#\	.	8aa\ 8cc#\	.	8ccc#\	.	8eee\	.
=84	=84	=84	=84	=84	=84	=84	=84	=84	=84	=84	=84	=84	=84	=84	=84	=84	=84	=84	=84	=84	=84	=84	=84	=84	=84	=84	=84	=84	=84	=84	=84	=84	=84
8D\	.	8D\yy	.	8f#/ 8A/ 8D/	.	8ff#\ 8a\ 8d\	.	8ddd\ 8ff#\	.	8C/	8ee\	.	8D/	8D\	8f#\ 8d\	.	8dd/ 8f#/	.	8D\	.	8dd/	8dd\	.	8f#/ 8A/	.	8ff#\ 8dd\	.	8aa\ 8dd\	.	8ddd\	.	8fff#\	.
8r	.	8ryy	.	8r	.	8r	.	8r	.	8r	8r	.	8r	8r	8r	.	8r	.	8r	.	8r	8ryy	.	8r	.	8r	.	8r	.	8r	.	8r	.
8r	.	8ryy	.	8r	.	8r	.	8r	.	8r	8r	.	8r	8r	8r	.	8r	.	8r	.	8r	8ryy	.	8r	.	8r	.	8r	.	8r	.	8r	.
=85	=85	=85	=85	=85	=85	=85	=85	=85	=85	=85	=85	=85	=85	=85	=85	=85	=85	=85	=85	=85	=85	=85	=85	=85	=85	=85	=85	=85	=85	=85	=85	=85	=85
8d\ 8D\	.	8dyy\ 8D\yy	.	8dd\ 8f#\ 8A\	.	8ddd\ 8ff#\ 8d\	.	8fff#\ 8a\ 8d\	.	8C/	8ee\	.	8D/	8D\	8f#\ 8A\	.	8dd/ 8f#/	.	8d\ 8D\	.	8dd/	8dd\	.	8f#/ 8A/	.	8aa\ 8ff#\	.	8ddd\ 8ff#\	.	8fff#\	.	8aaa\	.
8.r	.	8.ryy	.	8.r	.	8.r	.	8.r	.	8r	8r	.	8r	8r	8r	.	8r	.	8r	.	8r	8ryy	.	8r	.	8r	.	8r	.	8r	.	8r	.
.	.	.	.	.	.	.	.	.	.	8r	8r	.	8r	8r	8r	.	8r	.	8r	.	8r	8ryy	.	8r	.	8r	.	8r	.	8r	.	8r	.
16D\	.	16D\yy	.	16d\	.	16d/	.	16d/	.	.	.	.	.	.	.	.	.	.	.	.	.	.	.	.	.	.	.	.	.	.	.	.	.
*	*	*	*	*	*	*	*	*	*	*	*	*	*	*	*	*	*	*	*	*	*v	*v	*	*	*	*	*	*	*	*	*	*	*
=86	=86	=86	=86	=86	=86	=86	=86	=86	=86	=86	=86	=86	=86	=86	=86	=86	=86	=86	=86	=86	=86	=86	=86	=86	=86	=86	=86	=86	=86	=86	=86	=86
4.D\	.	4.D\yy	.	4.d\	.	4.d/	.	4.d/	.	4.r	4.r	.	4.DTT\	4.r	4.r	.	4.r	.	4.r	.	4.r	.	4.r	.	4.r	.	4.r	.	4.r	.	4.r	.
=87	=87	=87	=87	=87	=87	=87	=87	=87	=87	=87	=87	=87	=87	=87	=87	=87	=87	=87	=87	=87	=87	=87	=87	=87	=87	=87	=87	=87	=87	=87	=87	=87
*	*	*	*	*	*	*	*	*	*	*	*	*	*	*	*	*	*	*	*	*	*^	*	*	*	*	*	*	*	*	*	*	*
8D\	.	8D\yy	.	8dd\ 8f#\ 8A\	.	8ff#\ 8a\ 8d\	.	8ddd\ 8dd\ 8d\	.	8C/	8ee\	.	8D\	8D\	8f#\ 8A\	.	8dd/ 8f#/	.	8D/ 8DD/	.	8dd/	8dd\	.	8f#/ 8A/	.	8aa\ 8ff#\	.	8ddd\ 8ff#\	.	8ddd\	.	8fff#\	.
8r	.	8ryy	.	8r	.	8r	.	8r	.	8r	8r	.	8r	8r	8r	.	8r	.	8r	.	8r	8ryy	.	8r	.	8r	.	8r	.	8r	.	8r	.
8r;	.	8r;yy	.	8r;	.	8r;	.	8r;	.	8r;	8r;	.	8r;	8r;	8r;	.	8r;	.	8r;	.	8r;	8ryy	.	8r;	.	8r;	.	8r;	.	8r;	.	8r;	.
*	*	*	*	*	*	*	*	*	*	*	*	*	*	*	*	*	*	*	*	*	*v	*v	*	*	*	*	*	*	*	*	*	*	*
==	==	==	==	==	==	==	==	==	==	==	==	==	==	==	==	==	==	==	==	==	==	==	==	==	==	==	==	==	==	==	==	==
*-	*-	*-	*-	*-	*-	*-	*-	*-	*-	*-	*-	*-	*-	*-	*-	*-	*-	*-	*-	*-	*-	*-	*-	*-	*-	*-	*-	*-	*-	*-	*-	*-
!!!system-decoration: s1,s2,s3,s4[(s5,s6)]s7,s8[(s9,s10)]s11[(s12,s13)][(s14,s15)]s16[(s17,s18)]
!!!RDF**kern: > = above
!!!RDF**kern: < = below
!!!RDF**kern: | = vertical stroke
!!!EED: Leszek Kubiak
!!!EEV: 2021-06-17
!!!ENC: Andrzej Gręziak
!!!END: 2021-06-03
